;generated by ffslicer 1.3.0 10/07/16 16:23:18
;start gcode
M118 X46.14 Y49.33 Z28.00 T0
M140 S0
M104 S220 T0
M104 S0 T1
M107
G90
G28
M132 X Y Z A B
G1 Z50.00 F600
G161 X Y F3300
M6 T0
M907 X100 Y100 Z40 A80 B20
;preExtrude: 0.20
G1 Z.20 F400
M108 T0
;preExtruder0
G1 X46.14 Y34.34 F7200
G1 X45.96 Y36.59 E.3273 F1200
G1 X45.40 Y38.98 E.6833
G1 X44.47 Y41.25 E1.0390
G1 X43.19 Y43.37 E1.3982
G1 X41.62 Y45.24 E1.7522
G1 X39.77 Y46.86 E2.1088
G1 X37.71 Y48.16 E2.4621
G1 X35.06 Y49.33 E2.8821
G1 X-35.06 Y49.33 E13.0505
G1 X-37.70 Y48.16 E13.4693
G1 X-39.77 Y46.86 E13.8238
G1 X-41.61 Y45.25 E14.1783
G1 X-43.19 Y43.36 E14.5355
G1 X-44.47 Y41.25 E14.8934
G1 X-45.40 Y38.97 E15.2505
G1 X-45.96 Y36.59 E15.6051
G1 X-46.14 Y34.34 E15.9324
G1 X-46.14 Y24.22 E17.3999
;raft
;layer:0.28
G1 Z.28 F400
;shell
M106
G1 E16.0999 F1800
G1 X-40.54 Y7.96 F4200
G1 E17.3999 F1800
G1 X-40.54 Y7.96 F4200
G1 X-40.51 Y7.79 E17.4087 F1200
G1 X-39.67 Y7.82 E17.4513
G1 X-39.60 Y7.83 E17.4549
G1 X-39.60 Y8.75 E17.5016
G1 X-39.60 Y9.75 E17.5524
G1 X-39.60 Y10.75 E17.6031
G1 X-39.60 Y11.75 E17.6539
G1 X-39.60 Y34.12 E18.7893
G1 X-39.48 Y35.60 E18.8647
G1 X-39.14 Y37.02 E18.9388
G1 X-38.59 Y38.37 E19.0128
G1 X-37.82 Y39.61 E19.0868
G1 X-36.87 Y40.72 E19.1610
G1 X-35.76 Y41.67 E19.2351
G1 X-34.60 Y42.38 E19.3042
G1 X-34.60 Y43.41 E19.3564
G1 X-35.06 Y43.21 E19.3819
G1 X-36.41 Y42.36 E19.4629
G1 X-37.60 Y41.31 E19.5434
G1 X-38.63 Y40.09 E19.6245
G1 X-39.45 Y38.74 E19.7046
G1 X-40.05 Y37.27 E19.7852
G1 X-40.41 Y35.72 E19.8660
G1 X-40.54 Y34.12 E19.9475
G1 X-40.54 Y18.06 E20.7626
G1 X-40.54 Y16.06 E20.8641
G1 X-40.54 Y14.06 E20.9656
G1 X-40.54 Y12.06 E21.0671
G1 X-40.54 Y10.06 E21.1686
G1 X-40.54 Y8.06 E21.2701 F720
G1 X-40.94 Y7.92 E21.2701 F300
G1 X-40.83 Y7.38 E21.2981 F1200
G1 X-39.20 Y7.44 E21.3809
G1 X-39.20 Y34.11 E22.7345
G1 X-39.09 Y35.53 E22.8068
G1 X-38.76 Y36.89 E22.8778
G1 X-38.23 Y38.18 E22.9486
G1 X-37.50 Y39.37 E23.0195
G1 X-36.59 Y40.44 E23.0908
G1 X-35.52 Y41.35 E23.1621
G1 X-34.29 Y42.10 E23.2352
G1 X-34.20 Y42.14 E23.2402
G1 X-34.20 Y44.03 E23.3361
G1 X-35.25 Y43.56 E23.3945
G1 X-36.65 Y42.68 E23.4784
G1 X-37.89 Y41.60 E23.5619
G1 X-38.95 Y40.33 E23.6459
G1 X-39.81 Y38.91 E23.7301
G1 X-40.43 Y37.39 E23.8134
G1 X-40.81 Y35.79 E23.8969
G1 X-40.94 Y34.13 E23.9814
G1 X-40.94 Y8.02 E25.3066
G1 X-40.54 Y8.06 E25.3134 F300
;infill
G1 E24.0134 F1800
G1 X-39.94 Y8.20 F4200
G1 E25.3134 F1800
G1 X-39.94 Y8.20 F4200
G1 X-40.20 Y8.46 E25.3321 F1200
G1 X-40.20 Y9.03 E25.3610
G1 X-39.94 Y8.77 E25.3797
G1 X-39.94 Y9.33 E25.4081
G1 X-40.20 Y9.59 E25.4267
G1 X-40.20 Y10.16 E25.4557
G1 X-39.94 Y9.90 E25.4743
G1 X-39.94 Y10.47 E25.5033
G1 X-40.20 Y10.72 E25.5216
G1 X-40.20 Y11.29 E25.5505
G1 X-39.94 Y11.03 E25.5692
G1 X-39.94 Y11.60 E25.5981
G1 X-40.20 Y11.86 E25.6168
G1 X-40.20 Y12.42 E25.6452
G1 X-39.94 Y12.16 E25.6638
G1 X-39.94 Y12.73 E25.6928
G1 X-40.20 Y12.99 E25.7114
G1 X-40.20 Y13.55 E25.7398
G1 X-39.94 Y13.29 E25.7585
G1 X-39.94 Y13.86 E25.7874
G1 X-40.20 Y14.12 E25.8061
G1 X-40.20 Y14.68 E25.8345
G1 X-39.94 Y14.43 E25.8528
G1 X-39.94 Y14.99 E25.8813
G1 X-40.20 Y15.25 E25.8999
G1 X-40.20 Y15.82 E25.9288
G1 X-39.94 Y15.56 E25.9475
G1 X-39.94 Y16.12 E25.9759
G1 X-40.20 Y16.38 E25.9946
G1 X-40.20 Y16.95 E26.0235
G1 X-39.94 Y16.69 E26.0422
G1 X-39.94 Y17.25 E26.0706
G1 X-40.20 Y17.51 E26.0893
G1 X-40.20 Y18.08 E26.1182
G1 X-39.94 Y17.82 E26.1369
G1 X-39.94 Y18.39 E26.1658
G1 X-40.20 Y18.64 E26.1841
G1 X-40.20 Y19.21 E26.2130
G1 X-39.94 Y18.95 E26.2317
G1 X-39.94 Y19.52 E26.2606
G1 X-40.20 Y19.78 E26.2793
G1 X-40.20 Y20.34 E26.3077
G1 X-39.94 Y20.08 E26.3264
G1 X-39.94 Y20.65 E26.3553
G1 X-40.20 Y20.91 E26.3740
G1 X-40.20 Y21.47 E26.4024
G1 X-39.94 Y21.21 E26.4210
G1 X-39.94 Y21.78 E26.4500
G1 X-40.20 Y22.04 E26.4686
G1 X-40.20 Y22.60 E26.4971
G1 X-39.94 Y22.35 E26.5154
G1 X-39.94 Y22.91 E26.5438
G1 X-40.20 Y23.17 E26.5624
G1 X-40.20 Y23.74 E26.5914
G1 X-39.94 Y23.48 E26.6100
G1 X-39.94 Y24.04 E26.6385
G1 X-40.20 Y24.30 E26.6571
G1 X-40.20 Y24.87 E26.6861
G1 X-39.94 Y24.61 E26.7047
G1 X-39.94 Y25.17 E26.7331
G1 X-40.20 Y25.43 E26.7518
G1 X-40.20 Y26.00 E26.7807
G1 X-39.94 Y25.74 E26.7994
G1 X-39.94 Y26.31 E26.8283
G1 X-40.20 Y26.56 E26.8466
G1 X-40.20 Y27.13 E26.8756
G1 X-39.94 Y26.87 E26.8942
G1 X-39.94 Y27.44 E26.9231
G1 X-40.20 Y27.70 E26.9418
G1 X-40.20 Y28.26 E26.9702
G1 X-39.94 Y28.00 E26.9889
G1 X-39.94 Y28.57 E27.0178
G1 X-40.20 Y28.83 E27.0365
G1 X-40.20 Y29.39 E27.0649
G1 X-39.94 Y29.13 E27.0836
G1 X-39.94 Y29.70 E27.1125
G1 X-40.20 Y29.96 E27.1312
G1 X-40.20 Y30.52 E27.1596
G1 X-39.94 Y30.26 E27.1782
G1 X-39.94 Y30.83 E27.2072
G1 X-40.20 Y31.09 E27.2258
G1 X-40.20 Y31.66 E27.2548
G1 X-39.94 Y31.40 E27.2734
G1 X-39.94 Y31.96 E27.3018
G1 X-40.20 Y32.22 E27.3205
G1 X-40.20 Y32.79 E27.3494
G1 X-39.94 Y32.53 E27.3681
G1 X-39.94 Y33.09 E27.3965
G1 X-40.20 Y33.35 E27.4152
G1 X-40.20 Y33.92 E27.4441
G1 X-39.94 Y33.66 E27.4628
G1 X-39.94 Y34.14 E27.4871
G1 X-39.93 Y34.22 E27.4912
G1 X-40.17 Y34.46 E27.5085
G1 X-40.13 Y34.98 E27.5349
G1 X-39.89 Y34.74 E27.5522
G1 X-39.85 Y35.27 E27.5791
G1 X-40.09 Y35.51 E27.5964
G1 X-40.08 Y35.66 E27.6040
G1 X-40.00 Y35.98 E27.6207
G1 X-39.79 Y35.77 E27.6358
G1 X-39.68 Y36.23 E27.6598
G1 X-39.89 Y36.44 E27.6749
G1 X-39.78 Y36.90 E27.6989
G1 X-39.57 Y36.68 E27.7143
G1 X-39.47 Y37.13 E27.7377
G1 X-39.46 Y37.14 E27.7384
G1 X-39.65 Y37.33 E27.7521
G1 X-39.49 Y37.73 E27.7739
G1 X-39.29 Y37.54 E27.7880
G1 X-39.13 Y37.94 E27.8098
G1 X-39.32 Y38.13 E27.8235
G1 X-39.16 Y38.54 E27.8458
G1 X-38.96 Y38.34 E27.8601
G1 X-38.89 Y38.52 E27.8700
G1 X-38.77 Y38.71 E27.8814
G1 X-38.95 Y38.90 E27.8946
G1 X-38.74 Y39.25 E27.9154
G1 X-38.55 Y39.06 E27.9290
G1 X-38.34 Y39.41 E27.9497
G1 X-38.53 Y39.60 E27.9634
G1 X-38.35 Y39.89 E27.9807
G1 X-38.31 Y39.95 E27.9843
G1 X-38.13 Y39.76 E27.9976
G1 X-38.10 Y39.81 E28.0006
G1 X-37.87 Y40.07 E28.0182
G1 X-38.05 Y40.25 E28.0311
G1 X-37.79 Y40.56 E28.0517
G1 X-37.61 Y40.38 E28.0646
G1 X-37.35 Y40.68 E28.0847
G1 X-37.53 Y40.87 E28.0980
G1 X-37.36 Y41.07 E28.1113
G1 X-37.26 Y41.16 E28.1182
G1 X-37.08 Y40.98 E28.1311
G1 X-36.78 Y41.24 E28.1512
G1 X-36.96 Y41.42 E28.1641
G1 X-36.65 Y41.69 E28.1850
G1 X-36.47 Y41.51 E28.1979
G1 X-36.17 Y41.77 E28.2181
G1 X-36.35 Y41.95 E28.2310
G1 X-36.21 Y42.08 E28.2407
G1 X-36.03 Y42.19 E28.2514
G1 X-35.85 Y42.01 E28.2643
G1 X-35.50 Y42.23 E28.2853
G1 X-35.68 Y42.41 E28.2982
G1 X-35.34 Y42.63 E28.3188
G1 X-35.15 Y42.44 E28.3324
G1 X-34.94 Y42.57 E28.3450
G1 X-34.94 Y42.80 E28.3566
G1 X-34.96 Y42.82 E28.3581
;shell
G1 E27.0581 F1800
G1 X34.60 Y42.38 F4200
G1 E28.3581 F1800
G1 X34.60 Y42.38 F4200
G1 X35.45 Y41.86 E28.4086 F1200
G1 X35.76 Y41.67 E28.4271
G1 X36.25 Y41.26 E28.4595
G1 X36.87 Y40.72 E28.5012
G1 X36.99 Y40.59 E28.5102
G1 X37.64 Y39.83 E28.5610
G1 X37.82 Y39.61 E28.5754
G1 X38.20 Y39.00 E28.6119
G1 X38.59 Y38.37 E28.6495
G1 X39.14 Y37.02 E28.7235
G1 X39.49 Y35.60 E28.7977
G1 X39.60 Y34.11 E28.8735
G1 X39.60 Y23.59 E29.4075
G1 X39.88 Y23.60 E29.4217
G1 X40.54 Y23.68 E29.4554
G1 X40.54 Y34.12 E29.9853
G1 X40.42 Y35.72 E30.0668
G1 X40.19 Y36.67 E30.1164
G1 X40.05 Y37.27 E30.1476
G1 X39.53 Y38.55 E30.2178
G1 X39.45 Y38.74 E30.2282
G1 X38.63 Y40.10 E30.3088
G1 X38.50 Y40.25 E30.3189
G1 X37.61 Y41.31 E30.3892
G1 X37.14 Y41.72 E30.4208
G1 X36.42 Y42.36 E30.4697
G1 X35.54 Y42.91 E30.5224
G1 X35.06 Y43.21 E30.5511 F720
G1 X34.60 Y43.41 E30.5766
G1 X34.60 Y42.49 E30.6233
G1 X34.20 Y42.14 E30.6233 F300
G1 X34.32 Y42.08 E30.6301 F1200
G1 X35.53 Y41.35 E30.7018
G1 X36.59 Y40.44 E30.7727
G1 X37.50 Y39.37 E30.8440
G1 X38.23 Y38.18 E30.9149
G1 X38.76 Y36.89 E30.9856
G1 X39.09 Y35.53 E31.0567
G1 X39.20 Y34.10 E31.1295
G1 X39.20 Y23.18 E31.6837
G1 X39.91 Y23.20 E31.7198
G1 X40.84 Y23.31 E31.7673
G1 X40.94 Y23.68 E31.7867
G1 X40.94 Y34.13 E32.3171
G1 X40.81 Y35.79 E32.4016
G1 X40.43 Y37.39 E32.4851
G1 X39.81 Y38.91 E32.5684
G1 X38.95 Y40.33 E32.6527
G1 X37.90 Y41.59 E32.7359
G1 X36.65 Y42.68 E32.8201
G1 X35.25 Y43.56 E32.9040
G1 X34.20 Y44.03 E32.9624
G1 X34.20 Y42.24 E33.0533
G1 X34.60 Y42.48 E33.0612 F300
;infill
G1 E31.7612 F1800
G1 X35.05 Y42.81 F4200
G1 E33.0612 F1800
G1 X35.05 Y42.81 F4200
G1 X35.85 Y42.01 E33.1186 F1200
G1 E31.8186 F1800
G1 X37.31 Y41.12 F4200
G1 E33.1186 F1800
G1 X37.31 Y41.12 F4200
G1 X37.40 Y41.03 E33.1250 F1200
G1 X38.35 Y39.91 E33.1996
G1 X38.94 Y38.93 E33.2576
G1 X38.17 Y39.70 E33.3129
G1 X38.89 Y38.52 E33.3831
G1 X38.97 Y38.33 E33.3935
G1 X39.44 Y37.86 E33.4273
G1 X39.72 Y37.17 E33.4651
G1 X39.77 Y36.96 E33.4760
G1 X39.37 Y37.37 E33.5051
G1 X39.47 Y37.13 E33.5183
G1 X39.60 Y36.57 E33.5475
G1 X39.95 Y36.22 E33.5726
G1 X40.08 Y35.66 E33.6018
G1 X40.09 Y35.51 E33.6094
G1 X39.78 Y35.82 E33.6316
G1 X39.82 Y35.65 E33.6405
G1 X39.86 Y35.18 E33.6644
G1 X40.14 Y34.90 E33.6845
G1 X40.18 Y34.29 E33.7156
G1 X39.91 Y34.56 E33.7349
G1 X39.94 Y34.13 E33.7568
G1 X39.94 Y33.97 E33.7649
G1 X40.20 Y33.71 E33.7836
G1 X40.20 Y33.14 E33.8125
G1 X39.94 Y33.40 E33.8312
G1 X39.94 Y32.83 E33.8601
G1 X40.20 Y32.57 E33.8788
G1 X40.20 Y32.01 E33.9072
G1 X39.94 Y32.27 E33.9259
G1 X39.94 Y31.70 E33.9548
G1 X40.20 Y31.44 E33.9735
G1 X40.20 Y30.88 E34.0019
G1 X39.94 Y31.14 E34.0206
G1 X39.94 Y30.57 E34.0495
G1 X40.20 Y30.31 E34.0682
G1 X40.20 Y29.75 E34.0966
G1 X39.94 Y30.01 E34.1152
G1 X39.94 Y29.44 E34.1442
G1 X40.20 Y29.18 E34.1628
G1 X40.20 Y28.62 E34.1913
G1 X39.94 Y28.87 E34.2096
G1 X39.94 Y28.31 E34.2380
G1 X40.20 Y28.05 E34.2567
G1 X40.20 Y27.48 E34.2856
G1 X39.94 Y27.74 E34.3042
G1 X39.94 Y27.18 E34.3327
G1 X40.20 Y26.92 E34.3513
G1 X40.20 Y26.35 E34.3803
G1 X39.94 Y26.61 E34.3989
G1 X39.94 Y26.05 E34.4274
G1 X40.20 Y25.79 E34.4460
G1 X40.20 Y25.22 E34.4749
G1 X39.94 Y25.48 E34.4936
G1 X39.94 Y24.91 E34.5225
G1 X40.20 Y24.66 E34.5408
G1 X40.20 Y24.09 E34.5698
G1 X39.94 Y24.35 E34.5884
;shell
G1 E33.2884 F1800
G1 X39.60 Y-44.75 F4200
G1 E34.5884 F1800
G1 X39.60 Y-44.75 F4200
G1 X40.54 Y-44.75 E34.6361 F1200
G1 X40.54 Y-44.69 E34.6392
G1 X40.54 Y-43.69 E34.6900
G1 X40.54 Y-42.69 E34.7407
G1 X40.54 Y-41.69 E34.7915
G1 X40.54 Y-40.69 E34.8422
G1 X40.54 Y-7.31 E36.5364
G1 X39.60 Y-7.31 E36.5841
G1 X39.60 Y-34.65 E37.9718
G1 X39.60 Y-36.65 E38.0733
G1 X39.60 Y-38.65 E38.1748
G1 X39.60 Y-40.65 E38.2763
G1 X39.60 Y-42.65 E38.3778
G1 X39.60 Y-44.65 E38.4793 F720
G1 X39.20 Y-45.15 E38.4793 F300
G1 X40.94 Y-45.15 E38.5676 F1200
G1 X40.94 Y-7.37 E40.4852
G1 X40.86 Y-6.91 E40.5089
G1 X39.20 Y-6.91 E40.5931
G1 X39.20 Y-45.05 E42.5289
G1 X39.60 Y-44.65 E42.5384 F300
;infill
G1 E41.2385 F1800
G1 X39.94 Y-44.17 F4200
G1 E42.5384 F1800
G1 X39.94 Y-44.17 F4200
G1 X40.18 Y-44.41 E42.5557 F1200
G1 X40.20 Y-44.41 E42.5567
G1 X40.20 Y-43.86 E42.5846
G1 X39.94 Y-43.60 E42.6033
G1 X39.94 Y-43.04 E42.6317
G1 X40.20 Y-43.30 E42.6504
G1 X40.20 Y-42.73 E42.6793
G1 X39.94 Y-42.47 E42.6980
G1 X39.94 Y-41.90 E42.7269
G1 X40.20 Y-42.16 E42.7455
G1 X40.20 Y-41.60 E42.7740
G1 X39.94 Y-41.34 E42.7926
G1 X39.94 Y-40.77 E42.8216
G1 X40.20 Y-41.03 E42.8402
G1 X40.20 Y-40.47 E42.8686
G1 X39.94 Y-40.21 E42.8873
G1 X39.94 Y-39.64 E42.9162
G1 X40.20 Y-39.90 E42.9349
G1 X40.20 Y-39.34 E42.9633
G1 X39.94 Y-39.08 E42.9820
G1 X39.94 Y-38.51 E43.0109
G1 X40.20 Y-38.77 E43.0296
G1 X40.20 Y-38.20 E43.0585
G1 X39.94 Y-37.94 E43.0772
G1 X39.94 Y-37.38 E43.1056
G1 X40.20 Y-37.64 E43.1243
G1 X40.20 Y-37.07 E43.1532
G1 X39.94 Y-36.81 E43.1719
G1 X39.94 Y-36.25 E43.2003
G1 X40.20 Y-36.51 E43.2189
G1 X40.20 Y-35.94 E43.2479
G1 X39.94 Y-35.68 E43.2665
G1 X39.94 Y-35.12 E43.2950
G1 X40.20 Y-35.38 E43.3136
G1 X40.20 Y-34.81 E43.3426
G1 X39.94 Y-34.55 E43.3612
G1 X39.94 Y-33.98 E43.3901
G1 X40.20 Y-34.24 E43.4088
G1 X40.20 Y-33.68 E43.4372
G1 X39.94 Y-33.42 E43.4559
G1 X39.94 Y-32.85 E43.4848
G1 X40.20 Y-33.11 E43.5035
G1 X40.20 Y-32.55 E43.5319
G1 X39.94 Y-32.29 E43.5506
G1 X39.94 Y-31.72 E43.5795
G1 X40.20 Y-31.98 E43.5982
G1 X40.20 Y-31.42 E43.6266
G1 X39.94 Y-31.16 E43.6453
G1 X39.94 Y-30.59 E43.6742
G1 X40.20 Y-30.85 E43.6928
G1 X40.20 Y-30.28 E43.7218
G1 X39.94 Y-30.03 E43.7401
G1 X39.94 Y-29.46 E43.7690
G1 X40.20 Y-29.72 E43.7877
G1 X40.20 Y-29.15 E43.8166
G1 X39.94 Y-28.89 E43.8353
G1 X39.94 Y-28.33 E43.8637
G1 X40.20 Y-28.59 E43.8824
G1 X40.20 Y-28.02 E43.9113
G1 X39.94 Y-27.76 E43.9300
G1 X39.94 Y-27.20 E43.9584
G1 X40.20 Y-27.46 E43.9770
G1 X40.20 Y-26.89 E44.0060
G1 X39.94 Y-26.63 E44.0246
G1 X39.94 Y-26.07 E44.0531
G1 X40.20 Y-26.32 E44.0714
G1 X40.20 Y-25.76 E44.0998
G1 X39.94 Y-25.50 E44.1185
G1 X39.94 Y-24.93 E44.1474
G1 X40.20 Y-25.19 E44.1660
G1 X40.20 Y-24.63 E44.1945
G1 X39.94 Y-24.37 E44.2131
G1 X39.94 Y-23.80 E44.2421
G1 X40.20 Y-24.06 E44.2607
G1 X40.20 Y-23.50 E44.2891
G1 X39.94 Y-23.24 E44.3078
G1 X39.94 Y-22.67 E44.3367
G1 X40.20 Y-22.93 E44.3554
G1 X40.20 Y-22.37 E44.3838
G1 X39.94 Y-22.11 E44.4025
G1 X39.94 Y-21.54 E44.4314
G1 X40.20 Y-21.80 E44.4501
G1 X40.20 Y-21.23 E44.4790
G1 X39.94 Y-20.97 E44.4977
G1 X39.94 Y-20.41 E44.5261
G1 X40.20 Y-20.67 E44.5448
G1 X40.20 Y-20.10 E44.5737
G1 X39.94 Y-19.84 E44.5924
G1 X39.94 Y-19.28 E44.6208
G1 X40.20 Y-19.54 E44.6394
G1 X40.20 Y-18.97 E44.6684
G1 X39.94 Y-18.71 E44.6870
G1 X39.94 Y-18.15 E44.7155
G1 X40.20 Y-18.41 E44.7341
G1 X40.20 Y-17.84 E44.7631
G1 X39.94 Y-17.58 E44.7817
G1 X39.94 Y-17.01 E44.8106
G1 X40.20 Y-17.27 E44.8293
G1 X40.20 Y-16.71 E44.8577
G1 X39.94 Y-16.45 E44.8764
G1 X39.94 Y-15.88 E44.9053
G1 X40.20 Y-16.14 E44.9240
G1 X40.20 Y-15.58 E44.9524
G1 X39.94 Y-15.32 E44.9711
G1 X39.94 Y-14.75 E45.0000
G1 X40.20 Y-15.01 E45.0187
G1 X40.20 Y-14.45 E45.0471
G1 X39.94 Y-14.19 E45.0658
G1 X39.94 Y-13.62 E45.0947
G1 X40.20 Y-13.88 E45.1133
G1 X40.20 Y-13.31 E45.1423
G1 X39.94 Y-13.05 E45.1609
G1 X39.94 Y-12.49 E45.1894
G1 X40.20 Y-12.75 E45.2080
G1 X40.20 Y-12.18 E45.2370
G1 X39.94 Y-11.92 E45.2556
G1 X39.94 Y-11.36 E45.2840
G1 X40.20 Y-11.62 E45.3027
G1 X40.20 Y-11.05 E45.3316
G1 X39.94 Y-10.79 E45.3503
G1 X39.94 Y-10.23 E45.3787
G1 X40.20 Y-10.49 E45.3974
G1 X40.20 Y-9.92 E45.4263
G1 X39.94 Y-9.66 E45.4450
G1 X39.94 Y-9.09 E45.4739
G1 X40.20 Y-9.35 E45.4926
G1 X40.20 Y-8.79 E45.5210
G1 X39.94 Y-8.53 E45.5397
G1 X39.94 Y-7.96 E45.5686
G1 X40.20 Y-8.22 E45.5873
G1 X40.20 Y-7.66 E45.6157
G1 X40.19 Y-7.65 E45.6164
;shell
G1 E44.3164 F1800
G1 X-40.54 Y-44.75 F4200
G1 E45.6164 F1800
G1 X-40.54 Y-44.75 F4200
G1 X-39.60 Y-44.75 E45.6641 F1200
G1 X-39.60 Y-44.69 E45.6672
G1 X-39.60 Y-43.69 E45.7179
G1 X-39.60 Y-42.69 E45.7687
G1 X-39.60 Y-41.69 E45.8194
G1 X-39.60 Y-40.69 E45.8702
G1 X-39.60 Y-12.98 E47.2766
G1 X-40.50 Y-12.98 E47.3223
G1 X-40.54 Y-13.16 E47.3316
G1 X-40.54 Y-34.65 E48.4224
G1 X-40.54 Y-36.65 E48.5239
G1 X-40.54 Y-38.65 E48.6254
G1 X-40.54 Y-40.65 E48.7269
G1 X-40.54 Y-42.65 E48.8284
G1 X-40.54 Y-44.65 E48.9299 F720
G1 X-40.94 Y-45.15 E48.9299 F300
G1 X-39.20 Y-45.15 E49.0182 F1200
G1 X-39.20 Y-12.58 E50.6713
G1 X-40.84 Y-12.58 E50.7546
G1 X-40.94 Y-13.12 E50.7824
G1 X-40.94 Y-45.05 E52.4030
G1 X-40.54 Y-44.65 E52.4126 F300
;infill
G1 E51.1126 F1800
G1 X-40.20 Y-44.18 F4200
G1 E52.4126 F1800
G1 X-40.20 Y-44.18 F4200
G1 X-39.97 Y-44.41 E52.4291 F1200
G1 X-39.94 Y-44.41 E52.4306
G1 X-39.94 Y-43.88 E52.4575
G1 X-40.20 Y-43.62 E52.4762
G1 X-40.20 Y-43.05 E52.5051
G1 X-39.94 Y-43.31 E52.5238
G1 X-39.94 Y-42.74 E52.5527
G1 X-40.20 Y-42.48 E52.5714
G1 X-40.20 Y-41.92 E52.5998
G1 X-39.94 Y-42.18 E52.6184
G1 X-39.94 Y-41.61 E52.6474
G1 X-40.20 Y-41.35 E52.6660
G1 X-40.20 Y-40.79 E52.6945
G1 X-39.94 Y-41.05 E52.7131
G1 X-39.94 Y-40.48 E52.7421
G1 X-40.20 Y-40.22 E52.7607
G1 X-40.20 Y-39.66 E52.7891
G1 X-39.94 Y-39.92 E52.8078
G1 X-39.94 Y-39.35 E52.8367
G1 X-40.20 Y-39.09 E52.8554
G1 X-40.20 Y-38.53 E52.8838
G1 X-39.94 Y-38.78 E52.9021
G1 X-39.94 Y-38.22 E52.9306
G1 X-40.20 Y-37.96 E52.9492
G1 X-40.20 Y-37.39 E52.9781
G1 X-39.94 Y-37.65 E52.9968
G1 X-39.94 Y-37.09 E53.0252
G1 X-40.20 Y-36.83 E53.0439
G1 X-40.20 Y-36.26 E53.0728
G1 X-39.94 Y-36.52 E53.0915
G1 X-39.94 Y-35.96 E53.1199
G1 X-40.20 Y-35.70 E53.1386
G1 X-40.20 Y-35.13 E53.1675
G1 X-39.94 Y-35.39 E53.1862
G1 X-39.94 Y-34.82 E53.2151
G1 X-40.20 Y-34.56 E53.2338
G1 X-40.20 Y-34.00 E53.2622
G1 X-39.94 Y-34.26 E53.2809
G1 X-39.94 Y-33.69 E53.3098
G1 X-40.20 Y-33.43 E53.3284
