;generated by ffslicer 1.3.0 10/07/16 16:26:10
;start gcode
M118 X47.94 Y31.01 Z19.63 T0
M140 S0
M104 S225 T0
M104 S0 T1
M107
G90
G28
M132 X Y Z A B
G1 Z50.00 F600
G161 X Y F3300
M6 T0
M907 X100 Y100 Z40 A80 B20
;preExtrude: 0.20
G1 Z.20 F400
M108 T0
;preExtruder0
G1 X-33.79 Y-20.36 F7200
G1 X46.40 Y-3.97 E11.8691 F1200
G1 X47.94 Y1.76 E12.7295
G1 X47.75 Y15.96 E14.7889
G1 X44.70 Y23.44 E15.9603
G1 X38.68 Y28.69 E17.1186
G1 X36.89 Y29.48 E17.4024
;raft
;layer:0.40
G1 Z.40 F400
;support-start
;raft
G1 X44.95 Y-2.43 F4200
G1 X46.14 Y1.99 E19.0618 F600
G1 X45.96 Y15.60 E23.9964
G1 X43.19 Y22.36 E26.6449
G1 X37.70 Y27.16 E29.2887
G1 X29.00 Y31.01 E32.7378
G1 X29.00 Y17.79 E37.5305
G1 X33.58 Y14.81 E39.5114
G1 X34.00 Y12.90 E40.2204
G1 X34.00 Y-3.18 E46.0500
G1 X44.95 Y-2.43 E50.0290
G1 X39.77 Y-1.78 F4200
G1 X45.11 Y3.57 E52.7694 F600
G1 X45.04 Y9.15 E54.7925
G1 X35.00 Y-.89 E59.9401
G1 X35.00 Y4.77 E61.9920
G1 X44.97 Y14.73 E67.1011
G1 X44.96 Y15.39 E67.3404
G1 X43.51 Y18.93 E68.7273
G1 X35.00 Y10.42 E73.0904
G1 X35.00 Y13.01 E74.0293
G1 X34.47 Y15.43 E74.9275
G1 X34.40 Y15.48 E74.9587
G1 X41.46 Y22.54 E78.5783
G1 X38.44 Y25.18 E80.0326
G1 X30.97 Y17.70 E83.8650
G1 X30.00 Y18.33 E84.2843
G1 X30.00 Y22.39 E85.7562
G1 X34.91 Y27.30 E88.2736
G1 X30.98 Y29.04 E89.8318
G1 X30.00 Y28.05 E90.3368
;raft
G1 X-34.00 Y-18.57 F4200
G1 X-33.94 Y13.71 E102.0394 F600
G1 X-32.47 Y16.12 E103.0629
G1 X-29.00 Y18.21 E104.5314
G1 X-29.00 Y31.01 E109.1719
G1 X-39.76 Y25.86 E113.4965
G1 X-44.46 Y20.25 E116.1498
G1 X-46.13 Y13.34 E118.7270
G1 X-46.13 Y-13.57 E128.4829
G1 X-45.12 Y-18.96 E130.4710
G1 X-34.00 Y-18.57 E134.5048
G1 X-35.00 Y-17.49 F4200
G1 X-35.11 Y-17.61 E134.5638 F600
G1 X-40.98 Y-17.81 E136.6932
G1 X-34.99 Y-11.82 E139.7642
G1 X-34.97 Y-6.15 E141.8198
G1 X-44.68 Y-15.86 E146.7982
G1 X-45.13 Y-13.47 E147.6799
G1 X-45.13 Y-10.66 E148.6986
G1 X-34.96 Y-.49 E153.9128
G1 X-34.95 Y5.18 E155.9683
G1 X-45.13 Y-5.00 E161.1877
G1 X-45.13 Y.66 E163.2396
G1 X-34.94 Y10.85 E168.4641
G1 X-34.94 Y13.99 E169.6024
G1 X-33.20 Y16.85 E170.8161
G1 X-30.00 Y18.77 E172.1690
G1 X-30.00 Y21.45 E173.1406
G1 X-45.13 Y6.31 E180.9003
G1 X-45.13 Y11.97 E182.9523
G1 X-30.00 Y27.11 E190.7120
G1 X-30.00 Y29.42 E191.5495
G1 X-36.41 Y26.35 E194.1261
G1 X-43.73 Y19.03 E197.8791
;support-end
;layer:0.20
G1 Z.60 F400
;support-start
;raft
M104 S220 T0
G1 X-34.00 Y-18.57 F7200
G1 X-33.94 Y13.71 E199.0494 F3600
G1 X-32.47 Y16.12 E199.1517
G1 X-29.00 Y18.21 E199.2986
G1 X-29.00 Y31.01 E199.7626
G1 X-39.76 Y25.86 E200.1951
G1 X-44.46 Y20.25 E200.4604
G1 X-46.13 Y13.34 E200.7181
G1 X-46.13 Y-13.57 E201.6937
G1 X-45.12 Y-18.96 E201.8925
G1 X-34.00 Y-18.57 E202.2959
G1 X-44.53 Y-18.74 F7200
G1 X-45.05 Y-18.22 E202.3226 F3600
G1 X-45.49 Y-15.90 E202.4082
G1 X-42.71 Y-18.67 E202.5505
G1 X-40.89 Y-18.61 E202.6165
G1 X-45.93 Y-13.57 E202.8749
G1 X-45.93 Y-13.55 E202.8756
G1 X-45.93 Y-11.68 E202.9434
G1 X-39.07 Y-18.55 E203.2954
G1 X-37.25 Y-18.48 E203.3614
G1 X-45.93 Y-9.80 E203.8064
G1 X-45.93 Y-7.91 E203.8749
G1 X-35.43 Y-18.42 E204.4135
G1 X-34.20 Y-18.37 E204.4582
G1 X-34.20 Y-17.76 E204.4803
G1 X-45.93 Y-6.03 E205.0817
G1 X-45.93 Y-4.14 E205.1502
G1 X-34.19 Y-15.88 E205.7521
G1 X-34.19 Y-14.00 E205.8203
G1 X-45.93 Y-2.26 E206.4222
G1 X-45.93 Y-.37 E206.4907
G1 X-34.19 Y-12.12 E207.0929
G1 X-34.18 Y-10.24 E207.1610
G1 X-45.93 Y1.51 E207.7634
G1 X-45.93 Y3.40 E207.8319
G1 X-34.18 Y-8.35 E208.4344
G1 X-34.18 Y-6.47 E208.5025
G1 X-45.93 Y5.28 E209.1049
G1 X-45.93 Y7.17 E209.1735
G1 X-34.17 Y-4.59 E209.7764
G1 X-34.17 Y-2.71 E209.8446
G1 X-45.93 Y9.05 E210.4475
G1 X-45.93 Y10.94 E210.5160
G1 X-34.17 Y-.83 E211.1192
G1 X-34.16 Y1.05 E211.1874
G1 X-45.93 Y12.82 E211.7908
G1 X-45.93 Y13.32 E211.8089
G1 X-45.66 Y14.44 E211.8507
G1 X-34.16 Y2.94 E212.4403
G1 X-34.15 Y4.82 E212.5085
G1 X-45.29 Y15.96 E213.0796
G1 X-44.93 Y17.48 E213.1362
G1 X-34.15 Y6.70 E213.6889
G1 X-34.15 Y8.58 E213.7571
G1 X-44.56 Y18.99 E214.2908
G1 X-44.28 Y20.16 E214.3344
G1 X-44.08 Y20.40 E214.3457
G1 X-34.14 Y10.46 E214.8554
G1 X-34.14 Y12.34 E214.9235
G1 X-43.22 Y21.42 E215.3891
G1 X-42.36 Y22.45 E215.4377
G1 X-33.96 Y14.05 E215.8684
G1 X-33.25 Y15.22 E215.9180
G1 X-41.50 Y23.47 E216.3410
G1 X-40.64 Y24.50 E216.3896
G1 X-32.48 Y16.34 E216.8080
G1 X-31.31 Y17.05 E216.8576
G1 X-39.78 Y25.52 E217.2918
G1 X-39.64 Y25.70 E217.3001
G1 X-38.57 Y26.20 E217.3429
G1 X-30.13 Y17.76 E217.7756
G1 X-29.20 Y18.32 E217.8150
G1 X-29.20 Y18.71 E217.8291
G1 X-37.30 Y26.81 E218.2444
G1 X-36.02 Y27.42 E218.2958
G1 X-29.20 Y20.60 E218.6455
G1 X-29.20 Y22.48 E218.7137
G1 X-34.75 Y28.03 E218.9982
G1 X-33.47 Y28.64 E219.0496
G1 X-29.20 Y24.37 E219.2685
G1 X-29.20 Y26.25 E219.3367
G1 X-32.20 Y29.25 E219.4905
G1 X-30.92 Y29.86 E219.5419
G1 X-29.20 Y28.14 E219.6301
G1 X-29.20 Y30.02 E219.6982
G1 X-29.65 Y30.47 E219.7213
;raft
G1 X44.95 Y-2.43 F7200
G1 X46.14 Y1.99 E219.8873 F3600
G1 X45.96 Y15.60 E220.3807
G1 X43.19 Y22.36 E220.6456
G1 X37.70 Y27.16 E220.9100
G1 X29.00 Y31.01 E221.2548
G1 X29.00 Y17.79 E221.7341
G1 X33.58 Y14.81 E221.9322
G1 X34.00 Y12.90 E222.0031
G1 X34.00 Y-3.18 E222.5861
G1 X44.95 Y-2.43 E222.9840
G1 X34.20 Y-1.65 F7200
G1 X35.43 Y-2.88 E223.0470 F3600
G1 X37.20 Y-2.76 E223.1114
G1 X34.20 Y.24 E223.2652
G1 X34.20 Y2.12 E223.3333
G1 X38.96 Y-2.64 E223.5774
G1 X40.72 Y-2.52 E223.6413
G1 X34.20 Y4.01 E223.9759
G1 X34.20 Y5.89 E224.0440
G1 X42.49 Y-2.39 E224.4688
G1 X44.25 Y-2.27 E224.5327
G1 X34.20 Y7.78 E225.0480
G1 X34.20 Y9.66 E225.1162
G1 X45.07 Y-1.21 E225.6735
G1 X45.47 Y.28 E225.7294
G1 X34.20 Y11.55 E226.3072
G1 X34.20 Y12.92 E226.3569
G1 X34.06 Y13.58 E226.3814
G1 X45.87 Y1.77 E226.9869
G1 X45.94 Y2.01 E226.9959
G1 X45.91 Y3.61 E227.0539
G1 X29.20 Y20.32 E227.9107
G1 X29.20 Y22.20 E227.9788
G1 X45.89 Y5.52 E228.8342
G1 X45.86 Y7.43 E228.9035
G1 X29.20 Y24.09 E229.7577
G1 X29.20 Y25.97 E229.8258
G1 X45.84 Y9.34 E230.6787
G1 X45.81 Y11.25 E230.7479
G1 X29.20 Y27.86 E231.5995
G1 X29.20 Y29.74 E231.6677
G1 X45.79 Y13.16 E232.5180
G1 X45.76 Y15.07 E232.5872
G1 X30.87 Y29.96 E233.3507
G1 X34.25 Y28.47 E233.4846
G1 X44.79 Y17.93 E234.0250
G1 X43.48 Y21.12 E234.1500
G1 X37.75 Y26.85 E234.4438
G1 X29.20 Y18.43 F7200
G1 X30.73 Y16.91 E234.5220 F3600
;percent
;support-end
;layer:0.20
G1 Z.80 F400
;support-start
;raft
G1 X44.95 Y-2.43 F7200
G1 X46.14 Y1.99 E234.6879 F4800
G1 X45.96 Y15.60 E235.1814
G1 X43.19 Y22.36 E235.4462
G1 X37.70 Y27.16 E235.7106
G1 X29.00 Y31.01 E236.0555
G1 X29.00 Y17.79 E236.5348
G1 X33.58 Y14.81 E236.7329
G1 X34.00 Y12.90 E236.8038
G1 X34.00 Y-3.18 E237.3867
G1 X44.95 Y-2.43 E237.7846
G1 X44.49 Y-2.26 F7200
G1 X44.90 Y-1.85 E237.8056 F4800
G1 X45.12 Y-1.04 E237.8361
G1 X43.85 Y-2.30 E237.9009
G1 X43.21 Y-2.35 E237.9242
G1 X45.33 Y-.22 E238.0331
G1 X45.55 Y.59 E238.0636
G1 X42.57 Y-2.39 E238.2163
G1 X41.93 Y-2.43 E238.2396
G1 X45.77 Y1.41 E238.4365
G1 X45.94 Y2.01 E238.4591
G1 X45.93 Y2.16 E238.4645
G1 X41.29 Y-2.48 E238.7024
G1 X40.65 Y-2.52 E238.7257
G1 X45.92 Y2.75 E238.9959
G1 X45.92 Y3.34 E239.0172
G1 X40.01 Y-2.57 E239.3202
G1 X39.37 Y-2.61 E239.3435
G1 X45.91 Y3.92 E239.6785
G1 X45.90 Y4.51 E239.6999
G1 X38.73 Y-2.65 E240.0673
G1 X38.09 Y-2.70 E240.0905
G1 X45.89 Y5.10 E240.4904
G1 X45.88 Y5.69 E240.5118
G1 X37.46 Y-2.74 E240.9438
G1 X36.82 Y-2.79 E240.9671
G1 X45.88 Y6.27 E241.4316
G1 X45.87 Y6.86 E241.4530
G1 X36.18 Y-2.83 E241.9498
G1 X35.54 Y-2.87 E241.9730
G1 X45.86 Y7.45 E242.5021
G1 X45.85 Y8.04 E242.5235
G1 X34.90 Y-2.92 E243.0852
G1 X34.26 Y-2.96 E243.1085
G1 X45.85 Y8.63 E243.7027
G1 X45.84 Y9.21 E243.7237
G1 X34.20 Y-2.43 E244.3205
G1 X34.20 Y-1.83 E244.3422
G1 X45.83 Y9.80 E244.9385
G1 X45.82 Y10.39 E244.9599
G1 X34.20 Y-1.23 E245.5556
G1 X34.20 Y-.64 E245.5770
G1 X45.81 Y10.98 E246.1725
G1 X45.81 Y11.56 E246.1936
G1 X34.20 Y-.04 E246.7886
G1 X34.20 Y.55 E246.8099
G1 X45.80 Y12.15 E247.4047
G1 X45.79 Y12.74 E247.4261
G1 X34.20 Y1.15 E248.0203
G1 X34.20 Y1.74 E248.0417
G1 X45.78 Y13.33 E248.6356
G1 X45.78 Y13.91 E248.6567
G1 X34.20 Y2.34 E249.2501
G1 X34.20 Y2.93 E249.2715
G1 X45.77 Y14.50 E249.8647
G1 X45.76 Y15.09 E249.8861
G1 X34.20 Y3.53 E250.4788
G1 X34.20 Y4.12 E250.5002
G1 X45.72 Y15.64 E251.0908
G1 X45.55 Y16.07 E251.1076
G1 X34.20 Y4.72 E251.6895
G1 X34.20 Y5.31 E251.7109
G1 X45.37 Y16.49 E252.2839
G1 X45.20 Y16.91 E252.3003
G1 X34.20 Y5.91 E252.8642
G1 X34.20 Y6.51 E252.8860
G1 X45.03 Y17.33 E253.4410
G1 X44.86 Y17.76 E253.4578
G1 X34.20 Y7.10 E254.0043
G1 X34.20 Y7.70 E254.0261
G1 X44.68 Y18.18 E254.5634
G1 X44.51 Y18.60 E254.5798
G1 X34.20 Y8.29 E255.1084
G1 X34.20 Y8.89 E255.1301
G1 X44.34 Y19.02 E255.6498
G1 X44.17 Y19.45 E255.6665
G1 X34.20 Y9.48 E256.1777
G1 X34.20 Y10.08 E256.1994
G1 X43.99 Y19.87 E256.7014
G1 X43.82 Y20.29 E256.7178
G1 X34.20 Y10.67 E257.2110
G1 X34.20 Y11.27 E257.2328
G1 X43.65 Y20.72 E257.7173
G1 X43.47 Y21.14 E257.7338
G1 X34.20 Y11.86 E258.2094
G1 X34.20 Y12.46 E258.2311
G1 X43.30 Y21.56 E258.6977
G1 X43.13 Y21.98 E258.7141
G1 X34.18 Y13.03 E259.1730
G1 X34.07 Y13.52 E259.1912
G1 X42.90 Y22.35 E259.6439
G1 X42.58 Y22.63 E259.6593
G1 X33.96 Y14.01 E260.1013
G1 X33.85 Y14.50 E260.1195
G1 X42.26 Y22.91 E260.5507
G1 X41.95 Y23.18 E260.5656
G1 X33.72 Y14.96 E260.9873
G1 X33.36 Y15.19 E261.0028
G1 X41.63 Y23.46 E261.4268
G1 X41.31 Y23.74 E261.4422
G1 X33.00 Y15.43 E261.8682
G1 X32.64 Y15.66 E261.8837
G1 X40.99 Y24.02 E262.3121
G1 X40.68 Y24.29 E262.3270
G1 X32.28 Y15.90 E262.7574
G1 X31.92 Y16.13 E262.7729
G1 X40.36 Y24.57 E263.2056
G1 X40.04 Y24.85 E263.2211
G1 X31.56 Y16.37 E263.6558
G1 X31.20 Y16.60 E263.6713
G1 X39.72 Y25.13 E264.1084
G1 X39.40 Y25.40 E264.1236
G1 X30.84 Y16.83 E264.5627
G1 X30.47 Y17.07 E264.5787
G1 X39.09 Y25.68 E265.0204
G1 X38.77 Y25.96 E265.0358
G1 X30.11 Y17.30 E265.4798
G1 X29.75 Y17.54 E265.4955
G1 X38.45 Y26.24 E265.9416
G1 X38.13 Y26.51 E265.9568
G1 X29.39 Y17.77 E266.4049
G1 X29.20 Y17.90 E266.4132
G1 X29.20 Y18.17 E266.4230
G1 X37.82 Y26.79 E266.8649
G1 X37.59 Y26.99 E266.8760
G1 X37.47 Y27.04 E266.8807
G1 X29.20 Y18.77 E267.3047
G1 X29.20 Y19.37 E267.3265
G1 X37.06 Y27.22 E267.7292
G1 X36.64 Y27.41 E267.7459
G1 X29.20 Y19.96 E268.1276
G1 X29.20 Y20.56 E268.1494
G1 X36.23 Y27.59 E268.5098
G1 X35.82 Y27.77 E268.5260
G1 X29.20 Y21.15 E268.8654
G1 X29.20 Y21.75 E268.8872
G1 X35.41 Y27.95 E269.2053
G1 X34.99 Y28.14 E269.2220
G1 X29.20 Y22.34 E269.5191
G1 X29.20 Y22.94 E269.5409
G1 X34.58 Y28.32 E269.8167
G1 X34.17 Y28.50 E269.8330
G1 X29.20 Y23.53 E270.0878
G1 X29.20 Y24.13 E270.1095
G1 X33.76 Y28.69 E270.3433
G1 X33.34 Y28.87 E270.3598
G1 X29.20 Y24.72 E270.5724
G1 X29.20 Y25.32 E270.5941
G1 X32.93 Y29.05 E270.7854
G1 X32.52 Y29.23 E270.8016
G1 X29.20 Y25.92 E270.9715
G1 X29.20 Y26.51 E270.9929
G1 X32.10 Y29.42 E271.1419
G1 X31.69 Y29.60 E271.1581
G1 X29.20 Y27.11 E271.2857
G1 X29.20 Y27.70 E271.3071
G1 X31.28 Y29.78 E271.4138
G1 X30.87 Y29.96 E271.4300
G1 X29.20 Y28.30 E271.5154
G1 X29.20 Y28.89 E271.5367
G1 X30.45 Y30.15 E271.6011
G1 X30.04 Y30.33 E271.6173
G1 X29.20 Y29.49 E271.6604
G1 X29.20 Y30.08 E271.6817
G1 X29.63 Y30.51 E271.7037
G1 X29.21 Y30.69 E271.7203
G1 X29.20 Y30.68 E271.7208
;raft
G1 X-34.00 Y-18.57 F7200
G1 X-33.94 Y13.71 E272.8911 F4800
G1 X-32.47 Y16.12 E272.9935
G1 X-29.00 Y18.21 E273.1403
G1 X-29.00 Y31.01 E273.6043
G1 X-39.76 Y25.86 E274.0368
G1 X-44.46 Y20.25 E274.3021
G1 X-46.13 Y13.34 E274.5598
G1 X-46.13 Y-13.57 E275.5354
G1 X-45.12 Y-18.96 E275.7342
G1 X-34.00 Y-18.57 E276.1376
G1 X-34.27 Y-18.38 F7200
G1 X-34.20 Y-18.30 E276.1415 F4800
G1 X-34.20 Y-17.71 E276.1628
G1 X-34.89 Y-18.40 E276.1982
G1 X-35.51 Y-18.42 E276.2207
G1 X-34.20 Y-17.11 E276.2879
G1 X-34.19 Y-16.51 E276.3096
G1 X-36.12 Y-18.44 E276.4086
G1 X-36.74 Y-18.46 E276.4310
G1 X-34.19 Y-15.92 E276.5615
G1 X-34.19 Y-15.32 E276.5833
G1 X-37.36 Y-18.49 E276.7458
G1 X-37.97 Y-18.51 E276.7679
G1 X-34.19 Y-14.73 E276.9617
G1 X-34.19 Y-14.13 E276.9835
G1 X-38.59 Y-18.53 E277.2091
G1 X-39.21 Y-18.55 E277.2316
G1 X-34.19 Y-13.53 E277.4890
G1 X-34.19 Y-12.94 E277.5103
G1 X-39.83 Y-18.57 E277.7992
G1 X-40.44 Y-18.59 E277.8214
G1 X-34.19 Y-12.34 E278.1418
G1 X-34.19 Y-11.74 E278.1636
G1 X-41.06 Y-18.62 E278.5160
G1 X-41.68 Y-18.64 E278.5385
G1 X-34.19 Y-11.15 E278.9225
G1 X-34.18 Y-10.55 E278.9443
G1 X-42.29 Y-18.66 E279.3601
G1 X-42.91 Y-18.68 E279.3826
G1 X-34.18 Y-9.95 E279.8302
G1 X-34.18 Y-9.36 E279.8515
G1 X-43.53 Y-18.70 E280.3307
G1 X-44.15 Y-18.73 E280.3532
G1 X-34.18 Y-8.76 E280.8643
G1 X-34.18 Y-8.16 E280.8861
G1 X-44.76 Y-18.75 E281.4288
G1 X-44.95 Y-18.75 E281.4357
G1 X-45.02 Y-18.40 E281.4486
G1 X-34.18 Y-7.57 E282.0041
G1 X-34.18 Y-6.97 E282.0258
G1 X-45.11 Y-17.90 E282.5862
G1 X-45.20 Y-17.40 E282.6046
G1 X-34.18 Y-6.37 E283.1698
G1 X-34.17 Y-5.78 E283.1913
G1 X-45.30 Y-16.90 E283.7616
G1 X-45.39 Y-16.40 E283.7800
G1 X-34.17 Y-5.18 E284.3553
G1 X-34.17 Y-4.58 E284.3771
G1 X-45.49 Y-15.90 E284.9574
G1 X-45.58 Y-15.40 E284.9758
G1 X-34.17 Y-3.99 E285.5608
G1 X-34.17 Y-3.39 E285.5826
G1 X-45.68 Y-14.90 E286.1727
G1 X-45.77 Y-14.40 E286.1911
G1 X-34.17 Y-2.79 E286.7861
G1 X-34.17 Y-2.20 E286.8075
G1 X-45.87 Y-13.90 E287.4074
G1 X-45.93 Y-13.55 E287.4202
G1 X-45.93 Y-13.37 E287.4268
G1 X-34.17 Y-1.60 E288.0300
G1 X-34.17 Y-1.00 E288.0517
G1 X-45.93 Y-12.77 E288.6549
G1 X-45.93 Y-12.18 E288.6763
G1 X-34.16 Y-.41 E289.2797
G1 X-34.16 Y.19 E289.3015
G1 X-45.93 Y-11.58 E289.9049
G1 X-45.93 Y-10.99 E289.9263
G1 X-34.16 Y.78 E290.5297
G1 X-34.16 Y1.38 E290.5515
G1 X-45.93 Y-10.39 E291.1549
G1 X-45.93 Y-9.80 E291.1763
G1 X-34.16 Y1.98 E291.7800
G1 X-34.16 Y2.57 E291.8013
G1 X-45.93 Y-9.20 E292.4048
G1 X-45.93 Y-8.60 E292.4266
G1 X-34.16 Y3.17 E293.0300
G1 X-34.16 Y3.77 E293.0517
G1 X-45.93 Y-8.01 E293.6554
G1 X-45.93 Y-7.41 E293.6772
G1 X-34.16 Y4.36 E294.2807
G1 X-34.15 Y4.96 E294.3024
G1 X-45.93 Y-6.82 E294.9064
G1 X-45.93 Y-6.22 E294.9281
G1 X-34.15 Y5.56 E295.5321
G1 X-34.15 Y6.15 E295.5534
G1 X-45.93 Y-5.63 E296.1574
G1 X-45.93 Y-5.03 E296.1792
G1 X-34.15 Y6.75 E296.7831
G1 X-34.15 Y7.35 E296.8049
G1 X-45.93 Y-4.44 E297.4091
G1 X-45.93 Y-3.84 E297.4309
G1 X-34.15 Y7.94 E298.0348
G1 X-34.15 Y8.54 E298.0566
G1 X-45.93 Y-3.25 E298.6608
G1 X-45.93 Y-2.65 E298.6825
G1 X-34.15 Y9.14 E299.2868
G1 X-34.14 Y9.73 E299.3082
G1 X-45.93 Y-2.06 E299.9126
G1 X-45.93 Y-1.46 E299.9344
G1 X-34.14 Y10.33 E300.5389
G1 X-34.14 Y10.93 E300.5606
G1 X-45.93 Y-.86 E301.1651
G1 X-45.93 Y-.27 E301.1864
G1 X-34.14 Y11.52 E301.7909
G1 X-34.14 Y12.12 E301.8127
G1 X-45.93 Y.33 E302.4171
G1 X-45.93 Y.92 E302.4385
G1 X-34.14 Y12.72 E303.0432
G1 X-34.14 Y13.31 E303.0646
G1 X-45.93 Y1.52 E303.6691
G1 X-45.93 Y2.11 E303.6904
G1 X-33.91 Y14.13 E304.3067
G1 X-32.98 Y15.66 E304.3716
G1 X-45.93 Y2.71 E305.0356
G1 X-45.93 Y3.30 E305.0570
G1 X-29.20 Y20.04 E305.9150
G1 X-29.20 Y20.63 E305.9363
G1 X-45.93 Y3.90 E306.7941
G1 X-45.93 Y4.49 E306.8154
G1 X-29.20 Y21.23 E307.6734
G1 X-29.20 Y21.82 E307.6948
G1 X-45.93 Y5.09 E308.5526
G1 X-45.93 Y5.68 E308.5740
G1 X-29.20 Y22.42 E309.4320
G1 X-29.20 Y23.01 E309.4533
G1 X-45.93 Y6.28 E310.3111
G1 X-45.93 Y6.88 E310.3328
G1 X-29.20 Y23.61 E311.1906
G1 X-29.20 Y24.20 E311.2120
G1 X-45.93 Y7.47 E312.0697
G1 X-45.93 Y8.06 E312.0911
G1 X-29.20 Y24.80 E312.9491
G1 X-29.20 Y25.40 E312.9708
G1 X-45.93 Y8.66 E313.8288
G1 X-45.93 Y9.26 E313.8506
G1 X-29.20 Y25.99 E314.7083
G1 X-29.20 Y26.59 E314.7301
G1 X-45.93 Y9.85 E315.5881
G1 X-45.93 Y10.45 E315.6098
G1 X-29.20 Y27.18 E316.4676
G1 X-29.20 Y27.78 E316.4893
G1 X-45.93 Y11.04 E317.3473
G1 X-45.93 Y11.64 E317.3691
G1 X-29.20 Y28.37 E318.2268
G1 X-29.20 Y28.97 E318.2486
G1 X-45.93 Y12.23 E319.1066
G1 X-45.93 Y12.83 E319.1283
G1 X-29.20 Y29.56 E319.9861
G1 X-29.20 Y30.16 E320.0078
G1 X-45.90 Y13.46 E320.8641
G1 X-45.71 Y14.24 E320.8931
G1 X-29.32 Y30.63 E321.7334
G1 X-30.46 Y30.08 E321.7793
G1 X-45.52 Y15.03 E322.5512
G1 X-45.33 Y15.81 E322.5803
G1 X-31.61 Y29.54 E323.2840
G1 X-32.75 Y28.99 E323.3298
G1 X-45.14 Y16.60 E323.9651
G1 X-44.95 Y17.38 E323.9942
G1 X-33.89 Y28.45 E324.5615
G1 X-35.03 Y27.90 E324.6074
G1 X-44.76 Y18.17 E325.1063
G1 X-44.57 Y18.95 E325.1354
G1 X-36.17 Y27.35 E325.5660
G1 X-37.31 Y26.81 E325.6117
G1 X-44.38 Y19.74 E325.9742
