;generated by ffslicer 1.3.0 10/07/16 16:20:57
;start gcode
M118 X15.80 Y15.80 Z12.63 T0
M140 S0
M104 S220 T0
M104 S0 T1
M107
G90
G28
M132 X Y Z A B
G1 Z50.00 F600
G161 X Y F3300
M6 T0
M907 X100 Y100 Z40 A80 B20
;preExtrude: 0.20
G1 Z.20 F400
M108 T0
;preExtruder0
G1 X4.01 Y-15.00 F7200
G1 X15.00 Y-15.00 E1.5937 F1200
G1 X15.00 Y-4.01 E3.1874
G1 X15.80 Y-.00 E3.7804
G1 X15.00 Y4.01 E4.3733
G1 X15.00 Y15.00 E5.9671
G1 X4.01 Y15.00 E7.5608
G1 X-.00 Y15.80 E8.1537
G1 X-4.01 Y15.00 E8.7467
G1 X-15.00 Y15.00 E10.3404
G1 X-15.00 Y4.01 E11.9341
G1 X-15.80 Y-.00 E12.5271
G1 X-15.00 Y-4.00 E13.1186
G1 X-15.00 Y-15.00 E14.7138
G1 X-4.01 Y-15.00 E16.3075
G1 X.00 Y-15.80 E16.9004
G1 X3.39 Y-15.12 E17.4018
;raft
;layer:0.27
G1 Z.27 F400
;shell
M106
G1 E16.1018 F1800
G1 X-5.62 Y-.00 F4200
G1 E17.4018 F1800
G1 X-5.62 Y-.00 F4200
G1 X-5.42 Y.98 E17.4508 F1200
G1 X-5.23 Y1.96 E17.4996
G1 X-5.19 Y2.15 E17.5091
G1 X-4.74 Y2.82 E17.5486
G1 X-4.18 Y3.65 E17.5976
G1 X-3.97 Y3.97 E17.6164
G1 X-3.46 Y4.31 E17.6464
G1 X-2.15 Y5.19 E17.7236
G1 X.00 Y5.62 E17.8309
G1 X2.15 Y5.19 E17.9382
G1 X3.97 Y3.97 E18.0455
G1 X5.19 Y2.15 E18.1527
G1 X5.62 Y-.00 E18.2600
G1 X5.19 Y-2.15 E18.3673
G1 X3.97 Y-3.97 E18.4746
G1 X2.15 Y-5.19 E18.5818
G1 X1.31 Y-5.35 E18.6237
G1 X.00 Y-5.62 E18.6891
G1 X-.65 Y-5.49 E18.7216
G1 X-2.15 Y-5.19 E18.7964
G1 X-2.54 Y-4.93 E18.8194
G1 X-3.97 Y-3.97 E18.9037
G1 X-4.12 Y-3.74 E18.9171
G1 X-5.19 Y-2.15 E19.0109
G1 X-5.20 Y-2.06 E19.0153
G1 X-5.59 Y-.10 E19.1131 F720
G1 X-5.21 Y-.00 E19.1131 F300
G1 X-4.81 Y1.99 E19.2125 F1200
G1 X-3.68 Y3.68 E19.3120
G1 X-1.99 Y4.81 E19.4115
G1 X.00 Y5.21 E19.5108
G1 X1.99 Y4.81 E19.6102
G1 X3.68 Y3.68 E19.7097
G1 X4.81 Y1.99 E19.8092
G1 X5.21 Y-.00 E19.9085
G1 X4.81 Y-1.99 E20.0079
G1 X3.68 Y-3.68 E20.1074
G1 X1.99 Y-4.81 E20.2068
G1 X.00 Y-5.21 E20.3062
G1 X-1.99 Y-4.81 E20.4055
G1 X-3.68 Y-3.68 E20.5050
G1 X-4.81 Y-1.99 E20.6045
G1 X-5.19 Y-.10 E20.6989
G1 X-5.60 Y-.10 E20.7056 F300
G1 E19.4056 F1800
G1 X-10.09 Y-.00 F4200
G1 E20.7056 F1800
G1 X-10.09 Y-.00 F4200
G1 X-9.89 Y-.98 E20.7545 F1200
G1 X-9.70 Y-1.96 E20.8034
G1 X-9.50 Y-2.94 E20.8523
G1 X-9.32 Y-3.86 E20.8982
G1 X-9.28 Y-3.91 E20.9013
G1 X-8.73 Y-4.75 E20.9505
G1 X-7.13 Y-7.14 E21.0912
G1 X-3.86 Y-9.32 E21.2836
G1 X.00 Y-10.09 E21.4762
G1 X3.86 Y-9.32 E21.6689
G1 X7.14 Y-7.13 E21.8619
G1 X9.32 Y-3.86 E22.0542
G1 X10.09 Y-.00 E22.2469
G1 X9.32 Y3.86 E22.4395
G1 X7.14 Y7.14 E22.6323
G1 X3.86 Y9.32 E22.8250
G1 X-.00 Y10.09 E23.0177
G1 X-3.86 Y9.32 E23.2103
G1 X-5.28 Y8.37 E23.2939
G1 X-6.95 Y7.26 E23.3920
G1 X-7.14 Y7.13 E23.4033
G1 X-8.12 Y5.66 E23.4898
G1 X-9.23 Y4.00 E23.5875
G1 X-9.32 Y3.86 E23.5957
G1 X-9.68 Y2.06 E23.6855
G1 X-10.07 Y.10 E23.7833 F720
G1 X-10.50 Y-.00 E23.7833 F300
G1 X-9.70 Y-4.02 E23.9839 F1200
G1 X-7.42 Y-7.42 E24.1843
G1 X-4.02 Y-9.70 E24.3846
G1 X.00 Y-10.50 E24.5852
G1 X4.02 Y-9.70 E24.7858
G1 X7.42 Y-7.42 E24.9862
G1 X9.70 Y-4.02 E25.1865
G1 X10.50 Y-.00 E25.3872
G1 X9.70 Y4.02 E25.5878
G1 X7.42 Y7.42 E25.7881
G1 X4.02 Y9.70 E25.9885
G1 X-.00 Y10.50 E26.1891
G1 X-4.02 Y9.70 E26.3897
G1 X-7.42 Y7.42 E26.5900
G1 X-9.70 Y4.02 E26.7904
G1 X-10.48 Y.10 E26.9860
G1 X-10.07 Y.10 E26.9927 F300
;infill
G1 E25.6927 F1800
G1 X-3.80 Y-4.49 F4200
G1 E26.9927 F1800
G1 X-3.80 Y-4.49 F4200
G1 X1.21 Y-9.50 E27.3394 F1200
G1 X1.68 Y-9.41 E27.3629
G1 X-2.20 Y-5.52 E27.6318
G1 X-1.50 Y-5.66 E27.6667
G1 X2.15 Y-9.31 E27.9193
G1 X2.63 Y-9.22 E27.9432
G1 X-.79 Y-5.80 E28.1800
G1 X-.08 Y-5.94 E28.2154
G1 X3.10 Y-9.13 E28.4358
G1 X3.57 Y-9.03 E28.4593
G1 X.42 Y-5.88 E28.6774
G1 X.89 Y-5.78 E28.7009
G1 X3.95 Y-8.85 E28.9130
G1 X4.29 Y-8.62 E28.9331
G1 X1.36 Y-5.69 E29.1359
G1 X1.83 Y-5.60 E29.1593
G1 X4.63 Y-8.40 E29.3531
G1 X4.97 Y-8.17 E29.3732
G1 X2.30 Y-5.50 E29.5580
G1 X2.64 Y-5.27 E29.5781
G1 X5.31 Y-7.94 E29.7629
G1 X5.65 Y-7.72 E29.7827
G1 X2.97 Y-5.04 E29.9682
G1 X3.31 Y-4.82 E29.9881
G1 X5.99 Y-7.49 E30.1732
G1 X6.33 Y-7.26 E30.1933
G1 X3.65 Y-4.59 E30.3785
G1 X3.99 Y-4.36 E30.3985
G1 X6.67 Y-7.04 E30.5840
G1 X6.89 Y-6.89 E30.5971
G1 X6.97 Y-6.77 E30.6041
G1 X4.29 Y-4.09 E30.7896
G1 X4.52 Y-3.76 E30.8093
G1 X7.19 Y-6.43 E30.9941
G1 X7.42 Y-6.09 E31.0142
G1 X4.74 Y-3.42 E31.1994
G1 X4.97 Y-3.08 E31.2194
G1 X7.65 Y-5.75 E31.4046
G1 X7.87 Y-5.42 E31.4240
G1 X5.20 Y-2.74 E31.6092
G1 X5.43 Y-2.40 E31.6292
G1 X8.10 Y-5.08 E31.8144
G1 X8.33 Y-4.74 E31.8345
G1 X5.57 Y-1.98 E32.0255
G1 X5.66 Y-1.51 E32.0489
G1 X8.55 Y-4.40 E32.2490
G1 X8.78 Y-4.06 E32.2691
G1 X5.76 Y-1.04 E32.4781
G1 X5.85 Y-.56 E32.5020
G1 X9.00 Y-3.72 E32.7204
G1 X9.10 Y-3.24 E32.7444
G1 X5.94 Y-.09 E32.9627
G1 X5.96 Y-.00 E32.9672
G1 X5.85 Y.57 E32.9957
G1 X9.19 Y-2.77 E33.2268
G1 X9.28 Y-2.30 E33.2503
G1 X5.71 Y1.27 E33.4974
G1 X5.57 Y1.98 E33.5328
G1 X9.38 Y-1.83 E33.7965
G1 X9.47 Y-1.36 E33.8199
G1 X4.85 Y3.27 E34.1400
G1 E32.8400 F1800
G1 X6.87 Y6.90 F4200
G1 E34.1400 F1800
G1 X6.87 Y6.90 F4200
G1 X6.90 Y6.87 E34.1421 F1200
G1 X8.04 Y5.16 E34.2427
G1 X5.16 Y8.04 E34.4420
G1 X3.73 Y9.00 E34.5263
G1 X3.62 Y9.02 E34.5318
G1 X9.02 Y3.62 E34.9056
G1 X9.16 Y2.91 E34.9410
G1 X2.91 Y9.16 E35.3736
G1 X2.21 Y9.30 E35.4085
G1 X9.30 Y2.21 E35.8992
G1 X9.44 Y1.50 E35.9347
G1 X1.50 Y9.44 E36.4842
G1 X.79 Y9.58 E36.5196
G1 X9.58 Y.79 E37.1280
G1 X9.72 Y.09 E37.1630
G1 X.09 Y9.72 E37.8295
G1 X-.00 Y9.74 E37.8340
G1 X-.41 Y9.66 E37.8545
G1 X9.66 Y-.41 E38.5515
G1 X9.56 Y-.89 E38.5755
G1 X-.89 Y9.56 E39.2988
G1 X-1.36 Y9.47 E39.3222
G1 X3.27 Y4.85 E39.6423
G1 X2.28 Y5.51 E39.7005
G1 X1.98 Y5.57 E39.7155
G1 X-1.83 Y9.38 E39.9792
G1 X-2.30 Y9.28 E40.0027
G1 X1.27 Y5.71 E40.2498
G1 X.57 Y5.85 E40.2848
G1 X-2.77 Y9.19 E40.5159
G1 X-3.24 Y9.10 E40.5394
G1 X-.09 Y5.94 E40.7577
G1 X-.56 Y5.85 E40.7812
G1 X-3.72 Y9.00 E40.9995
G1 X-3.73 Y9.00 E41.0000
G1 X-4.06 Y8.78 E41.0194
G1 X-1.04 Y5.76 E41.2285
G1 X-1.51 Y5.66 E41.2520
G1 X-4.40 Y8.55 E41.4520
G1 X-4.74 Y8.33 E41.4718
G1 X-1.98 Y5.57 E41.6629
G1 X-2.28 Y5.51 E41.6778
G1 X-2.40 Y5.43 E41.6849
G1 X-5.08 Y8.10 E41.8700
G1 X-5.42 Y7.87 E41.8901
G1 X-2.74 Y5.20 E42.0753
G1 X-3.08 Y4.97 E42.0954
G1 X-5.75 Y7.65 E42.2805
G1 X-6.09 Y7.42 E42.3006
G1 X-3.42 Y4.74 E42.4858
G1 X-3.76 Y4.52 E42.5056
G1 X-6.43 Y7.19 E42.6904
G1 X-6.77 Y6.97 E42.7102
G1 X-4.09 Y4.29 E42.8957
G1 X-4.21 Y4.21 E42.9028
G1 X-4.36 Y3.99 E42.9158
G1 X-7.04 Y6.67 E43.1013
G1 X-7.26 Y6.33 E43.1211
G1 X-4.59 Y3.65 E43.3063
G1 X-4.82 Y3.31 E43.3263
G1 X-7.49 Y5.99 E43.5115
G1 X-7.72 Y5.65 E43.5316
G1 X-5.04 Y2.97 E43.7171
G1 X-5.27 Y2.64 E43.7368
G1 X-7.94 Y5.31 E43.9216
G1 X-8.17 Y4.97 E43.9417
G1 X-5.50 Y2.30 E44.1265
G1 X-5.51 Y2.28 E44.1276
G1 X-5.60 Y1.83 E44.1500
G1 X-8.40 Y4.63 E44.3438
G1 X-8.62 Y4.29 E44.3636
G1 X-5.69 Y1.36 E44.5664
G1 X-5.78 Y.89 E44.5899
G1 X-8.85 Y3.95 E44.8020
G1 X-9.00 Y3.73 E44.8150
G1 X-9.03 Y3.57 E44.8230
G1 X-5.88 Y.42 E45.0410
G1 X-5.96 Y-.00 E45.0620
G1 X-5.95 Y-.08 E45.0659
G1 X-9.12 Y3.10 E45.2857
G1 X-9.22 Y2.63 E45.3092
G1 X-5.80 Y-.79 E45.5459
G1 X-5.66 Y-1.50 E45.5813
G1 X-9.31 Y2.15 E45.8339
G1 X-9.41 Y1.68 E45.8575
G1 X-5.52 Y-2.20 E46.1264
G1 X-5.51 Y-2.28 E46.1303
G1 X-4.49 Y-3.80 E46.2199
G1 X-9.50 Y1.21 E46.5667
G1 X-9.59 Y.74 E46.5901
G1 X.74 Y-9.59 E47.3051
G1 X.27 Y-9.69 E47.3286
G1 X-9.69 Y.26 E48.0176
G1 X-9.74 Y-.00 E48.0306
G1 X-9.68 Y-.31 E48.0460
G1 X-.31 Y-9.68 E48.6946
G1 X-1.01 Y-9.54 E48.7295
G1 X-9.54 Y-1.01 E49.3199
G1 X-9.40 Y-1.72 E49.3553
G1 X-1.72 Y-9.40 E49.8869
G1 X-2.43 Y-9.26 E49.9223
G1 X-9.26 Y-2.43 E50.3951
G1 X-9.12 Y-3.13 E50.4300
G1 X-3.13 Y-9.12 E50.8446
G1 X-3.73 Y-9.00 E50.8745
G1 X-3.99 Y-8.82 E50.8900
G1 X-8.83 Y-3.99 E51.2247
G1 X-7.68 Y-5.70 E51.3255
G1 X-5.70 Y-7.69 E51.4629
;percent
;layer:0.18
G1 Z.45 F400
;shell
G1 E50.1629 F1800
G1 X-5.62 Y.00 F7200
G1 E51.4629 F1800
G1 X-5.62 Y.00 F7200
G1 X-5.42 Y.98 E51.4956 F1500
G1 X-5.23 Y1.96 E51.5281 F2160
G1 X-5.19 Y2.15 E51.5345 F2820
G1 X-4.74 Y2.82 E51.5608
G1 X-4.18 Y3.65 E51.5935 F3480
G1 X-3.97 Y3.97 E51.6060 F4140
G1 X-3.46 Y4.31 E51.6260
G1 X-2.15 Y5.19 E51.6774 F4800
G1 X.00 Y5.62 E51.7490
G1 X2.15 Y5.19 E51.8205
G1 X3.97 Y3.97 E51.8920
G1 X5.19 Y2.15 E51.9635
G1 X5.62 Y.00 E52.0350
G1 X5.19 Y-2.15 E52.1066
G1 X3.97 Y-3.97 E52.1781
G1 X2.15 Y-5.19 E52.2496
G1 X1.31 Y-5.35 E52.2775
G1 X.00 Y-5.62 E52.3211 F3984
G1 X-.65 Y-5.49 E52.3427
G1 X-2.15 Y-5.19 E52.3927 F3168
G1 X-2.54 Y-4.92 E52.4081
G1 X-3.97 Y-3.97 E52.4641 F2352
G1 X-4.13 Y-3.74 E52.4733
G1 X-5.19 Y-2.15 E52.5356 F1536
G1 X-5.21 Y-2.06 E52.5386
G1 X-5.60 Y-.10 E52.6039 F720
G1 X-5.21 Y.00 E52.6039 F300
G1 X-4.81 Y1.99 E52.6701 F2400
G1 X-3.68 Y3.68 E52.7364
G1 X-1.99 Y4.81 E52.8027
G1 X.00 Y5.21 E52.8690
G1 X1.99 Y4.81 E52.9352
G1 X3.68 Y3.68 E53.0015
G1 X4.81 Y1.99 E53.0679
G1 X5.21 Y.00 E53.1341
G1 X4.81 Y-1.99 E53.2003
G1 X3.68 Y-3.68 E53.2667
G1 X1.99 Y-4.81 E53.3330
G1 X.00 Y-5.21 E53.3992
G1 X-1.99 Y-4.81 E53.4655
G1 X-3.68 Y-3.68 E53.5318
G1 X-4.81 Y-1.99 E53.5981
G1 X-5.19 Y-.10 E53.6610
G1 X-5.60 Y-.10 E53.6655 F300
G1 E52.3655 F1800
G1 X-10.09 Y-.01 F7200
G1 E53.6655 F1800
G1 X-10.09 Y-.01 F7200
G1 X-9.89 Y-.99 E53.6981 F1500
G1 X-9.70 Y-1.97 E53.7307 F2160
G1 X-9.50 Y-2.95 E53.7633 F2820
G1 X-9.32 Y-3.87 E53.7939 F3480
G1 X-9.28 Y-3.92 E53.7960
G1 X-8.73 Y-4.75 E53.8285 F4140
G1 X-7.13 Y-7.14 E53.9223 F4800
G1 X-3.86 Y-9.32 E54.0505
G1 X.00 Y-10.09 E54.1790
G1 X3.86 Y-9.32 E54.3074
G1 X7.14 Y-7.13 E54.4361
G1 X9.32 Y-3.86 E54.5643
G1 X10.09 Y.00 E54.6927
G1 X9.32 Y3.87 E54.8215
G1 X9.05 Y4.27 E54.8372
G1 X8.37 Y5.65 E54.8874
G1 X8.26 Y5.86 E54.8952 F3360
G1 X7.44 Y7.48 E54.9544
G1 X4.88 Y8.97 E55.0510
G1 X3.97 Y9.51 E55.0856
G1 X3.83 Y9.53 E55.0902
G1 X.63 Y9.97 E55.1956 F4800
G1 X-.01 Y10.09 E55.2168
G1 X-3.86 Y9.32 E55.3449
G1 X-5.29 Y8.37 E55.4009
G1 X-6.95 Y7.26 E55.4661 F3984
G1 X-7.13 Y7.14 E55.4732 F3168
G1 X-8.12 Y5.66 E55.5313
G1 X-9.23 Y3.99 E55.5967 F2352
G1 X-9.32 Y3.86 E55.6018 F1536
G1 X-9.68 Y2.06 E55.6617
G1 X-10.07 Y.09 E55.7273 F720
G1 X-10.50 Y-.01 E55.7273 F300
G1 X-9.69 Y-4.02 E55.8607 F2400
G1 X-7.42 Y-7.43 E55.9944
G1 X-4.01 Y-9.70 E56.1281
G1 X.00 Y-10.50 E56.2615
G1 X4.02 Y-9.70 E56.3952
G1 X7.43 Y-7.42 E56.5291
G1 X9.70 Y-4.01 E56.6627
G1 X10.50 Y.00 E56.7961
G1 X9.70 Y4.02 E56.9299
G1 X9.39 Y4.48 E56.9480
G1 X8.62 Y6.04 E57.0047
G1 X7.74 Y7.77 E57.0681
G1 X5.08 Y9.32 E57.1685
G1 X4.10 Y9.90 E57.2057
G1 X.70 Y10.36 E57.3176
G1 X-.01 Y10.50 E57.3412
G1 X-4.02 Y9.70 E57.4746
G1 X-7.42 Y7.42 E57.6082
G1 X-9.70 Y4.02 E57.7418
G1 X-10.48 Y.09 E57.8725
G1 X-10.07 Y.09 E57.8770 F300
;infill
G1 E56.5770 F1800
G1 X-6.90 Y6.87 F7200
G1 E57.8770 F1800
G1 X-6.90 Y6.87 F7200
G1 X-6.87 Y6.90 E57.8784 F3360
G1 X-5.16 Y8.04 E57.9454
G1 X-8.04 Y5.17 E58.0781
G1 X-9.00 Y3.73 E58.1345
G1 X-9.02 Y3.62 E58.1382
G1 X-3.62 Y9.02 E58.3874
G1 X-2.91 Y9.16 E58.4110
G1 X-9.16 Y2.91 E58.6994
G1 X-9.30 Y2.21 E58.7227
G1 X-2.21 Y9.30 E59.0498
G1 X-1.50 Y9.44 E59.0734
G1 X-9.44 Y1.50 E59.4398
G1 X-9.58 Y.79 E59.4634
G1 X-.79 Y9.58 E59.8690
G1 X-.09 Y9.72 E59.8923
G1 X-9.72 Y.09 E60.3367
G1 X-9.74 Y-.01 E60.3400
G1 X-9.66 Y-.41 E60.3533
G1 X.41 Y9.66 E60.8180
G1 X.56 Y9.63 E60.8230
G1 X.90 Y9.58 E60.8342
G1 X-9.56 Y-.89 E61.3171
G1 X-9.47 Y-1.36 E61.3327
G1 X-4.84 Y3.27 E61.5463
G1 X-5.51 Y2.28 E61.5853
G1 X-5.57 Y1.98 E61.5953
G1 X-9.38 Y-1.83 E61.7711
G1 X-9.28 Y-2.30 E61.7868
G1 X-5.71 Y1.28 E61.9518
G1 X-5.85 Y.57 E61.9754
G1 X-9.19 Y-2.77 E62.1295
G1 X-9.09 Y-3.24 E62.1452
G1 X-5.94 Y-.09 E62.2905
G1 X-5.85 Y-.56 E62.3061
G1 X-9.00 Y-3.71 E62.4515
G1 X-9.00 Y-3.73 E62.4521
G1 X-8.78 Y-4.06 E62.4651
G1 X-5.75 Y-1.03 E62.6049
G1 X-5.66 Y-1.51 E62.6208
G1 X-8.55 Y-4.40 E62.7542
G1 X-8.33 Y-4.74 E62.7674
G1 X-5.57 Y-1.98 E62.8947
G1 X-5.51 Y-2.28 E62.9047
G1 X-5.42 Y-2.40 E62.9096
G1 X-8.10 Y-5.07 E63.0331
G1 X-7.87 Y-5.41 E63.0464
G1 X-5.20 Y-2.74 E63.1697
G1 X-4.97 Y-3.08 E63.1830
G1 X-7.65 Y-5.75 E63.3065
G1 X-7.42 Y-6.09 E63.3199
G1 X-4.74 Y-3.42 E63.4433
G1 X-4.52 Y-3.76 E63.4565
G1 X-7.19 Y-6.43 E63.5797
G1 X-6.97 Y-6.77 E63.5929
G1 X-4.29 Y-4.09 E63.7166
G1 X-4.21 Y-4.21 E63.7213
G1 X-3.99 Y-4.36 E63.7300
G1 X-6.67 Y-7.04 E63.8537
G1 X-6.33 Y-7.26 E63.8669
G1 X-3.65 Y-4.59 E63.9903
G1 X-3.31 Y-4.81 E64.0035
G1 X-5.99 Y-7.49 E64.1272
G1 X-5.65 Y-7.72 E64.1406
G1 X-2.97 Y-5.04 E64.2642
G1 X-2.64 Y-5.27 E64.2774
G1 X-5.31 Y-7.94 E64.4006
G1 X-4.97 Y-8.17 E64.4140
G1 X-2.30 Y-5.49 E64.5374
G1 X-2.28 Y-5.51 E64.5383
G1 X-1.83 Y-5.60 E64.5533
G1 X-4.63 Y-8.40 E64.6825
G1 X-4.29 Y-8.62 E64.6957
G1 X-1.36 Y-5.69 E64.8309
G1 X-.89 Y-5.78 E64.8465
G1 X-3.95 Y-8.85 E64.9880
G1 X-3.73 Y-9.00 E64.9966
G1 X-3.57 Y-9.03 E65.0020
G1 X-.42 Y-5.88 E65.1473
G1 X.00 Y-5.96 E65.1613
G1 X.08 Y-5.94 E65.1640
G1 X-3.10 Y-9.12 E65.3107
G1 X-2.63 Y-9.22 E65.3264
G1 X.79 Y-5.80 E65.4842
G1 X1.50 Y-5.66 E65.5078
G1 X-2.15 Y-9.31 E65.6762
G1 X-1.68 Y-9.41 E65.6919
G1 X2.20 Y-5.52 E65.8712
G1 X2.28 Y-5.51 E65.8738
G1 X3.80 Y-4.49 E65.9335
G1 X-1.21 Y-9.50 E66.1647
G1 X-.74 Y-9.59 E66.1803
G1 X9.59 Y.74 E66.6570
G1 X9.69 Y.27 E66.6726
G1 X-.27 Y-9.69 E67.1322
G1 X.00 Y-9.74 E67.1412
G1 X.31 Y-9.68 E67.1515
G1 X9.68 Y-.31 E67.5839
G1 X9.54 Y-1.01 E67.6071
G1 X1.01 Y-9.54 E68.0007
G1 X1.72 Y-9.40 E68.0244
G1 X9.40 Y-1.72 E68.3787
G1 X9.26 Y-2.42 E68.4020
G1 X2.43 Y-9.26 E68.7174
G1 X3.13 Y-9.12 E68.7407
G1 X9.12 Y-3.13 E69.0171
G1 X9.00 Y-3.73 E69.0371
G1 X8.82 Y-3.99 E69.0474
G1 X3.99 Y-8.83 E69.2705
G1 X5.69 Y-7.69 E69.3373
G1 X7.69 Y-5.69 E69.4296
G1 E68.1296 F1800
G1 X4.49 Y-3.80 F7200
G1 E69.4296 F1800
G1 X4.49 Y-3.80 F7200
G1 X9.50 Y1.21 E69.6607 F3360
G1 X9.41 Y1.68 E69.6764
G1 X5.52 Y-2.20 E69.8556
G1 X5.66 Y-1.49 E69.8792
G1 X9.31 Y2.15 E70.0474
G1 X9.22 Y2.63 E70.0634
G1 X5.81 Y-.79 E70.2209
G1 X5.95 Y-.08 E70.2445
G1 X9.12 Y3.10 E70.3911
G1 X9.03 Y3.57 E70.4067
G1 X5.88 Y.42 E70.5520
G1 X5.78 Y.89 E70.5677
G1 X8.85 Y3.95 E70.7091
G1 X8.75 Y4.11 E70.7153
G1 X8.65 Y4.32 E70.7229
G1 X5.69 Y1.36 E70.8595
G1 X5.60 Y1.83 E70.8751
G1 X8.46 Y4.69 E71.0071
G1 X8.27 Y5.07 E71.0209
G1 X5.50 Y2.30 E71.1487
G1 X5.27 Y2.64 E71.1621
G1 X8.08 Y5.45 E71.2918
G1 X7.96 Y5.71 E71.3011
G1 X7.89 Y5.83 E71.3057
G1 X5.04 Y2.98 E71.4372
G1 X4.82 Y3.31 E71.4501
G1 X7.70 Y6.20 E71.5832
G1 X7.51 Y6.58 E71.5971
G1 X4.59 Y3.65 E71.7321
G1 X4.36 Y3.99 E71.7454
G1 X7.32 Y6.95 E71.8820
G1 X7.18 Y7.23 E71.8922
G1 X7.09 Y7.29 E71.8958
G1 X4.10 Y4.29 E72.0340
G1 X3.76 Y4.52 E72.0474
G1 X6.73 Y7.49 E72.1844
G1 X6.38 Y7.70 E72.1977
G1 X3.42 Y4.75 E72.3341
G1 X3.08 Y4.97 E72.3473
G1 X6.02 Y7.91 E72.4830
G1 X5.66 Y8.12 E72.4966
G1 X2.74 Y5.20 E72.6313
G1 X2.40 Y5.43 E72.6447
G1 X5.30 Y8.33 E72.7785
G1 X4.95 Y8.54 E72.7918
G1 X1.98 Y5.57 E72.9289
G1 X1.51 Y5.66 E72.9445
G1 X4.59 Y8.75 E73.0868
G1 X4.24 Y8.96 E73.1002
G1 X1.04 Y5.76 E73.2478
G1 X.56 Y5.85 E73.2637
G1 X3.88 Y9.17 E73.4169
G1 X3.85 Y9.19 E73.4181
G1 X3.39 Y9.25 E73.4333
G1 X.09 Y5.94 E73.5857
G1 X.00 Y5.96 E73.5888
G1 X-.57 Y5.85 E73.6077
G1 X2.90 Y9.31 E73.7676
G1 X2.40 Y9.38 E73.7841
G1 X-1.28 Y5.71 E73.9536
G1 X-1.98 Y5.57 E73.9769
G1 X1.90 Y9.45 E74.1560
G1 X1.40 Y9.52 E74.1724
G1 X-3.27 Y4.84 E74.3882
;percent
;layer:0.18
G1 Z.63 F400
;shell
G1 E73.0882 F1800
G1 X-4.99 Y2.07 F7200
G1 X-5.62 Y.00
G1 E74.3882 F1800
G1 X-5.62 Y.00 F7200
G1 X-5.42 Y.98 E74.4208 F1500
G1 X-5.23 Y1.96 E74.4534 F2160
G1 X-5.19 Y2.15 E74.4597 F2820
G1 X-4.74 Y2.82 E74.4860
G1 X-4.18 Y3.65 E74.5187 F3480
G1 X-3.97 Y3.97 E74.5312 F4140
G1 X-3.46 Y4.31 E74.5512
G1 X-2.15 Y5.19 E74.6027 F4800
G1 X.00 Y5.62 E74.6742
G1 X2.15 Y5.19 E74.7458
G1 X3.97 Y3.97 E74.8173
G1 X5.19 Y2.15 E74.8888
G1 X5.62 Y.00 E74.9603
G1 X5.19 Y-2.15 E75.0318
G1 X3.97 Y-3.97 E75.1033
G1 X2.15 Y-5.19 E75.1748
G1 X1.31 Y-5.35 E75.2027
G1 X.00 Y-5.62 E75.2464 F3984
G1 X-.65 Y-5.49 E75.2680
G1 X-2.15 Y-5.19 E75.3179 F3168
G1 X-2.54 Y-4.92 E75.3334
G1 X-3.97 Y-3.97 E75.3894 F2352
G1 X-4.13 Y-3.74 E75.3985
G1 X-5.19 Y-2.15 E75.4609 F1536
G1 X-5.21 Y-2.06 E75.4639
G1 X-5.60 Y-.10 E75.5291 F720
G1 X-5.21 Y.00 E75.5291 F300
G1 X-4.81 Y1.99 E75.5953 F2400
G1 X-3.68 Y3.68 E75.6617
G1 X-1.99 Y4.81 E75.7280
G1 X.00 Y5.21 E75.7942
G1 X1.99 Y4.81 E75.8604
G1 X3.68 Y3.68 E75.9268
G1 X4.81 Y1.99 E75.9931
G1 X5.21 Y.00 E76.0593
G1 X4.81 Y-1.99 E76.1256
G1 X3.68 Y-3.68 E76.1919
