;generated by ffslicer 1.3.0 10/11/16 18:47:39
;start gcode
M118 X29.35 Y30.30 Z15.14 T0
M140 S0
M104 S225 T0
M104 S0 T1
M107
G90
G28
M132 X Y Z A B
G1 Z50.00 F600
G161 X Y F3300
M6 T0
M907 X100 Y100 Z40 A80 B20
;preExtrude: 0.20
G1 Z.20 F400
M108 T0
;preExtruder0
G1 X13.93 Y-13.70 F7200
G1 X17.91 Y-7.74 E1.0393 F1200
G1 X20.24 Y2.67 E2.5862
G1 X3.63 Y30.30 E7.2612
G1 X-29.36 Y30.30 E12.0453
G1 X-29.36 Y-6.64 E17.4021
;raft
;layer:0.40
G1 Z.40 F400
;support-start
;raft
G1 X-1.84 Y-16.50 F4200
G1 X6.51 Y-16.50 E20.4293 F600
G1 X12.54 Y-12.54 E23.0446
G1 X16.23 Y-7.01 E25.4548
G1 X17.52 Y-.53 E27.8501
G1 X18.32 Y2.36 E28.9372
G1 X7.64 Y13.05 E34.4155
G1 X6.60 Y15.93 E35.5255
G1 X3.43 Y17.26 E36.7718
G1 X2.78 Y19.56 E37.6383
G1 X2.61 Y28.50 E40.8800
G1 X-27.56 Y28.50 E51.8177
G1 X-27.56 Y-26.50 E71.7571
G1 X-1.84 Y-26.50 E81.0815
G1 X-1.84 Y-16.50 E84.7069
G1 X-9.12 Y8.19 F4200
G1 X-8.08 Y9.24 E85.2427 F600
G1 X-6.46 Y6.58 E86.3718
G1 X-9.12 Y8.19 E87.4990
G1 X-3.53 Y-3.26 F4200
G1 X-4.27 Y.47 E88.8776 F600
G1 X-3.36 Y3.47 E90.0142
G1 X1.59 Y4.38 E91.8388
G1 X5.22 Y1.41 E93.5391
G1 X4.76 Y-3.27 E95.2440
G1 X.62 Y-5.48 E96.9453
G1 X-3.53 Y-3.26 E98.6516
G1 X-.25 Y-15.50 F4200
G1 X17.16 Y1.91 E107.5778 F600
G1 X16.55 Y-.30 E108.4089
G1 X15.54 Y-5.37 E110.2831
G1 X5.41 Y-15.50 E115.4768
G1 X5.70 Y-3.89 F4200
G1 X14.43 Y4.84 E119.9527 F600
G1 X11.60 Y7.67 E121.4036
G1 X6.00 Y2.06 E124.2773
G1 X2.89 Y4.61 E125.7354
G1 X8.77 Y10.49 E128.7501
G1 X6.77 Y12.50 E129.7780
G1 X6.33 Y13.71 E130.2448
G1 X-2.78 Y4.59 E134.9181
G1 X-5.73 Y7.30 F4200
G1 X3.23 Y16.26 E139.5119 F600
G1 X2.60 Y16.53 E139.7604
G1 X1.78 Y19.41 E140.8460
G1 X1.76 Y20.45 E141.2231
G1 X-7.87 Y10.82 E146.1604
G1 X-26.55 Y26.08 F4200
G1 X-25.13 Y27.50 E146.8884 F600
G1 X-19.48 Y27.50 E148.9368
G1 X-26.55 Y20.42 E152.5642
G1 X-26.55 Y14.77 E154.6125
G1 X-13.82 Y27.50 E161.1392
G1 X-8.16 Y27.50 E163.1911
G1 X-26.55 Y9.11 E172.6197
G1 X-26.55 Y3.45 E174.6717
G1 X-2.51 Y27.50 E186.9996
G1 X1.63 Y27.50 E188.5005
G1 X1.66 Y26.01 E189.0408
G1 X-26.55 Y-2.21 E203.5067
G1 X-26.55 Y-7.86 E205.5550
G1 X-10.71 Y7.99 E213.6788
G1 X-7.19 Y5.85 E215.1723
G1 X-26.55 Y-13.52 E225.1007
G1 X-26.55 Y-19.18 E227.1527
G1 X-4.62 Y2.76 E238.3988
G1 X-5.30 Y.52 E239.2475
G1 X-4.62 Y-2.90 E240.5116
G1 X-26.55 Y-24.83 E251.7552
G1 X-26.56 Y-25.50 E251.9981
G1 X-21.56 Y-25.50 E253.8108
G1 X-1.53 Y-5.46 E264.0828
G1 X.62 Y-6.61 E264.9667
G1 X5.69 Y-3.90 E267.0509
G1 X-15.91 Y-25.50 E278.1252
G1 X-10.25 Y-25.50 E280.1772
G1 X-2.84 Y-18.09 E283.9763
G1 X-2.84 Y-23.74 E286.0246
G1 X-4.59 Y-25.50 E286.9244
;percent
;support-end
;layer:0.20
G1 Z.60 F400
;support-start
;raft
M104 S220 T0
G1 X-1.84 Y-16.50 F7200
G1 X6.51 Y-16.50 E287.2271 F3600
G1 X12.54 Y-12.54 E287.4886
G1 X16.23 Y-7.01 E287.7297
G1 X17.52 Y-.53 E287.9692
G1 X18.32 Y2.36 E288.0779
G1 X7.64 Y13.05 E288.6257
G1 X6.60 Y15.93 E288.7367
G1 X3.43 Y17.26 E288.8614
G1 X2.78 Y19.56 E288.9480
G1 X2.61 Y28.50 E289.2722
G1 X-27.56 Y28.50 E290.3659
G1 X-27.56 Y-26.50 E292.3599
G1 X-1.84 Y-26.50 E293.2923
G1 X-1.84 Y-16.50 E293.6549
G1 X-9.12 Y8.19 F7200
G1 X-8.08 Y9.24 E293.7084 F3600
G1 X-6.46 Y6.58 E293.8213
G1 X-9.12 Y8.19 E293.9340
G1 X-3.53 Y-3.26 F7200
G1 X-4.27 Y.47 E294.0719 F3600
G1 X-3.36 Y3.47 E294.1856
G1 X1.59 Y4.38 E294.3681
G1 X5.22 Y1.41 E294.5381
G1 X4.76 Y-3.27 E294.7085
G1 X.62 Y-5.48 E294.8787
G1 X-3.53 Y-3.26 E295.0493
G1 X-26.60 Y-26.30 F7200
G1 X-27.35 Y-25.54 E295.0880 F3600
G1 X-27.35 Y-23.66 E295.1562
G1 X-24.71 Y-26.30 E295.2915
G1 X-22.83 Y-26.30 E295.3597
G1 X-27.35 Y-21.77 E295.5917
G1 X-27.35 Y-19.89 E295.6598
G1 X-20.94 Y-26.30 E295.9885
G1 X-19.06 Y-26.30 E296.0566
G1 X-27.35 Y-18.00 E296.4819
G1 X-27.35 Y-16.12 E296.5501
G1 X-17.17 Y-26.30 E297.0720
G1 X-15.29 Y-26.30 E297.1402
G1 X-27.35 Y-14.23 E297.7587
G1 X-27.35 Y-12.35 E297.8269
G1 X-13.40 Y-26.30 E298.5421
G1 X-11.52 Y-26.30 E298.6103
G1 X-27.35 Y-10.46 E299.4221
G1 X-27.35 Y-8.58 E299.4903
G1 X-9.63 Y-26.30 E300.3988
G1 X-7.75 Y-26.30 E300.4670
G1 X-27.35 Y-6.69 E301.4721
G1 X-27.35 Y-4.80 E301.5406
G1 X-5.86 Y-26.30 E302.6427
G1 X-3.98 Y-26.30 E302.7109
G1 X-27.35 Y-2.92 E303.9093
G1 X-27.35 Y-1.03 E303.9778
G1 X-2.09 Y-26.30 E305.2732
G1 X-2.04 Y-26.30 E305.2750
G1 X-2.04 Y-24.47 E305.3413
G1 X-27.35 Y.85 E306.6392
G1 X-27.35 Y2.74 E306.7078
G1 X-2.04 Y-22.58 E308.0057
G1 X-2.04 Y-20.69 E308.0742
G1 X-27.35 Y4.62 E309.3719
G1 X-27.35 Y6.51 E309.4404
G1 X-2.04 Y-18.81 E310.7383
G1 X-2.04 Y-16.92 E310.8068
G1 X-27.35 Y8.39 E312.1045
G1 X-27.35 Y10.28 E312.1730
G1 X-.78 Y-16.30 E313.5355
G1 X1.10 Y-16.30 E313.6037
G1 X-27.35 Y12.16 E315.0626
G1 X-27.35 Y14.05 E315.1311
G1 X2.99 Y-16.30 E316.6869
G1 X4.87 Y-16.30 E316.7550
G1 X-27.35 Y15.93 E318.4072
G1 X-27.35 Y17.82 E318.4758
G1 X6.64 Y-16.17 E320.2185
G1 X7.77 Y-15.43 E320.2674
G1 X-27.35 Y19.70 E322.0683
G1 X-27.35 Y21.59 E322.1368
G1 X-4.03 Y-1.73 E323.3324
G1 X-3.71 Y-3.39 E323.3937
G1 X-.85 Y-4.92 E323.5113
G1 X8.91 Y-14.68 E324.0117
G1 X10.05 Y-13.93 E324.0612
G1 X1.40 Y-5.28 E324.5047
G1 X2.63 Y-4.63 E324.5551
G1 X11.19 Y-13.18 E324.9938
G1 X12.33 Y-12.44 E325.0430
G1 X3.86 Y-3.97 E325.4773
G1 X4.95 Y-3.39 E325.5220
G1 X4.96 Y-3.19 E325.5293
G1 X13.10 Y-11.33 E325.9466
G1 X13.86 Y-10.20 E325.9960
G1 X5.13 Y-1.47 E326.4436
G1 X5.30 Y.24 E326.5059
G1 X14.61 Y-9.07 E326.9832
G1 X15.37 Y-7.94 E327.0326
G1 X-20.87 Y28.30 E328.8906
G1 X-18.99 Y28.30 E328.9588
G1 X16.08 Y-6.76 E330.7566
G1 X16.39 Y-5.19 E330.8146
G1 X-17.10 Y28.30 E332.5316
G1 X-15.21 Y28.30 E332.6002
G1 X16.70 Y-3.62 E334.2365
G1 X17.01 Y-2.04 E334.2948
G1 X-13.33 Y28.30 E335.8504
G1 X-11.44 Y28.30 E335.9189
G1 X17.33 Y-.47 E337.3939
G1 X17.74 Y1.00 E337.4492
G1 X-9.56 Y28.30 E338.8489
G1 X-7.67 Y28.30 E338.9175
G1 X3.16 Y17.46 E339.4729
G1 X2.58 Y19.53 E339.5509
G1 X2.57 Y19.94 E339.5657
G1 X-5.79 Y28.30 E339.9944
G1 X-3.90 Y28.30 E340.0629
G1 X2.54 Y21.86 E340.3931
G1 X2.50 Y23.78 E340.4627
G1 X-2.02 Y28.30 E340.6945
G1 X-.13 Y28.30 E340.7630
G1 X2.46 Y25.70 E340.8960
G1 X2.43 Y27.62 E340.9657
G1 X1.75 Y28.30 E341.0005
G1 X3.69 Y16.93 F7200
G1 X7.34 Y13.29 E341.1874 F3600
G1 X-22.76 Y28.30 F7200
G1 X1.06 Y4.49 E342.4084 F3600
G1 X-.54 Y4.19 E342.4675
G1 X-24.64 Y28.30 E343.7033
G1 X-26.53 Y28.30 E343.7719
G1 X-2.13 Y3.90 E345.0229
G1 X-3.51 Y3.65 E345.0737
G1 X-3.57 Y3.46 E345.0809
G1 X-6.44 Y6.33 E345.2281
G1 X-9.44 Y8.15 E345.3553
G1 X-8.85 Y8.74 E345.3855
G1 X-27.35 Y27.24 E346.3341
G1 X-27.35 Y25.36 E346.4022
G1 X-4.01 Y2.01 E347.5991
G1 X-4.45 Y.57 E347.6537
G1 X-27.35 Y23.47 E348.8278
;percent
;support-end
;layer:0.20
G1 Z.80 F400
;support-start
;raft
G1 X-1.84 Y-16.50 F7200
G1 X6.51 Y-16.50 E349.1305 F4800
G1 X12.54 Y-12.54 E349.3920
G1 X16.23 Y-7.01 E349.6331
G1 X17.52 Y-.53 E349.8726
G1 X18.32 Y2.36 E349.9813
G1 X7.64 Y13.05 E350.5291
G1 X6.60 Y15.93 E350.6401
G1 X3.43 Y17.26 E350.7648
G1 X2.78 Y19.56 E350.8514
G1 X2.61 Y28.50 E351.1756
G1 X-27.56 Y28.50 E352.2694
G1 X-27.56 Y-26.50 E354.2633
G1 X-1.84 Y-26.50 E355.1957
G1 X-1.84 Y-16.50 E355.5583
G1 X-9.12 Y8.19 F7200
G1 X-8.08 Y9.24 E355.6118 F4800
G1 X-6.46 Y6.58 E355.7247
G1 X-9.12 Y8.19 E355.8374
G1 X-3.53 Y-3.26 F7200
G1 X-4.27 Y.47 E355.9753 F4800
G1 X-3.36 Y3.47 E356.0890
G1 X1.59 Y4.38 E356.2714
G1 X5.22 Y1.41 E356.4415
G1 X4.76 Y-3.27 E356.6120
G1 X.62 Y-5.48 E356.7821
G1 X-3.53 Y-3.26 E356.9527
G1 X-1.67 Y-16.30 F7200
G1 X17.51 Y2.89 E357.9363 F4800
G1 X17.81 Y2.59 E357.9517
G1 X-1.08 Y-16.30 E358.9202
G1 X-.48 Y-16.30 E358.9419
G1 X18.09 Y2.28 E359.8943
G1 X17.86 Y1.46 E359.9252
G1 X.11 Y-16.30 E360.8355
G1 X.71 Y-16.30 E360.8572
G1 X17.63 Y.63 E361.7250
G1 X17.40 Y-.19 E361.7558
G1 X1.30 Y-16.30 E362.5816
G1 X1.90 Y-16.30 E362.6033
G1 X17.23 Y-.97 E363.3893
G1 X17.08 Y-1.71 E363.4167
G1 X2.49 Y-16.30 E364.1647
G1 X3.09 Y-16.30 E364.1864
G1 X16.93 Y-2.45 E364.8963
G1 X16.78 Y-3.20 E364.9240
G1 X3.68 Y-16.30 E365.5956
G1 X4.28 Y-16.30 E365.6174
G1 X16.64 Y-3.94 E366.2511
G1 X16.49 Y-4.68 E366.2785
G1 X4.88 Y-16.30 E366.8739
G1 X5.47 Y-16.30 E366.8953
G1 X16.34 Y-5.43 E367.4526
G1 X16.19 Y-6.17 E367.4800
G1 X6.07 Y-16.30 E367.9991
G1 X6.45 Y-16.30 E368.0129
G1 X7.06 Y-15.89 E368.0396
G1 X16.04 Y-6.91 E368.5000
G1 X16.04 Y-6.94 E368.5011
G1 X14.88 Y-8.67 E368.5766
G1 X8.80 Y-14.76 E368.8885
G1 X10.53 Y-13.62 E368.9637
G1 X13.68 Y-10.47 E369.1252
G1 X12.48 Y-12.26 E369.2033
G1 X12.27 Y-12.48 E369.2143
G1 X4.97 Y-3.10 F7200
G1 X14.24 Y6.16 E369.6893 F4800
G1 X13.94 Y6.46 E369.7047
G1 X5.04 Y-2.44 E370.1611
G1 X5.10 Y-1.78 E370.1851
G1 X13.64 Y6.76 E370.6229
G1 X13.34 Y7.06 E370.6383
G1 X5.17 Y-1.12 E371.0574
G1 X5.23 Y-.46 E371.0815
G1 X13.04 Y7.35 E371.4819
G1 X12.75 Y7.65 E371.4970
G1 X5.30 Y.20 E371.8789
G1 X5.36 Y.86 E371.9030
G1 X12.45 Y7.95 E372.2665
G1 X12.15 Y8.25 E372.2818
G1 X5.41 Y1.51 E372.6274
G1 X5.08 Y1.77 E372.6427
G1 X11.85 Y8.55 E372.9900
G1 X11.56 Y8.84 E373.0049
G1 X4.76 Y2.04 E373.3535
G1 X4.43 Y2.31 E373.3689
G1 X11.26 Y9.14 E373.7191
G1 X10.96 Y9.44 E373.7345
G1 X4.10 Y2.58 E374.0862
G1 X3.77 Y2.85 E374.1017
G1 X10.66 Y9.74 E374.4549
G1 X10.37 Y10.03 E374.4698
G1 X3.45 Y3.12 E374.8244
G1 X3.12 Y3.38 E374.8396
G1 X10.07 Y10.33 E375.1959
G1 X9.77 Y10.63 E375.2113
G1 X2.79 Y3.65 E375.5692
G1 X2.47 Y3.92 E375.5844
G1 X9.47 Y10.93 E375.9435
G1 X9.18 Y11.22 E375.9584
G1 X2.14 Y4.19 E376.3191
G1 X1.81 Y4.46 E376.3345
G1 X8.88 Y11.52 E376.6968
G1 X8.58 Y11.82 E376.7121
G1 X1.29 Y4.53 E377.0859
G1 X.56 Y4.40 E377.1128
G1 X8.28 Y12.12 E377.5086
G1 X7.98 Y12.42 E377.5239
G1 X-.17 Y4.26 E377.9420
G1 X-.90 Y4.13 E377.9689
G1 X7.69 Y12.71 E378.4091
G1 X7.46 Y12.94 E378.4208
G1 X7.42 Y13.05 E378.4251
G1 X-1.63 Y3.99 E378.8894
G1 X-2.36 Y3.86 E378.9162
G1 X7.27 Y13.48 E379.4097
G1 X7.11 Y13.92 E379.4267
G1 X-3.09 Y3.72 E379.9496
G1 X-6.44 Y6.92 F7200
G1 X3.61 Y16.97 E380.4649 F4800
G1 X3.26 Y17.12 E380.4787
G1 X3.24 Y17.19 E380.4814
G1 X-6.66 Y7.29 E380.9889
G1 X-6.89 Y7.66 E381.0047
G1 X3.11 Y17.66 E381.5174
G1 X2.98 Y18.12 E381.5347
G1 X-7.11 Y8.03 E382.0520
G1 X-7.34 Y8.40 E382.0678
G1 X2.84 Y18.59 E382.5900
G1 X2.71 Y19.05 E382.6073
G1 X-7.56 Y8.77 E383.1342
G1 X-7.79 Y9.15 E383.1503
G1 X2.58 Y19.52 E383.6820
G1 X2.58 Y19.53 E383.6823
G1 X2.57 Y20.10 E383.7030
G1 X-8.01 Y9.52 E384.2454
G1 X-27.36 Y28.28 F7200
G1 X-27.33 Y28.30 E384.2467 F4800
G1 X-26.74 Y28.30 E384.2681
G1 X-27.36 Y27.68 E384.2999
G1 X-27.35 Y27.09 E384.3213
G1 X-26.14 Y28.30 E384.3833
G1 X-25.55 Y28.30 E384.4047
G1 X-27.35 Y26.49 E384.4972
G1 X-27.35 Y25.90 E384.5186
G1 X-24.95 Y28.30 E384.6417
G1 X-24.36 Y28.30 E384.6630
G1 X-27.35 Y25.30 E384.8166
G1 X-27.35 Y24.71 E384.8380
G1 X-23.76 Y28.30 E385.0220
G1 X-23.17 Y28.30 E385.0434
G1 X-27.35 Y24.11 E385.2580
G1 X-27.35 Y23.52 E385.2794
G1 X-22.57 Y28.30 E385.5244
G1 X-21.98 Y28.30 E385.5458
G1 X-27.35 Y22.92 E385.8214
G1 X-27.35 Y22.33 E385.8427
G1 X-21.38 Y28.30 E386.1488
G1 X-20.79 Y28.30 E386.1702
G1 X-27.35 Y21.73 E386.5068
G1 X-27.35 Y21.13 E386.5285
G1 X-20.19 Y28.30 E386.8959
G1 X-19.59 Y28.30 E386.9176
G1 X-27.35 Y20.54 E387.3155
G1 X-27.35 Y19.94 E387.3372
G1 X-19.00 Y28.30 E387.7656
G1 X-18.40 Y28.30 E387.7874
G1 X-27.35 Y19.35 E388.2462
G1 X-27.35 Y18.75 E388.2680
G1 X-17.81 Y28.30 E388.7574
G1 X-17.21 Y28.30 E388.7791
G1 X-27.35 Y18.16 E389.2990
G1 X-27.35 Y17.56 E389.3207
G1 X-16.62 Y28.30 E389.8711
G1 X-16.02 Y28.30 E389.8929
G1 X-27.35 Y16.97 E390.4738
G1 X-27.35 Y16.37 E390.4955
G1 X-15.43 Y28.30 E391.1069
G1 X-14.83 Y28.30 E391.1287
G1 X-27.35 Y15.78 E391.7706
G1 X-27.35 Y15.18 E391.7923
G1 X-14.24 Y28.30 E392.4647
G1 X-13.64 Y28.30 E392.4865
G1 X-27.35 Y14.59 E393.1894
G1 X-27.35 Y13.99 E393.2111
G1 X-13.05 Y28.30 E393.9445
G1 X-12.45 Y28.30 E393.9663
G1 X-27.35 Y13.39 E394.7305
G1 X-27.35 Y12.80 E394.7518
G1 X-11.85 Y28.30 E395.5466
G1 X-11.26 Y28.30 E395.5679
G1 X-27.35 Y12.20 E396.3931
G1 X-27.35 Y11.61 E396.4145
G1 X-10.66 Y28.30 E397.2702
G1 X-10.07 Y28.30 E397.2915
G1 X-27.35 Y11.01 E398.1778
G1 X-27.35 Y10.42 E398.1991
G1 X-9.47 Y28.30 E399.1159
G1 X-8.88 Y28.30 E399.1372
G1 X-27.35 Y9.82 E400.0845
G1 X-27.35 Y9.23 E400.1058
G1 X-8.28 Y28.30 E401.0835
G1 X-7.69 Y28.30 E401.1049
G1 X-27.35 Y8.63 E402.1131
G1 X-27.35 Y8.04 E402.1345
G1 X-7.09 Y28.30 E403.1733
G1 X-6.50 Y28.30 E403.1946
G1 X-27.35 Y7.44 E404.2639
G1 X-27.35 Y6.85 E404.2853
G1 X-5.90 Y28.30 E405.3850
G1 X-5.31 Y28.30 E405.4064
G1 X-27.35 Y6.25 E406.5366
G1 X-27.35 Y5.65 E406.5584
G1 X-4.71 Y28.30 E407.7194
G1 X-4.11 Y28.30 E407.7411
G1 X-27.35 Y5.06 E408.9327
G1 X-27.35 Y4.46 E408.9544
G1 X-3.52 Y28.30 E410.1765
G1 X-2.92 Y28.30 E410.1982
G1 X-27.35 Y3.87 E411.4507
G1 X-27.35 Y3.27 E411.4725
G1 X-2.33 Y28.30 E412.7555
G1 X-1.73 Y28.30 E412.7773
G1 X-27.35 Y2.68 E414.0908
G1 X-27.35 Y2.08 E414.1125
G1 X-1.14 Y28.30 E415.4566
G1 X-.54 Y28.30 E415.4783
G1 X-27.35 Y1.49 E416.8529
G1 X-27.35 Y.89 E416.8747
G1 X.05 Y28.30 E418.2797
G1 X.65 Y28.30 E418.3015
G1 X-27.35 Y.30 E419.7371
G1 X-27.35 Y-.30 E419.7588
G1 X1.24 Y28.30 E421.2249
G1 X1.84 Y28.30 E421.2466
G1 X-27.35 Y-.89 E422.7432
G1 X-27.35 Y-1.49 E422.7649
G1 X2.42 Y28.28 E424.2913
G1 X2.43 Y27.70 E424.3123
G1 X-27.35 Y-2.09 E425.8394
G1 X-27.35 Y-2.68 E425.8608
G1 X2.44 Y27.11 E427.3881
G1 X2.45 Y26.53 E427.4091
G1 X-27.35 Y-3.28 E428.9373
G1 X-27.35 Y-3.87 E428.9586
G1 X2.46 Y25.94 E430.4870
G1 X2.47 Y25.36 E430.5081
G1 X-27.35 Y-4.47 E432.0372
G1 X-27.35 Y-5.06 E432.0586
G1 X2.48 Y24.77 E433.5880
G1 X2.49 Y24.19 E433.6090
G1 X-27.35 Y-5.66 E435.1392
G1 X-27.35 Y-6.25 E435.1605
G1 X2.50 Y23.60 E436.6909
G1 X2.51 Y23.02 E436.7120
G1 X-27.35 Y-6.85 E438.2432
G1 X-27.35 Y-7.44 E438.2645
G1 X2.53 Y22.44 E439.7965
G1 X2.54 Y21.85 E439.8179
G1 X-27.35 Y-8.04 E441.3504
G1 X-27.35 Y-8.63 E441.3717
G1 X2.55 Y21.27 E442.9047
G1 X2.56 Y20.68 E442.9261
G1 X-27.35 Y-9.23 E444.4596
G1 X-27.35 Y-9.83 E444.4814
G1 X-9.40 Y8.13 E445.4019
G1 X-9.03 Y7.90 E445.4177
G1 X-27.35 Y-10.42 E446.3570
G1 X-27.35 Y-11.02 E446.3787
G1 X-8.66 Y7.68 E447.3372
G1 X-8.29 Y7.45 E447.3530
G1 X-27.35 Y-11.61 E448.3303
G1 X-27.35 Y-12.21 E448.3520
G1 X-7.92 Y7.23 E449.3484
G1 X-7.55 Y7.00 E449.3642
G1 X-27.35 Y-12.80 E450.3794
G1 X-27.35 Y-13.40 E450.4011
G1 X-7.18 Y6.78 E451.4355
G1 X-6.81 Y6.55 E451.4513
G1 X-27.35 Y-13.99 E452.5044
G1 X-27.35 Y-14.59 E452.5261
G1 X-6.44 Y6.33 E453.5984
G1 X-6.43 Y6.32 E453.5989
G1 X-6.21 Y6.55 E453.6105
G1 X-6.21 Y6.55 E453.6105
G1 X4.03 Y16.79 E454.1355
G1 X4.44 Y16.62 E454.1515
G1 X-27.35 Y-15.18 E455.7817
G1 X-27.35 Y-15.78 E455.8034
G1 X4.86 Y16.44 E457.4551
G1 X5.28 Y16.26 E457.4716
G1 X-27.35 Y-16.37 E459.1446
G1 X-27.35 Y-16.97 E459.1663
G1 X5.70 Y16.08 E460.8608
G1 X6.12 Y15.91 E460.8773
G1 X-27.35 Y-17.57 E462.5935
G1 X-27.35 Y-18.16 E462.6149
G1 X6.48 Y15.67 E464.3494
G1 X6.64 Y15.23 E464.3663
G1 X-27.35 Y-18.76 E466.1090
G1 X-27.35 Y-19.35 E466.1304
G1 X6.79 Y14.80 E467.8810
G1 X6.95 Y14.36 E467.8980
G1 X-27.35 Y-19.95 E469.6568
G1 X-27.35 Y-20.54 E469.6782
G1 X-3.66 Y3.15 E470.8928
G1 X-3.92 Y2.29 E470.9253
G1 X-27.35 Y-21.14 E472.1266
G1 X-27.35 Y-21.73 E472.1480
G1 X-4.18 Y1.44 E473.3359
G1 X-4.44 Y.58 E473.3685
G1 X-27.35 Y-22.33 E474.5431
G1 X-27.35 Y-22.92 E474.5644
G1 X-4.38 Y.05 E475.7421
G1 X-4.29 Y-.45 E475.7605
G1 X-27.35 Y-23.52 E476.9431
G1 X-27.35 Y-24.11 E476.9645
G1 X-4.19 Y-.95 E478.1519
G1 X-4.09 Y-1.45 E478.1704
G1 X-27.35 Y-24.71 E479.3629
G1 X-27.35 Y-25.31 E479.3846
G1 X-3.99 Y-1.94 E480.5826
G1 X-3.89 Y-2.44 E480.6011
G1 X-27.35 Y-25.90 E481.8039
G1 X-27.36 Y-26.30 E481.8184
G1 X-27.16 Y-26.30 E481.8256
G1 X-3.79 Y-2.94 E483.0236
G1 X-3.71 Y-3.39 E483.0402
G1 X-3.67 Y-3.41 E483.0418
G1 X-26.56 Y-26.30 E484.2153
G1 X-25.97 Y-26.30 E484.2367
G1 X-3.28 Y-3.62 E485.3998
G1 X-2.90 Y-3.82 E485.4153
G1 X-25.37 Y-26.30 E486.5677
G1 X-24.78 Y-26.30 E486.5890
G1 X-2.51 Y-4.03 E487.7308
G1 X-2.12 Y-4.24 E487.7469
G1 X-24.18 Y-26.30 E488.8779
G1 X-23.58 Y-26.30 E488.8997
G1 X-1.73 Y-4.45 E490.0199
G1 X-1.34 Y-4.65 E490.0358
G1 X-22.99 Y-26.30 E491.1458
G1 X-22.39 Y-26.30 E491.1675
G1 X-.96 Y-4.86 E492.2665
G1 X-.57 Y-5.07 E492.2826
G1 X-21.80 Y-26.30 E493.3710
G1 X-21.20 Y-26.30 E493.3928
G1 X-.18 Y-5.28 E494.4705
G1 X.21 Y-5.48 E494.4863
