;generated by ffslicer 1.3.0 10/11/16 18:11:31
;start gcode
M118 X36.90 Y30.00 Z14.78 T0
M140 S0
M104 S220 T0
M104 S0 T1
M107
G90
G28
M132 X Y Z A B
G1 Z50.00 F600
G161 X Y F3300
M6 T0
M907 X100 Y100 Z40 A80 B20
;preExtrude: 0.20
G1 Z.20 F400
M108 T0
;preExtruder0
G1 X-19.16 Y13.03 F7200
G1 X-19.17 Y27.00 E2.0258 F1200
G1 X-36.90 Y27.00 E4.5970
G1 X-36.90 Y-30.00 E12.8628
G1 X-19.16 Y-30.00 E15.4353
G1 X-19.16 Y-16.44 E17.4017
;raft
;layer:0.27
G1 Z.27 F400
;shell
M106
G1 E16.1017 F1800
G1 X-31.30 Y-24.40 F4200
G1 E17.4017 F1800
G1 X-31.30 Y-24.40 F4200
G1 X-30.30 Y-24.40 E17.4506 F1200
G1 X-29.30 Y-24.40 E17.4996
G1 X-28.30 Y-24.40 E17.5485
G1 X-27.30 Y-24.40 E17.5975
G1 X-26.30 Y-24.40 E17.6464
G1 X-24.76 Y-24.40 E17.7218
G1 X-24.76 Y13.03 E19.5537
G1 X-24.77 Y21.40 E19.9633
G1 X-31.30 Y21.40 E20.2829
G1 X-31.30 Y-14.30 E22.0302
G1 X-31.30 Y-16.30 E22.1281
G1 X-31.30 Y-18.30 E22.2259
G1 X-31.30 Y-20.30 E22.3238
G1 X-31.30 Y-22.30 E22.4217
G1 X-31.30 Y-24.30 E22.5196 F720
G1 X-31.70 Y-24.80 E22.5196 F300
G1 X-24.36 Y-24.80 E22.8788 F1200
G1 X-24.36 Y13.03 E24.7303
G1 X-24.37 Y21.80 E25.1595
G1 X-31.70 Y21.80 E25.5183
G1 X-31.70 Y-24.70 E27.7941
G1 X-31.30 Y-24.30 E27.8033 F300
;infill
G1 E26.5033 F1800
G1 X-30.90 Y-24.06 F4200
G1 E27.8033 F1800
G1 X-30.90 Y-24.06 F4200
G1 X-30.96 Y-24.00 E27.8075 F1200
G1 X-30.96 Y-23.44 E27.8349
G1 X-30.34 Y-24.06 E27.8778
G1 X-29.77 Y-24.06 E27.9057
G1 X-30.96 Y-22.87 E27.9880
G1 X-30.96 Y-22.30 E28.0159
G1 X-29.21 Y-24.06 E28.1374
G1 X-28.64 Y-24.06 E28.1653
G1 X-30.96 Y-21.74 E28.3259
G1 X-30.96 Y-21.17 E28.3538
G1 X-28.08 Y-24.06 E28.5535
G1 X-27.51 Y-24.06 E28.5814
G1 X-30.96 Y-20.61 E28.8202
G1 X-30.96 Y-20.04 E28.8481
G1 X-26.94 Y-24.06 E29.1263
G1 X-26.38 Y-24.06 E29.1537
G1 X-30.96 Y-19.48 E29.4707
G1 X-30.96 Y-18.91 E29.4986
G1 X-25.81 Y-24.06 E29.8551
G1 X-25.25 Y-24.06 E29.8825
G1 X-30.96 Y-18.34 E30.2780
G1 X-30.96 Y-17.78 E30.3054
G1 X-25.10 Y-23.64 E30.7110
G1 X-25.10 Y-23.08 E30.7385
G1 X-30.96 Y-17.21 E31.1444
G1 X-30.96 Y-16.65 E31.1718
G1 X-25.10 Y-22.51 E31.5774
G1 X-25.10 Y-21.94 E31.6053
G1 X-30.96 Y-16.08 E32.0109
G1 X-30.96 Y-15.52 E32.0383
G1 X-25.10 Y-21.38 E32.4439
G1 X-25.10 Y-20.81 E32.4718
G1 X-30.96 Y-14.95 E32.8774
G1 X-30.96 Y-14.39 E32.9048
G1 X-25.10 Y-20.25 E33.3104
G1 X-25.10 Y-19.68 E33.3383
G1 X-30.96 Y-13.82 E33.7439
G1 X-30.96 Y-13.25 E33.7718
G1 X-25.10 Y-19.12 E34.1778
G1 X-25.10 Y-18.55 E34.2057
G1 X-30.96 Y-12.69 E34.6112
G1 X-30.96 Y-12.12 E34.6391
G1 X-25.10 Y-17.98 E35.0447
G1 X-25.10 Y-17.42 E35.0721
G1 X-30.96 Y-11.56 E35.4777
G1 X-30.96 Y-10.99 E35.5056
G1 X-25.10 Y-16.85 E35.9112
G1 X-25.10 Y-16.29 E35.9386
G1 X-30.96 Y-10.43 E36.3442
G1 X-30.96 Y-9.86 E36.3721
G1 X-25.10 Y-15.72 E36.7777
G1 X-25.10 Y-15.16 E36.8052
G1 X-30.96 Y-9.29 E37.2111
G1 X-30.96 Y-8.73 E37.2385
G1 X-25.10 Y-14.59 E37.6441
G1 X-25.10 Y-14.02 E37.6720
G1 X-30.96 Y-8.16 E38.0776
G1 X-30.96 Y-7.60 E38.1050
G1 X-25.10 Y-13.46 E38.5106
G1 X-25.10 Y-12.89 E38.5385
G1 X-30.96 Y-7.03 E38.9441
G1 X-30.96 Y-6.47 E38.9715
G1 X-25.10 Y-12.33 E39.3771
G1 X-25.10 Y-11.76 E39.4050
G1 X-30.96 Y-5.90 E39.8106
G1 X-30.96 Y-5.33 E39.8385
G1 X-25.10 Y-11.20 E40.2444
G1 X-25.10 Y-10.63 E40.2723
G1 X-30.96 Y-4.77 E40.6779
G1 X-30.96 Y-4.20 E40.7058
G1 X-25.10 Y-10.06 E41.1114
G1 X-25.10 Y-9.50 E41.1388
G1 X-30.96 Y-3.64 E41.5444
G1 X-30.96 Y-3.07 E41.5723
G1 X-25.10 Y-8.93 E41.9779
G1 X-25.10 Y-8.37 E42.0053
G1 X-30.96 Y-2.51 E42.4109
G1 X-30.96 Y-1.94 E42.4388
G1 X-25.10 Y-7.80 E42.8444
G1 X-25.10 Y-7.24 E42.8718
G1 X-30.96 Y-1.37 E43.2778
G1 X-30.96 Y-.81 E43.3052
G1 X-25.10 Y-6.67 E43.7108
G1 X-25.10 Y-6.10 E43.7387
G1 X-30.96 Y-.24 E44.1443
G1 X-30.96 Y.32 E44.1717
G1 X-25.10 Y-5.54 E44.5773
G1 X-25.10 Y-4.97 E44.6052
G1 X-30.96 Y.89 E45.0108
G1 X-30.96 Y1.45 E45.0382
G1 X-25.10 Y-4.41 E45.4438
G1 X-25.10 Y-3.84 E45.4717
G1 X-30.96 Y2.02 E45.8773
G1 X-30.96 Y2.59 E45.9052
G1 X-25.10 Y-3.28 E46.3111
G1 X-25.10 Y-2.71 E46.3390
G1 X-30.96 Y3.15 E46.7446
G1 X-30.96 Y3.72 E46.7725
G1 X-25.10 Y-2.14 E47.1781
G1 X-25.10 Y-1.58 E47.2055
G1 X-30.96 Y4.28 E47.6111
G1 X-30.96 Y4.85 E47.6390
G1 X-25.10 Y-1.01 E48.0446
G1 X-25.10 Y-.45 E48.0720
G1 X-30.96 Y5.41 E48.4776
G1 X-30.96 Y5.98 E48.5055
G1 X-25.10 Y.12 E48.9111
G1 X-25.10 Y.68 E48.9385
G1 X-30.96 Y6.54 E49.3441
G1 X-30.96 Y7.11 E49.3720
G1 X-25.10 Y1.25 E49.7776
G1 X-25.10 Y1.82 E49.8055
G1 X-30.96 Y7.68 E50.2111
G1 X-30.96 Y8.24 E50.2385
G1 X-25.10 Y2.38 E50.6441
G1 X-25.10 Y2.95 E50.6720
G1 X-30.96 Y8.81 E51.0776
G1 X-30.96 Y9.37 E51.1050
G1 X-25.10 Y3.51 E51.5106
G1 X-25.10 Y4.08 E51.5385
G1 X-30.96 Y9.94 E51.9441
G1 X-30.96 Y10.50 E51.9715
G1 X-25.10 Y4.64 E52.3771
G1 X-25.10 Y5.21 E52.4050
G1 X-30.96 Y11.07 E52.8106
G1 X-30.96 Y11.64 E52.8385
G1 X-25.10 Y5.77 E53.2445
G1 X-25.10 Y6.34 E53.2724
G1 X-30.96 Y12.20 E53.6780
G1 X-30.96 Y12.77 E53.7059
G1 X-25.10 Y6.91 E54.1115
G1 X-25.10 Y7.47 E54.1389
G1 X-30.96 Y13.33 E54.5445
G1 X-30.96 Y13.90 E54.5724
G1 X-25.10 Y8.04 E54.9780
G1 X-25.10 Y8.60 E55.0054
G1 X-30.96 Y14.46 E55.4110
G1 X-30.96 Y15.03 E55.4389
G1 X-25.10 Y9.17 E55.8445
G1 X-25.10 Y9.73 E55.8719
G1 X-30.96 Y15.60 E56.2778
G1 X-30.96 Y16.16 E56.3052
G1 X-25.10 Y10.30 E56.7108
G1 X-25.10 Y10.87 E56.7387
G1 X-30.96 Y16.73 E57.1443
G1 X-30.96 Y17.29 E57.1717
G1 X-25.10 Y11.43 E57.5773
G1 X-25.10 Y12.00 E57.6052
G1 X-30.96 Y17.86 E58.0108
G1 X-30.96 Y18.42 E58.0382
G1 X-25.10 Y12.56 E58.4438
G1 X-25.10 Y13.03 E58.4668
G1 X-25.10 Y13.13 E58.4717
G1 X-30.96 Y18.99 E58.8773
G1 X-30.96 Y19.56 E58.9052
G1 X-25.10 Y13.69 E59.3111
G1 X-25.10 Y14.26 E59.3390
G1 X-30.96 Y20.12 E59.7446
G1 X-30.96 Y20.69 E59.7725
G1 X-25.10 Y14.83 E60.1781
G1 X-25.10 Y15.39 E60.2055
G1 X-30.77 Y21.06 E60.5980
G1 X-30.20 Y21.06 E60.6259
G1 X-25.10 Y15.96 E60.9789
G1 X-25.10 Y16.53 E61.0068
G1 X-29.64 Y21.06 E61.3207
G1 X-29.07 Y21.06 E61.3486
G1 X-25.10 Y17.09 E61.6234
G1 X-25.10 Y17.66 E61.6513
G1 X-28.51 Y21.06 E61.8869
G1 X-27.94 Y21.06 E61.9148
G1 X-25.10 Y18.22 E62.1114
G1 X-25.10 Y18.79 E62.1393
G1 X-27.37 Y21.06 E62.2964
G1 X-26.81 Y21.06 E62.3238
G1 X-25.10 Y19.35 E62.4422
G1 X-25.10 Y19.92 E62.4701
G1 X-26.24 Y21.06 E62.5490
G1 X-25.68 Y21.06 E62.5764
G1 X-25.10 Y20.49 E62.6162
G1 X-25.10 Y21.05 E62.6436
G1 X-25.11 Y21.06 E62.6443
;percent
;layer:0.18
G1 Z.45 F400
;shell
G1 E61.3443 F1800
G1 X-15.79 Y3.77 F7200
G1 E62.6443 F1800
G1 X-15.79 Y3.77 F7200
G1 X-15.80 Y3.79 E62.6450 F300
;shell
G1 E61.3450 F1800
G1 X-11.35 Y2.88 F7200
G1 E62.6450 F1800
G1 X-11.35 Y2.88 F7200
G1 X-11.34 Y2.90 E62.6457 F300
;shell
G1 E61.3457 F1800
G1 X-15.31 Y-24.40 F7200
G1 E62.6457 F1800
G1 X-15.31 Y-24.40 F7200
G1 X-14.31 Y-24.40 E62.6784 F1500
G1 X-13.31 Y-24.40 E62.7110 F1872
G1 X-12.31 Y-24.40 E62.7436 F2244
G1 X-11.84 Y-24.40 E62.7590 F2616
G1 X-11.84 Y-23.86 E62.7766
G1 X-11.84 Y-22.86 E62.8092 F2988
G1 X-11.84 Y-16.16 E63.0278 F3360
G1 X-11.85 Y-14.68 E63.0761
G1 X-11.84 Y-14.33 E63.0875
G1 X-11.83 Y-8.62 E63.2739
G1 X-11.86 Y-8.02 E63.2935
G1 X-11.85 Y-7.34 E63.3156
G1 X-11.86 Y-6.66 E63.3378
G1 X-11.86 Y-5.41 E63.3786
G1 X-11.87 Y-4.70 E63.4018
G1 X-11.83 Y-3.83 E63.4302
G1 X-11.86 Y-3.02 E63.4567
G1 X-11.84 Y-2.29 E63.4805
G1 X-11.83 Y1.47 E63.6032
G1 X-12.01 Y1.54 E63.6095
G1 X-13.13 Y.42 E63.6611
G1 X-15.13 Y2.43 E63.7537
G1 X-15.31 Y2.36 E63.7600
G1 X-15.31 Y-14.30 E64.3035
G1 X-15.31 Y-16.30 E64.3688 F2832
G1 X-15.31 Y-18.30 E64.4341 F2304
G1 X-15.31 Y-20.30 E64.4993 F1776
G1 X-15.31 Y-22.30 E64.5646 F1248
G1 X-15.31 Y-24.30 E64.6298 F720
G1 X-15.71 Y-24.80 E64.6298 F300
G1 X-11.44 Y-24.80 E64.7692 F2400
G1 X-11.44 Y-16.16 E65.0511
G1 X-11.45 Y-14.69 E65.0990
G1 X-11.44 Y-14.33 E65.1108
G1 X-11.43 Y-8.61 E65.2974
G1 X-11.46 Y-8.01 E65.3170
G1 X-11.45 Y-7.33 E65.3392
G1 X-11.46 Y-6.66 E65.3611
G1 X-11.46 Y-5.40 E65.4022
G1 X-11.47 Y-4.71 E65.4247
G1 X-11.43 Y-3.83 E65.4534
G1 X-11.46 Y-3.02 E65.4799
G1 X-11.44 Y-2.29 E65.5037
G1 X-11.43 Y2.54 E65.6613
G1 X-11.53 Y2.58 E65.6648
G1 X-13.13 Y.99 E65.7384
G1 X-15.61 Y3.47 E65.8529
G1 X-15.71 Y3.43 E65.8564
G1 X-15.71 Y-24.70 E66.7742
G1 X-15.31 Y-24.30 E66.7804 F300
;infill
G1 E65.4804 F1800
G1 X-12.18 Y-23.83 F7200
G1 E66.7804 F1800
G1 X-12.18 Y-23.83 F7200
G1 X-12.41 Y-24.06 E66.7910 F3360
G1 X-12.98 Y-24.06 E66.8096
G1 X-12.18 Y-23.27 E66.8463
G1 X-12.18 Y-22.70 E66.8649
G1 X-13.54 Y-24.06 E66.9276
G1 X-14.11 Y-24.06 E66.9462
G1 X-12.18 Y-22.13 E67.0353
G1 X-12.18 Y-21.57 E67.0535
G1 X-14.67 Y-24.06 E67.1684
G1 X-14.97 Y-24.06 E67.1782
G1 X-14.97 Y-23.79 E67.1870
G1 X-12.18 Y-21.00 E67.3158
G1 X-12.18 Y-20.44 E67.3341
G1 X-14.97 Y-23.22 E67.4626
G1 X-14.97 Y-22.66 E67.4808
G1 X-12.18 Y-19.87 E67.6096
G1 X-12.18 Y-19.31 E67.6279
G1 X-14.97 Y-22.09 E67.7564
G1 X-14.97 Y-21.52 E67.7750
G1 X-12.18 Y-18.74 E67.9035
G1 X-12.18 Y-18.17 E67.9221
G1 X-14.97 Y-20.96 E68.0508
G1 X-14.97 Y-20.39 E68.0694
G1 X-12.18 Y-17.61 E68.1979
G1 X-12.18 Y-17.04 E68.2165
G1 X-14.97 Y-19.83 E68.3453
G1 X-14.97 Y-19.26 E68.3639
G1 X-12.18 Y-16.48 E68.4924
G1 X-12.18 Y-16.16 E68.5028
G1 X-12.18 Y-15.91 E68.5110
G1 X-14.97 Y-18.70 E68.6397
G1 X-14.97 Y-18.13 E68.6583
G1 X-12.18 Y-15.35 E68.7868
G1 X-12.19 Y-14.78 E68.8054
G1 X-14.97 Y-17.56 E68.9337
G1 X-14.97 Y-17.00 E68.9520
G1 X-12.17 Y-14.21 E69.0810
G1 X-12.17 Y-13.64 E69.0996
G1 X-14.97 Y-16.43 E69.2285
G1 X-14.97 Y-15.87 E69.2468
G1 X-12.17 Y-13.07 E69.3760
G1 X-12.17 Y-12.51 E69.3943
G1 X-14.97 Y-15.30 E69.5232
G1 X-14.97 Y-14.74 E69.5415
G1 X-12.17 Y-11.94 E69.6707
G1 X-12.17 Y-11.37 E69.6893
G1 X-14.97 Y-14.17 E69.8185
G1 X-14.97 Y-13.60 E69.8371
G1 X-12.17 Y-10.81 E69.9661
G1 X-12.17 Y-10.24 E69.9847
G1 X-14.97 Y-13.04 E70.1139
G1 X-14.97 Y-12.47 E70.1325
G1 X-12.17 Y-9.68 E70.2615
G1 X-12.17 Y-9.11 E70.2801
G1 X-14.97 Y-11.91 E70.4093
G1 X-14.97 Y-11.34 E70.4279
G1 X-12.17 Y-8.55 E70.5568
G1 X-12.20 Y-8.01 E70.5745
G1 X-12.20 Y-8.01 E70.5745
G1 X-14.97 Y-10.78 E70.7023
G1 X-14.97 Y-10.21 E70.7209
G1 X-12.19 Y-7.44 E70.8490
G1 X-12.19 Y-7.35 E70.8519
G1 X-12.20 Y-6.88 E70.8672
G1 X-14.97 Y-9.64 E70.9948
G1 X-14.97 Y-9.08 E71.0131
G1 X-12.20 Y-6.31 E71.1409
G1 X-12.20 Y-5.75 E71.1592
G1 X-14.97 Y-8.51 E71.2868
G1 X-14.97 Y-7.95 E71.3050
G1 X-12.20 Y-5.18 E71.4329
G1 X-12.21 Y-4.71 E71.4482
G1 X-12.21 Y-4.62 E71.4511
G1 X-14.97 Y-7.38 E71.5785
G1 X-14.97 Y-6.82 E71.5968
G1 X-12.18 Y-4.03 E71.7255
G1 X-12.17 Y-3.83 E71.7320
G1 X-12.18 Y-3.47 E71.7438
G1 X-14.97 Y-6.25 E71.8723
G1 X-14.97 Y-5.69 E71.8906
G1 X-12.19 Y-2.91 E72.0188
G1 X-12.18 Y-2.33 E72.0378
G1 X-14.97 Y-5.12 E72.1665
G1 X-14.97 Y-4.55 E72.1851
G1 X-12.18 Y-1.77 E72.3136
G1 X-12.18 Y-1.20 E72.3322
G1 X-14.97 Y-3.99 E72.4610
G1 X-14.97 Y-3.42 E72.4796
G1 X-12.18 Y-.63 E72.6083
G1 X-12.18 Y-.07 E72.6266
G1 X-14.97 Y-2.86 E72.7553
G1 X-14.97 Y-2.29 E72.7739
G1 X-12.17 Y.50 E72.9029
G1 X-12.18 Y.78 E72.9120
G1 X-12.25 Y.82 E72.9147
G1 X-13.13 Y-.06 E72.9553
G1 X-13.21 Y.03 E72.9592
G1 X-14.97 Y-1.73 E73.0404
G1 X-14.97 Y-1.16 E73.0590
G1 X-13.49 Y.31 E73.1271
G1 X-13.78 Y.60 E73.1405
G1 X-14.97 Y-.59 E73.1954
G1 X-14.97 Y-.03 E73.2137
G1 X-14.06 Y.88 E73.2556
G1 X-14.34 Y1.16 E73.2686
G1 X-14.97 Y.54 E73.2974
G1 X-14.97 Y1.10 E73.3157
G1 X-14.63 Y1.44 E73.3314
G1 X-14.89 Y1.71 E73.3436
G1 X-14.95 Y1.68 E73.3458
G1 X-14.97 Y1.67 E73.3465
G1 E72.0465 F1800
G1 X-15.35 Y2.71 F7200
G1 E73.3465 F1800
G1 X-15.35 Y2.71 F7200
G1 X-15.37 Y2.76 E73.3483 F3360
G1 E72.0483 F1800
G1 X-13.13 Y.79 F7200
G1 X-11.79 Y1.83
G1 E73.3483 F1800
G1 X-11.79 Y1.83 F7200
G1 X-11.77 Y1.87 E73.3497 F3360
;shell
G1 E72.0497 F1800
G1 X-31.31 Y-24.40 F7200
G1 E73.3497 F1800
G1 X-31.31 Y-24.40 F7200
G1 X-30.31 Y-24.40 E73.3824 F1500
G1 X-29.31 Y-24.40 E73.4150 F1872
G1 X-28.31 Y-24.40 E73.4476 F2244
G1 X-27.31 Y-24.40 E73.4802 F2616
G1 X-26.31 Y-24.40 E73.5129 F2988
G1 X-18.51 Y-24.40 E73.7674 F3360
G1 X-18.51 Y-20.57 E73.8923
G1 X-18.51 Y5.81 E74.7531
G1 X-20.48 Y7.78 E74.8440
G1 X-11.85 Y16.41 E75.2422
G1 X-11.86 Y20.09 E75.3623
G1 X-11.87 Y21.40 E75.4050
G1 X-24.57 Y21.40 E75.8194
G1 X-31.31 Y21.40 E76.0393 F4800
G1 X-31.31 Y-14.30 E77.2041
G1 X-31.31 Y-16.30 E77.2694 F3984
G1 X-31.31 Y-18.30 E77.3346 F3168
G1 X-31.31 Y-20.30 E77.3999 F2352
G1 X-31.31 Y-22.30 E77.4651 F1536
G1 X-31.31 Y-24.30 E77.5304 F720
G1 X-31.71 Y-24.80 E77.5304 F300
G1 X-18.11 Y-24.80 E77.9741 F2400
G1 X-18.11 Y-20.57 E78.1122
G1 X-18.11 Y5.97 E78.9781
G1 X-19.92 Y7.78 E79.0616
G1 X-11.45 Y16.25 E79.4525
G1 X-11.46 Y20.10 E79.5781
G1 X-11.48 Y21.80 E79.6335
G1 X-31.71 Y21.80 E80.2936
G1 X-31.71 Y-24.70 E81.8108
G1 X-31.31 Y-24.30 E81.8170 F300
;infill
G1 E80.5170 F1800
G1 X-18.94 Y-24.06 F7200
G1 E81.8170 F1800
G1 X-18.94 Y-24.06 F7200
G1 X-18.85 Y-23.97 E81.8211 F3360
G1 X-18.85 Y-23.40 E81.8397
G1 X-19.51 Y-24.06 E81.8702
G1 X-20.07 Y-24.06 E81.8885
G1 X-18.85 Y-22.84 E81.9448
G1 X-18.85 Y-22.27 E81.9634
G1 X-20.64 Y-24.06 E82.0459
G1 X-21.20 Y-24.06 E82.0642
G1 X-18.85 Y-21.71 E82.1727
G1 X-18.85 Y-21.14 E82.1913
G1 X-21.77 Y-24.06 E82.3260
G1 X-22.34 Y-24.06 E82.3446
G1 X-18.85 Y-20.57 E82.5056
G1 X-18.85 Y-20.57 E82.5056
G1 X-18.85 Y-20.01 E82.5239
G1 X-22.90 Y-24.06 E82.7108
G1 X-23.47 Y-24.06 E82.7294
G1 X-18.85 Y-19.44 E82.9426
G1 X-18.85 Y-18.88 E82.9608
G1 X-24.03 Y-24.06 E83.1999
G1 X-24.60 Y-24.06 E83.2185
G1 X-18.85 Y-18.31 E83.4838
G1 X-18.85 Y-17.75 E83.5021
G1 X-25.16 Y-24.06 E83.7932
G1 X-25.73 Y-24.06 E83.8118
G1 X-18.85 Y-17.18 E84.1293
G1 X-18.85 Y-16.61 E84.1479
G1 X-26.30 Y-24.06 E84.4917
G1 X-26.86 Y-24.06 E84.5099
G1 X-18.85 Y-16.05 E84.8796
G1 X-18.85 Y-15.48 E84.8982
G1 X-27.43 Y-24.06 E85.2941
G1 X-27.99 Y-24.06 E85.3123
G1 X-18.85 Y-14.92 E85.7341
G1 X-18.85 Y-14.35 E85.7527
G1 X-28.56 Y-24.06 E86.2007
G1 X-29.12 Y-24.06 E86.2190
G1 X-18.85 Y-13.79 E86.6929
G1 X-18.85 Y-13.22 E86.7115
G1 X-29.69 Y-24.06 E87.2117
G1 X-30.26 Y-24.06 E87.2303
G1 X-18.85 Y-12.65 E87.7568
G1 X-18.85 Y-12.09 E87.7751
G1 X-30.82 Y-24.06 E88.3274
G1 X-30.97 Y-24.06 E88.3323
G1 X-30.96 Y-23.64 E88.3460
G1 X-18.85 Y-11.52 E88.9050
G1 X-18.85 Y-10.96 E88.9233
G1 X-30.96 Y-23.07 E89.4821
G1 X-30.96 Y-22.51 E89.5004
G1 X-18.85 Y-10.39 E90.0594
G1 X-18.85 Y-9.83 E90.0777
G1 X-30.96 Y-21.94 E90.6365
G1 X-30.96 Y-21.37 E90.6551
G1 X-18.85 Y-9.26 E91.2139
G1 X-18.85 Y-8.69 E91.2325
G1 X-30.96 Y-20.81 E91.7915
G1 X-30.96 Y-20.24 E91.8101
G1 X-18.85 Y-8.13 E92.3689
G1 X-18.85 Y-7.56 E92.3875
G1 X-30.96 Y-19.68 E92.9465
G1 X-30.96 Y-19.11 E92.9651
G1 X-18.85 Y-7.00 E93.5239
G1 X-18.85 Y-6.43 E93.5425
G1 X-30.96 Y-18.55 E94.1015
G1 X-30.96 Y-17.98 E94.1201
G1 X-18.85 Y-5.87 E94.6789
G1 X-18.85 Y-5.30 E94.6975
G1 X-30.96 Y-17.41 E95.2563
G1 X-30.96 Y-16.85 E95.2746
G1 X-18.85 Y-4.73 E95.8336
G1 X-18.85 Y-4.17 E95.8519
G1 X-30.96 Y-16.28 E96.4107
G1 X-30.96 Y-15.72 E96.4290
G1 X-18.85 Y-3.60 E96.9880
G1 X-18.85 Y-3.04 E97.0063
G1 X-30.96 Y-15.15 E97.5651
G1 X-30.96 Y-14.59 E97.5833
G1 X-18.85 Y-2.47 E98.1424
G1 X-18.85 Y-1.91 E98.1606
G1 X-30.96 Y-14.02 E98.7194
G1 X-30.96 Y-13.45 E98.7380
G1 X-18.85 Y-1.34 E99.2968
G1 X-18.85 Y-.77 E99.3154
G1 X-30.96 Y-12.89 E99.8745
G1 X-30.96 Y-12.32 E99.8931
G1 X-18.85 Y-.21 E100.4519
G1 X-18.85 Y.36 E100.4705
G1 X-30.96 Y-11.76 E101.0295
G1 X-30.96 Y-11.19 E101.0481
G1 X-18.85 Y.92 E101.6069
G1 X-18.85 Y1.49 E101.6255
G1 X-30.96 Y-10.63 E102.1845
G1 X-30.96 Y-10.06 E102.2031
G1 X-18.85 Y2.05 E102.7619
G1 X-18.85 Y2.62 E102.7805
G1 X-30.96 Y-9.49 E103.3393
G1 X-30.96 Y-8.93 E103.3576
G1 X-18.85 Y3.18 E103.9164
G1 X-18.85 Y3.75 E103.9350
G1 X-30.96 Y-8.36 E104.4938
G1 X-30.96 Y-7.80 E104.5120
G1 X-18.85 Y4.32 E105.0711
G1 X-18.85 Y4.88 E105.0893
G1 X-30.96 Y-7.23 E105.6481
G1 X-30.96 Y-6.67 E105.6664
G1 X-18.85 Y5.45 E106.2254
G1 X-18.85 Y5.67 E106.2326
G1 X-19.02 Y5.84 E106.2405
G1 X-30.96 Y-6.10 E106.7914
G1 X-30.96 Y-5.53 E106.8100
G1 X-19.31 Y6.12 E107.3476
G1 X-19.59 Y6.41 E107.3607
G1 X-30.96 Y-4.97 E107.8856
G1 X-30.96 Y-4.40 E107.9042
G1 X-19.87 Y6.69 E108.4160
G1 X-20.16 Y6.97 E108.4291
G1 X-30.96 Y-3.84 E108.9277
G1 X-30.96 Y-3.27 E108.9463
G1 X-20.44 Y7.25 E109.4317
G1 X-20.72 Y7.54 E109.4449
G1 X-30.96 Y-2.71 E109.9176
G1 X-30.96 Y-2.14 E109.9362
G1 X-12.19 Y16.64 E110.8025
