;generated by ffslicer 1.3.0 10/11/16 20:21:57
;start gcode
M118 X39.67 Y27.00 Z2.01 T0
M140 S0
M104 S220 T0
M104 S0 T1
M107
G90
G28
M132 X Y Z A B
G1 Z50.00 F600
G161 X Y F3300
M6 T0
M907 X100 Y100 Z40 A80 B20
;preExtrude: 0.20
G1 Z.20 F400
M108 T0
;preExtruder0
G1 X26.40 Y-26.73 F6000
G1 X29.21 Y-25.88 E.4257 F1200
G1 X31.82 Y-24.49 E.8545
G1 X34.09 Y-22.62 E1.2810
G1 X35.96 Y-20.35 E1.7075
G1 X37.35 Y-17.75 E2.1351
G1 X38.21 Y-14.93 E2.5626
G1 X38.46 Y-12.38 E2.9342
G1 X39.67 Y10.11 E6.2002
G1 X39.40 Y12.93 E6.6111
G1 X38.54 Y15.75 E7.0386
G1 X37.15 Y18.35 E7.4661
G1 X35.28 Y20.62 E7.8926
G1 X33.01 Y22.49 E8.3191
G1 X30.41 Y23.88 E8.7467
G1 X27.59 Y24.74 E9.1742
G1 X25.10 Y24.98 E9.5369
G1 X-.43 Y27.00 E13.2507
G1 X-24.87 Y27.00 E16.7949
G1 X-27.56 Y26.74 E17.1868
G1 X-28.97 Y26.31 E17.4005
;raft
;layer:0.20
G1 Z.20 F400
;shell
M106
G1 E16.1005 F1800
G1 X-30.29 Y12.00 F4200
G1 E17.4005 F1800
G1 X-30.29 Y12.00 F4200
G1 X-30.09 Y12.98 E17.4368 F1200
G1 X-29.90 Y13.96 E17.4730
G1 X-29.83 Y14.30 E17.4856
G1 X-29.47 Y14.84 E17.5091
G1 X-28.91 Y15.68 E17.5457
G1 X-28.52 Y16.26 E17.5710
G1 X-28.27 Y16.42 E17.5818
G1 X-26.57 Y17.57 E17.6562
G1 X-24.26 Y18.03 E17.7416
G1 X-21.96 Y17.57 E17.8266
G1 X-20.00 Y16.26 E17.9121
G1 X-18.69 Y14.30 E17.9976
G1 X-18.24 Y12.00 E18.0825
G1 X-18.69 Y9.70 E18.1675
G1 X-20.00 Y7.74 E18.2530
G1 X-21.96 Y6.43 E18.3384
G1 X-24.26 Y5.98 E18.4234
G1 X-26.57 Y6.43 E18.5087
G1 X-28.52 Y7.74 E18.5939
G1 X-29.83 Y9.70 E18.6794
G1 X-30.29 Y12.00 E18.7644
G1 E17.4644 F1800
G1 X-29.88 Y12.00 F4200
G1 E18.7644 F1800
G1 X-29.88 Y12.00 F4200
G1 X-29.45 Y14.15 E18.8439 F1200
G1 X-28.23 Y15.97 E18.9233
G1 X-26.41 Y17.19 E19.0027
G1 X-24.26 Y17.62 E19.0822
G1 X-22.11 Y17.19 E19.1617
G1 X-20.29 Y15.97 E19.2412
G1 X-19.07 Y14.15 E19.3206
G1 X-18.65 Y12.00 E19.4000
G1 X-19.07 Y9.85 E19.4794
G1 X-20.29 Y8.03 E19.5589
G1 X-22.11 Y6.81 E19.6383
G1 X-22.95 Y6.64 E19.6694
G1 X-24.26 Y6.38 E19.7178
G1 X-24.91 Y6.51 E19.7418
G1 X-26.41 Y6.81 E19.7973
G1 X-26.80 Y7.07 E19.8143
G1 X-28.23 Y8.03 E19.8767
G1 X-28.39 Y8.26 E19.8869
G1 X-29.45 Y9.85 E19.9561
G1 X-29.47 Y9.94 E19.9595
G1 X-29.86 Y11.90 E20.0319 F720
G1 X-29.47 Y12.00 E20.0319 F300
G1 X-29.07 Y13.99 E20.1055 F1200
G1 X-27.94 Y15.68 E20.1792
G1 X-26.25 Y16.81 E20.2529
G1 X-24.26 Y17.21 E20.3265
G1 X-22.27 Y16.81 E20.4001
G1 X-20.58 Y15.68 E20.4738
G1 X-19.45 Y13.99 E20.5475
G1 X-19.05 Y12.00 E20.6211
G1 X-19.45 Y10.01 E20.6947
G1 X-20.58 Y8.32 E20.7684
G1 X-22.27 Y7.19 E20.8421
G1 X-24.26 Y6.79 E20.9157
G1 X-26.25 Y7.19 E20.9893
G1 X-27.94 Y8.32 E21.0630
G1 X-29.07 Y10.01 E21.1367
G1 X-29.45 Y11.90 E21.2066
G1 X-29.86 Y11.90 E21.2115 F300
G1 E19.9115 F1800
G1 X-33.63 Y12.00 F4200
G1 E21.2115 F1800
G1 X-33.63 Y12.00 F4200
G1 X-33.53 Y11.00 E21.2479 F1200
G1 X-33.45 Y10.25 E21.2753
G1 X-33.38 Y10.02 E21.2840
G1 X-33.09 Y9.06 E21.3204
G1 X-32.94 Y8.55 E21.3396
G1 X-32.72 Y8.14 E21.3565
G1 X-32.25 Y7.26 E21.3927
G1 X-32.11 Y7.01 E21.4031
G1 X-30.99 Y5.64 E21.4672
G1 X-29.62 Y4.52 E21.5314
G1 X-28.08 Y3.69 E21.5948
G1 X-26.38 Y3.18 E21.6591
G1 X-24.63 Y3.00 E21.7229
G1 X-22.88 Y3.18 E21.7867
G1 X-21.18 Y3.69 E21.8510
G1 X-19.63 Y4.52 E21.9148
G1 X-18.27 Y5.64 E21.9786
G1 X-17.15 Y7.00 E22.0425
G1 X-16.32 Y8.55 E22.1063
G1 X-15.80 Y10.25 E22.1707
G1 X-15.63 Y12.00 E22.2345
G1 X-15.80 Y13.75 E22.2982
G1 X-16.32 Y15.45 E22.3626
G1 X-17.15 Y17.00 E22.4264
G1 X-18.27 Y18.36 E22.4903
G1 X-19.63 Y19.48 E22.5541
G1 X-21.18 Y20.31 E22.6179
G1 X-22.88 Y20.82 E22.6822
G1 X-24.63 Y21.00 E22.7460
G1 X-26.38 Y20.82 E22.8098
G1 X-28.08 Y20.31 E22.8741
G1 X-29.62 Y19.48 E22.9375
G1 X-30.99 Y18.36 E23.0017
G1 X-32.11 Y17.00 E23.0656
G1 X-32.94 Y15.45 E23.1293
G1 X-33.45 Y13.75 E23.1937
G1 X-33.63 Y12.00 E23.2574
G1 E21.9574 F1800
G1 X-34.03 Y12.00 F4200
G1 E23.2574 F1800
G1 X-34.03 Y12.00 F4200
G1 X-33.85 Y10.17 E23.3241 F1200
G1 X-33.31 Y8.40 E23.3912
G1 X-32.44 Y6.78 E23.4579
G1 X-31.27 Y5.36 E23.5246
G1 X-29.85 Y4.19 E23.5913
G1 X-28.23 Y3.32 E23.6579
G1 X-26.46 Y2.78 E23.7250
G1 X-24.63 Y2.60 E23.7917
G1 X-22.80 Y2.78 E23.8583
G1 X-21.03 Y3.32 E23.9254
G1 X-19.41 Y4.19 E23.9921
G1 X-17.98 Y5.36 E24.0591
G1 X-16.81 Y6.78 E24.1258
G1 X-15.95 Y8.40 E24.1923
G1 X-15.41 Y10.17 E24.2594
G1 X-15.23 Y12.00 E24.3260
G1 X-15.41 Y13.83 E24.3927
G1 X-15.95 Y15.60 E24.4598
G1 X-16.81 Y17.22 E24.5263
G1 X-17.98 Y18.64 E24.5930
G1 X-19.41 Y19.82 E24.6602
G1 X-21.03 Y20.68 E24.7267
G1 X-22.80 Y21.22 E24.7938
G1 X-24.63 Y21.40 E24.8604
G1 X-26.46 Y21.22 E24.9271
G1 X-28.23 Y20.68 E24.9942
G1 X-29.07 Y20.23 E25.0287
G1 X-29.85 Y19.82 E25.0607
G1 X-30.71 Y19.11 E25.1011
G1 X-31.27 Y18.64 E25.1276
G1 X-32.08 Y17.66 E25.1737
G1 X-32.44 Y17.22 E25.1943
G1 X-33.11 Y15.96 E25.2461
G1 X-33.31 Y15.60 E25.2610
G1 X-33.77 Y14.08 E25.3186
G1 X-33.85 Y13.83 E25.3281 F720
G1 X-34.02 Y12.10 E25.3911
G1 X-34.43 Y12.00 E25.3911 F300
G1 X-34.24 Y10.09 E25.4607 F1200
G1 X-33.68 Y8.25 E25.5304
G1 X-32.78 Y6.56 E25.5998
G1 X-31.56 Y5.07 E25.6696
G1 X-30.07 Y3.85 E25.7395
G1 X-28.38 Y2.95 E25.8089
G1 X-26.54 Y2.39 E25.8786
G1 X-24.63 Y2.20 E25.9482
G1 X-22.71 Y2.39 E26.0181
G1 X-20.88 Y2.95 E26.0875
G1 X-19.18 Y3.85 E26.1572
G1 X-17.70 Y5.07 E26.2268
G1 X-16.48 Y6.56 E26.2966
G1 X-15.57 Y8.25 E26.3662
G1 X-15.02 Y10.09 E26.4358
G1 X-14.83 Y12.00 E26.5054
G1 X-15.02 Y13.91 E26.5750
G1 X-15.57 Y15.75 E26.6446
G1 X-16.48 Y17.45 E26.7145
G1 X-17.70 Y18.93 E26.7840
G1 X-19.18 Y20.15 E26.8536
G1 X-20.88 Y21.05 E26.9233
G1 X-22.71 Y21.61 E26.9927
G1 X-24.63 Y21.80 E27.0626
G1 X-26.54 Y21.61 E27.1322
G1 X-28.38 Y21.05 E27.2020
G1 X-30.07 Y20.15 E27.2714
G1 X-31.56 Y18.93 E27.3412
G1 X-32.78 Y17.45 E27.4107
G1 X-33.68 Y15.75 E27.4804
G1 X-34.24 Y13.91 E27.5502
G1 X-34.42 Y12.10 E27.6161
G1 X-34.02 Y12.10 E27.6209 F300
;shell
G1 E26.3209 F1800
G1 X-30.67 Y-12.00 F4200
G1 E27.6209 F1800
G1 X-30.67 Y-12.00 F4200
G1 X-30.47 Y-11.02 E27.6572 F1200
G1 X-30.28 Y-10.04 E27.6934
G1 X-30.21 Y-9.70 E27.7060
G1 X-29.85 Y-9.15 E27.7298
G1 X-29.29 Y-8.32 E27.7661
G1 X-28.90 Y-7.74 E27.7914
G1 X-28.65 Y-7.57 E27.8024
G1 X-26.95 Y-6.43 E27.8766
G1 X-24.64 Y-5.97 E27.9620
G1 X-22.34 Y-6.43 E28.0470
G1 X-20.38 Y-7.74 E28.1325
G1 X-19.08 Y-9.70 E28.2178
G1 X-18.62 Y-12.00 E28.3028
G1 X-19.08 Y-14.30 E28.3878
G1 X-20.38 Y-16.26 E28.4731
G1 X-22.34 Y-17.57 E28.5586
G1 X-24.64 Y-18.02 E28.6435
G1 X-26.95 Y-17.57 E28.7289
G1 X-28.90 Y-16.26 E28.8140
G1 X-30.21 Y-14.30 E28.8995
G1 X-30.67 Y-12.00 E28.9845
G1 E27.6845 F1800
G1 X-30.26 Y-12.00 F4200
G1 E28.9845 F1800
G1 X-30.26 Y-12.00 F4200
G1 X-29.83 Y-9.85 E29.0640 F1200
G1 X-28.61 Y-8.03 E29.1434
G1 X-26.79 Y-6.81 E29.2229
G1 X-24.64 Y-6.38 E29.3024
G1 X-22.49 Y-6.81 E29.3819
G1 X-20.67 Y-8.03 E29.4613
G1 X-19.45 Y-9.85 E29.5407
G1 X-19.03 Y-12.00 E29.6201
G1 X-19.45 Y-14.15 E29.6996
G1 X-20.67 Y-15.97 E29.7790
G1 X-22.49 Y-17.19 E29.8584
G1 X-23.33 Y-17.35 E29.8894
G1 X-24.64 Y-17.62 E29.9379
G1 X-25.29 Y-17.49 E29.9619
G1 X-26.79 Y-17.19 E30.0174
G1 X-27.18 Y-16.92 E30.0346
G1 X-28.61 Y-15.97 E30.0968
G1 X-28.77 Y-15.74 E30.1070
G1 X-29.83 Y-14.15 E30.1763
G1 X-29.85 Y-14.06 E30.1796
G1 X-30.24 Y-12.10 E30.2521 F720
G1 X-29.85 Y-12.00 E30.2521 F300
G1 X-29.45 Y-10.01 E30.3257 F1200
G1 X-28.32 Y-8.32 E30.3994
G1 X-26.63 Y-7.19 E30.4731
G1 X-24.64 Y-6.79 E30.5467
G1 X-22.65 Y-7.19 E30.6202
G1 X-20.96 Y-8.32 E30.6939
G1 X-19.83 Y-10.01 E30.7676
G1 X-19.44 Y-12.00 E30.8412
G1 X-19.83 Y-13.99 E30.9147
G1 X-20.96 Y-15.68 E30.9884
G1 X-22.65 Y-16.81 E31.0621
G1 X-24.64 Y-17.21 E31.1357
G1 X-26.63 Y-16.81 E31.2093
G1 X-28.32 Y-15.68 E31.2830
G1 X-29.45 Y-13.99 E31.3567
G1 X-29.83 Y-12.10 E31.4266
G1 X-30.24 Y-12.10 E31.4315 F300
G1 E30.1315 F1800
G1 X-34.01 Y-12.00 F4200
G1 E31.4315 F1800
G1 X-34.01 Y-12.00 F4200
G1 X-33.91 Y-12.99 E31.4676 F1200
G1 X-33.83 Y-13.75 E31.4953
G1 X-33.76 Y-13.98 E31.5040
G1 X-33.47 Y-14.94 E31.5404
G1 X-33.32 Y-15.45 E31.5596
G1 X-33.10 Y-15.86 E31.5765
G1 X-32.63 Y-16.74 E31.6127
G1 X-32.49 Y-16.99 E31.6231
G1 X-31.37 Y-18.36 E31.6872
G1 X-30.00 Y-19.48 E31.7514
G1 X-28.46 Y-20.31 E31.8148
G1 X-26.76 Y-20.82 E31.8791
G1 X-25.01 Y-21.00 E31.9429
G1 X-23.26 Y-20.82 E32.0067
G1 X-21.56 Y-20.31 E32.0710
G1 X-20.01 Y-19.48 E32.1348
G1 X-18.65 Y-18.36 E32.1986
G1 X-17.53 Y-17.00 E32.2625
G1 X-16.70 Y-15.45 E32.3263
G1 X-16.18 Y-13.75 E32.3907
G1 X-16.01 Y-12.00 E32.4545
G1 X-16.18 Y-10.25 E32.5182
G1 X-16.70 Y-8.55 E32.5826
G1 X-17.53 Y-7.00 E32.6464
G1 X-18.65 Y-5.64 E32.7103
G1 X-20.01 Y-4.52 E32.7741
G1 X-21.56 Y-3.69 E32.8379
G1 X-23.26 Y-3.18 E32.9022
G1 X-25.01 Y-3.00 E32.9660
G1 X-26.76 Y-3.17 E33.0297
G1 X-28.46 Y-3.69 E33.0942
G1 X-30.00 Y-4.52 E33.1576
G1 X-31.37 Y-5.64 E33.2218
G1 X-32.49 Y-7.00 E33.2856
G1 X-33.32 Y-8.55 E33.3494
G1 X-33.83 Y-10.25 E33.4137
G1 X-34.01 Y-12.00 E33.4775
G1 E32.1775 F1800
G1 X-34.41 Y-12.00 F4200
G1 E33.4775 F1800
G1 X-34.41 Y-12.00 F4200
G1 X-34.23 Y-13.83 E33.5442 F1200
G1 X-33.69 Y-15.60 E33.6112
G1 X-32.83 Y-17.22 E33.6777
G1 X-31.65 Y-18.64 E33.7447
G1 X-30.23 Y-19.81 E33.8114
G1 X-28.61 Y-20.68 E33.8780
G1 X-26.84 Y-21.22 E33.9451
G1 X-25.01 Y-21.40 E34.0118
G1 X-23.18 Y-21.22 E34.0785
G1 X-21.41 Y-20.68 E34.1455
G1 X-19.79 Y-19.81 E34.2122
G1 X-18.36 Y-18.64 E34.2792
G1 X-17.19 Y-17.22 E34.3459
G1 X-16.33 Y-15.60 E34.4124
G1 X-15.79 Y-13.83 E34.4795
G1 X-15.61 Y-12.00 E34.5461
G1 X-15.79 Y-10.17 E34.6128
G1 X-16.33 Y-8.40 E34.6799
G1 X-17.19 Y-6.78 E34.7464
G1 X-18.36 Y-5.36 E34.8131
G1 X-19.79 Y-4.18 E34.8803
G1 X-21.41 Y-3.32 E34.9468
G1 X-23.18 Y-2.78 E35.0139
G1 X-25.01 Y-2.60 E35.0806
G1 X-26.84 Y-2.78 E35.1472
G1 X-28.61 Y-3.32 E35.2143
G1 X-29.45 Y-3.77 E35.2489
G1 X-30.23 Y-4.18 E35.2808
G1 X-31.09 Y-4.89 E35.3212
G1 X-31.65 Y-5.36 E35.3477
G1 X-32.46 Y-6.33 E35.3936
G1 X-32.83 Y-6.78 E35.4147
G1 X-33.49 Y-8.03 E35.4659
G1 X-33.69 Y-8.40 E35.4812
G1 X-34.15 Y-9.91 E35.5384
G1 X-34.23 Y-10.17 E35.5483 F720
G1 X-34.40 Y-11.89 E35.6109
G1 X-34.81 Y-12.00 E35.6109 F300
G1 X-34.62 Y-13.91 E35.6805 F1200
G1 X-34.06 Y-15.75 E35.7502
G1 X-33.16 Y-17.44 E35.8196
G1 X-31.94 Y-18.93 E35.8895
G1 X-30.45 Y-20.15 E35.9593
G1 X-28.76 Y-21.05 E36.0287
G1 X-26.92 Y-21.61 E36.0984
G1 X-25.01 Y-21.80 E36.1680
G1 X-23.10 Y-21.61 E36.2376
G1 X-21.26 Y-21.05 E36.3073
G1 X-19.56 Y-20.15 E36.3771
G1 X-18.08 Y-18.93 E36.4466
G1 X-16.86 Y-17.44 E36.5164
G1 X-15.95 Y-15.75 E36.5860
G1 X-15.40 Y-13.91 E36.6556
G1 X-15.21 Y-12.00 E36.7252
G1 X-15.40 Y-10.09 E36.7948
G1 X-15.95 Y-8.25 E36.8644
G1 X-16.86 Y-6.55 E36.9343
G1 X-18.08 Y-5.07 E37.0038
G1 X-19.56 Y-3.85 E37.0734
G1 X-21.26 Y-2.95 E37.1431
G1 X-23.10 Y-2.39 E37.2128
G1 X-25.01 Y-2.20 E37.2824
G1 X-26.92 Y-2.39 E37.3520
G1 X-28.76 Y-2.95 E37.4217
G1 X-30.45 Y-3.85 E37.4912
G1 X-31.94 Y-5.07 E37.5610
G1 X-33.16 Y-6.55 E37.6305
G1 X-34.06 Y-8.25 E37.7002
G1 X-34.62 Y-10.09 E37.7700
G1 X-34.80 Y-11.90 E37.8359
G1 X-34.40 Y-11.90 E37.8407 F300
;shell
G1 E36.5407 F1800
G1 X-4.29 Y-12.00 F4200
G1 E37.8407 F1800
G1 X-4.29 Y-12.00 F4200
G1 X-4.09 Y-11.02 E37.8770 F1200
G1 X-3.98 Y-10.46 E37.8977
G1 X-3.74 Y-10.10 E37.9134
G1 X-3.18 Y-9.27 E37.9497
G1 X-3.10 Y-9.16 E37.9546
G1 X-2.39 Y-8.68 E37.9857
G1 X-1.80 Y-8.28 E38.0115
G1 X-1.52 Y-8.22 E38.0219
G1 X-.26 Y-7.97 E38.0685
G1 X1.28 Y-8.28 E38.1254
G1 X2.58 Y-9.16 E38.1823
G1 X3.46 Y-10.46 E38.2392
G1 X3.76 Y-12.00 E38.2961
G1 X3.44 Y-13.56 E38.3539
G1 X2.58 Y-14.84 E38.4098
G1 X1.28 Y-15.71 E38.4665
G1 X-.26 Y-16.02 E38.5234
G1 X-1.80 Y-15.72 E38.5803
G1 X-3.10 Y-14.84 E38.6372
G1 X-3.98 Y-13.54 E38.6941
G1 X-4.29 Y-12.00 E38.7511
G1 E37.4511 F1800
G1 X-3.88 Y-12.00 F4200
G1 E38.7511 F1800
G1 X-3.88 Y-12.00 F4200
G1 X-3.60 Y-10.62 E38.8021 F1200
G1 X-2.82 Y-9.44 E38.8534
G1 X-1.64 Y-8.66 E38.9047
G1 X-.26 Y-8.38 E38.9557
G1 X1.12 Y-8.66 E39.0068
G1 X2.29 Y-9.44 E39.0578
G1 X3.08 Y-10.62 E39.1093
G1 X3.35 Y-12.00 E39.1602
G1 X3.12 Y-13.16 E39.2031
G1 X3.07 Y-13.40 E39.2120
G1 X2.29 Y-14.55 E39.2624
G1 X1.99 Y-14.75 E39.2754
G1 X1.12 Y-15.34 E39.3135
G1 X.19 Y-15.52 E39.3479
G1 X-.26 Y-15.62 E39.3646
G1 X-1.64 Y-15.34 E39.4156
G1 X-1.75 Y-15.27 E39.4204
G1 X-2.82 Y-14.55 E39.4671
G1 X-3.21 Y-13.96 E39.4928
G1 X-3.60 Y-13.38 E39.5181 F720
G1 X-3.86 Y-12.10 E39.5655
G1 X-3.47 Y-12.00 E39.5655 F300
G1 X-3.22 Y-10.77 E39.6110 F1200
G1 X-2.53 Y-9.73 E39.6562
G1 X-1.49 Y-9.04 E39.7015
G1 X-.26 Y-8.79 E39.7470
G1 X.96 Y-9.04 E39.7921
G1 X2.01 Y-9.73 E39.8377
G1 X2.70 Y-10.77 E39.8829
G1 X2.95 Y-12.00 E39.9284
G1 X2.69 Y-13.24 E39.9743
G1 X2.01 Y-14.27 E40.0191
G1 X.96 Y-14.96 E40.0646
G1 X-.26 Y-15.21 E40.1098
G1 X-1.49 Y-14.96 E40.1553
G1 X-2.53 Y-14.27 E40.2005
G1 X-3.22 Y-13.23 E40.2458
G1 X-3.45 Y-12.10 E40.2876
G1 X-3.86 Y-12.10 E40.2925 F300
G1 E38.9925 F1800
G1 X-9.82 Y-12.00 F4200
G1 E40.2925 F1800
G1 X-9.82 Y-12.00 F4200
G1 X-9.72 Y-13.00 E40.3290 F1200
G1 X-9.65 Y-13.75 E40.3563
G1 X-9.57 Y-13.98 E40.3651
G1 X-9.28 Y-14.94 E40.4015
G1 X-9.13 Y-15.45 E40.4207
G1 X-8.91 Y-15.86 E40.4376
G1 X-8.44 Y-16.74 E40.4738
G1 X-8.30 Y-16.99 E40.4841
G1 X-7.18 Y-18.36 E40.5483
G1 X-5.81 Y-19.48 E40.6125
G1 X-4.27 Y-20.31 E40.6759
G1 X-2.57 Y-20.82 E40.7402
G1 X-.82 Y-21.00 E40.8040
G1 X.93 Y-20.82 E40.8678
G1 X2.63 Y-20.31 E40.9321
G1 X4.18 Y-19.48 E40.9959
G1 X5.54 Y-18.36 E41.0597
G1 X6.66 Y-17.00 E41.1236
G1 X7.49 Y-15.45 E41.1873
G1 X8.01 Y-13.75 E41.2518
G1 X8.18 Y-12.00 E41.3155
G1 X8.01 Y-10.25 E41.3793
G1 X7.49 Y-8.55 E41.4437
G1 X6.66 Y-7.00 E41.5075
G1 X5.54 Y-5.64 E41.5713
G1 X4.18 Y-4.52 E41.6352
G1 X2.63 Y-3.69 E41.6989
G1 X.93 Y-3.18 E41.7633
G1 X-.82 Y-3.00 E41.8271
G1 X-2.57 Y-3.17 E41.8908
G1 X-4.27 Y-3.69 E41.9553
G1 X-5.81 Y-4.52 E42.0187
G1 X-7.18 Y-5.64 E42.0828
G1 X-8.30 Y-7.00 E42.1467
G1 X-9.13 Y-8.55 E42.2105
G1 X-9.65 Y-10.25 E42.2749
G1 X-9.82 Y-12.00 E42.3386
G1 E41.0386 F1800
G1 X-10.22 Y-12.00 F4200
G1 E42.3386 F1800
G1 X-10.22 Y-12.00 F4200
G1 X-10.04 Y-13.83 E42.4053 F1200
G1 X-9.50 Y-15.60 E42.4724
G1 X-8.64 Y-17.22 E42.5389
G1 X-7.46 Y-18.64 E42.6058
G1 X-6.04 Y-19.81 E42.6725
G1 X-4.42 Y-20.68 E42.7392
G1 X-2.65 Y-21.22 E42.8063
G1 X-.82 Y-21.40 E42.8729
G1 X1.01 Y-21.22 E42.9396
G1 X2.78 Y-20.68 E43.0067
G1 X4.40 Y-19.81 E43.0734
G1 X5.83 Y-18.64 E43.1403
G1 X7.00 Y-17.22 E43.2070
G1 X7.86 Y-15.60 E43.2735
G1 X8.40 Y-13.83 E43.3406
G1 X8.58 Y-12.00 E43.4073
G1 X8.40 Y-10.17 E43.4740
G1 X7.86 Y-8.40 E43.5410
G1 X7.00 Y-6.78 E43.6075
G1 X5.83 Y-5.36 E43.6742
G1 X4.40 Y-4.18 E43.7415
G1 X2.78 Y-3.32 E43.8080
G1 X1.01 Y-2.78 E43.8750
G1 X-.82 Y-2.60 E43.9417
G1 X-2.65 Y-2.78 E44.0084
G1 X-4.42 Y-3.32 E44.0755
G1 X-5.26 Y-3.77 E44.1100
G1 X-6.04 Y-4.18 E44.1420
G1 X-6.90 Y-4.89 E44.1824
G1 X-7.46 Y-5.36 E44.2089
G1 X-8.27 Y-6.33 E44.2547
G1 X-8.64 Y-6.78 E44.2758
G1 X-9.31 Y-8.03 E44.3272
G1 X-9.50 Y-8.40 E44.3423
G1 X-9.96 Y-9.92 E44.3999
G1 X-10.04 Y-10.17 E44.4094 F720
G1 X-10.21 Y-11.90 E44.4724
G1 X-10.62 Y-12.00 E44.4724 F300
G1 X-10.43 Y-13.91 E44.5420 F1200
G1 X-9.87 Y-15.75 E44.6117
G1 X-8.97 Y-17.44 E44.6812
G1 X-7.75 Y-18.93 E44.7510
G1 X-6.26 Y-20.15 E44.8208
G1 X-4.57 Y-21.05 E44.8902
G1 X-2.73 Y-21.61 E44.9599
G1 X-.82 Y-21.80 E45.0295
G1 X1.10 Y-21.61 E45.0995
G1 X2.93 Y-21.05 E45.1688
G1 X4.63 Y-20.15 E45.2386
G1 X6.11 Y-18.93 E45.3081
G1 X7.33 Y-17.44 E45.3779
G1 X8.24 Y-15.75 E45.4475
G1 X8.79 Y-13.91 E45.5171
G1 X8.98 Y-12.00 E45.5867
G1 X8.79 Y-10.09 E45.6563
G1 X8.24 Y-8.25 E45.7259
G1 X7.33 Y-6.55 E45.7958
G1 X6.11 Y-5.07 E45.8654
G1 X4.63 Y-3.85 E45.9349
G1 X2.93 Y-2.95 E46.0046
G1 X1.10 Y-2.39 E46.0740
G1 X-.82 Y-2.20 E46.1440
G1 X-2.73 Y-2.39 E46.2135
G1 X-4.57 Y-2.95 E46.2833
G1 X-6.26 Y-3.85 E46.3527
G1 X-7.75 Y-5.07 E46.4225
G1 X-8.97 Y-6.55 E46.4920
G1 X-9.87 Y-8.25 E46.5618
G1 X-10.43 Y-10.09 E46.6315
G1 X-10.61 Y-11.90 E46.6974
G1 X-10.21 Y-11.90 E46.7023 F300
;shell
G1 E45.4023 F1800
G1 X-4.29 Y12.00 F4200
G1 E46.7023 F1800
G1 X-4.29 Y12.00 F4200
G1 X-4.09 Y12.98 E46.7385 F1200
G1 X-3.98 Y13.54 E46.7592
G1 X-3.74 Y13.90 E46.7749
G1 X-3.18 Y14.73 E46.8112
G1 X-3.10 Y14.84 E46.8161
G1 X-2.39 Y15.32 E46.8472
G1 X-1.80 Y15.72 E46.8730
G1 X-1.52 Y15.78 E46.8834
G1 X-.26 Y16.03 E46.9300
G1 X1.28 Y15.72 E46.9869
G1 X2.58 Y14.84 E47.0439
G1 X3.46 Y13.54 E47.1008
