;generated by ffslicer 1.3.0 10/11/16 18:51:13
;start gcode
M118 X29.80 Y47.80 Z15.00 T0
M140 S0
M104 S225 T0
M104 S0 T1
M107
G90
G28
M132 X Y Z A B
G1 Z50.00 F600
G161 X Y F3300
M6 T0
M907 X100 Y100 Z40 A80 B20
;preExtrude: 0.20
G1 Z.20 F400
M108 T0
;preExtruder0
G1 X25.80 Y8.80 F7200
G1 X-29.80 Y8.80 E8.0628 F1200
G1 X-29.80 Y-47.80 E16.2706
G1 X-22.00 Y-47.80 E17.4017
;raft
;layer:0.40
G1 Z.40 F400
;support-start
;raft
G1 X-4.34 Y-35.00 F4200
G1 X.12 Y-35.00 E19.0186 F600
G1 X.12 Y-46.00 E23.0065
G1 X24.00 Y-46.00 E31.6639
G1 X24.00 Y7.00 E50.8782
G1 X-28.00 Y7.00 E69.7301
G1 X-28.00 Y-46.00 E88.9445
G1 X-4.34 Y-46.00 E97.5221
G1 X-4.34 Y-35.00 E101.5099
G1 X-11.63 Y-10.32 F4200
G1 X-10.56 Y-9.25 E102.0585 F600
G1 X-8.97 Y-11.92 E103.1851
G1 X-11.63 Y-10.32 E104.3105
G1 X-6.02 Y-21.77 F4200
G1 X-6.77 Y-18.03 E105.6934 F600
G1 X-5.86 Y-15.03 E106.8299
G1 X-.91 Y-14.12 E108.6545
G1 X2.72 Y-17.09 E110.3549
G1 X2.25 Y-21.78 E112.0637
G1 X-1.90 Y-23.98 E113.7666
G1 X-6.02 Y-21.77 E115.4615
G1 X-8.69 Y-45.00 F4200
G1 X-5.34 Y-41.64 E117.1816 F600
G1 X-5.34 Y-35.99 E119.2300
G1 X-14.35 Y-45.00 E123.8494
G1 X-20.01 Y-45.00 E125.9014
G1 X1.89 Y-23.10 E137.1296
G1 X-1.90 Y-25.11 E138.6849
G1 X-4.42 Y-23.76 E139.7213
G1 X-25.67 Y-45.00 E150.6137
G1 X-27.00 Y-45.00 E151.0958
G1 X-27.00 Y-40.67 E152.6656
G1 X-7.21 Y-20.89 E162.8094
G1 X-7.80 Y-17.98 E163.8859
G1 X-6.86 Y-14.88 E165.0603
G1 X-27.00 Y-35.02 E175.3861
G1 X-27.00 Y4.58 F4200
G1 X-25.58 Y6.00 E176.1141 F600
G1 X-19.92 Y6.00 E178.1661
G1 X-27.00 Y-1.08 E181.7960
G1 X-27.00 Y-6.73 E183.8443
G1 X-14.26 Y6.00 E190.3736
G1 X-8.61 Y6.00 E192.4219
G1 X-27.00 Y-12.39 E201.8505
G1 X-27.00 Y-18.05 E203.9025
G1 X-2.95 Y6.00 E216.2330
G1 X2.71 Y6.00 E218.2849
G1 X-27.00 Y-23.70 E233.5148
G1 X-27.00 Y-29.36 E235.5667
G1 X-10.06 Y-12.42 E244.2519
G1 X-13.25 Y-10.52 E245.5980
G1 X-10.36 Y-7.63 E247.0797
G1 X-8.46 Y-10.82 E248.4258
G1 X8.36 Y6.00 E257.0494
G1 X14.02 Y6.00 E259.1014
G1 X-6.02 Y-14.04 E269.3759
G1 X-.64 Y-13.05 E271.3591
G1 X.06 Y-13.62 E271.6864
G1 X19.68 Y6.00 E281.7456
G1 X23.00 Y6.00 E282.9492
G1 X23.00 Y3.67 E283.7940
G1 X3.17 Y-16.17 E293.9634
G1 X3.76 Y-16.66 E294.2414
G1 X3.26 Y-21.73 E296.0884
G1 X23.00 Y-1.99 E306.2092
G1 X23.00 Y-7.65 E308.2611
G1 X-3.35 Y-34.00 E321.7708
G1 X1.12 Y-34.00 E323.3914
G1 X1.12 Y-35.18 E323.8191
G1 X23.00 Y-13.30 E335.0371
G1 X23.00 Y-18.96 E337.0890
G1 X1.12 Y-40.84 E348.3070
G1 X1.12 Y-45.00 E349.8151
G1 X2.62 Y-45.00 E350.3589
G1 X23.00 Y-24.62 E360.8078
G1 X23.00 Y-30.27 E362.8561
G1 X8.27 Y-45.00 E370.4082
G1 X13.93 Y-45.00 E372.4601
G1 X23.00 Y-35.93 E377.1104
G1 X23.00 Y-41.59 E379.1623
G1 X19.59 Y-45.00 E380.9106
;percent
;support-end
;layer:0.20
G1 Z.60 F400
;support-start
;raft
M104 S220 T0
G1 X-4.34 Y-35.00 F7200
G1 X.12 Y-35.00 E381.0723 F3600
G1 X.12 Y-46.00 E381.4711
G1 X24.00 Y-46.00 E382.3368
G1 X24.00 Y7.00 E384.2583
G1 X-28.00 Y7.00 E386.1434
G1 X-28.00 Y-46.00 E388.0649
G1 X-4.34 Y-46.00 E388.9227
G1 X-4.34 Y-35.00 E389.3214
G1 X-11.63 Y-10.32 F7200
G1 X-10.56 Y-9.25 E389.3763 F3600
G1 X-8.97 Y-11.92 E389.4889
G1 X-11.63 Y-10.32 E389.6015
G1 X-6.02 Y-21.77 F7200
G1 X-6.77 Y-18.03 E389.7397 F3600
G1 X-5.86 Y-15.03 E389.8534
G1 X-.91 Y-14.12 E390.0359
G1 X2.72 Y-17.09 E390.2059
G1 X2.25 Y-21.78 E390.3768
G1 X-1.90 Y-23.98 E390.5470
G1 X-6.02 Y-21.77 E390.7165
G1 X-1.01 Y-23.73 F7200
G1 X21.06 Y-45.80 E391.8481 F3600
G1 X22.95 Y-45.80 E391.9166
G1 X.23 Y-23.08 E393.0815
G1 X1.46 Y-22.42 E393.1321
G1 X23.80 Y-44.76 E394.2774
G1 X23.80 Y-42.88 E394.3456
G1 X2.47 Y-21.55 E395.4392
G1 X2.64 Y-19.84 E395.5015
G1 X23.80 Y-40.99 E396.5861
G1 X23.80 Y-39.11 E396.6543
G1 X2.81 Y-18.12 E397.7305
G1 X.33 Y-45.80 F7200
G1 X.32 Y-45.80 E397.7308 F3600
G1 X.32 Y-43.91 E397.7994
G1 X2.21 Y-45.80 E397.8963
G1 X4.10 Y-45.80 E397.9648
G1 X.32 Y-42.02 E398.1586
G1 X.32 Y-40.14 E398.2268
G1 X5.98 Y-45.80 E398.5169
G1 X7.87 Y-45.80 E398.5855
G1 X.32 Y-38.25 E398.9726
G1 X.32 Y-36.37 E399.0407
G1 X9.75 Y-45.80 E399.5242
G1 X11.64 Y-45.80 E399.5927
G1 X-27.80 Y-6.36 E401.6148
G1 X-27.80 Y-4.48 E401.6830
G1 X13.52 Y-45.80 E403.8015
G1 X15.41 Y-45.80 E403.8700
G1 X-27.80 Y-2.59 E406.0854
G1 X-27.80 Y-.71 E406.1535
G1 X17.29 Y-45.80 E408.4653
G1 X19.18 Y-45.80 E408.5339
G1 X-3.01 Y-23.61 E409.6716
G1 X-6.19 Y-21.90 E409.8024
G1 X-6.56 Y-20.06 E409.8705
G1 X-27.80 Y1.18 E410.9595
G1 X-27.80 Y3.06 E411.0276
G1 X-6.91 Y-17.82 E412.0984
G1 X-6.47 Y-16.37 E412.1533
G1 X-27.80 Y4.95 E413.2467
G1 X-27.80 Y6.80 E413.3137
G1 X-27.77 Y6.80 E413.3148
G1 X-11.28 Y-9.68 E414.1600
G1 X-11.96 Y-10.36 E414.1949
G1 X-8.94 Y-12.17 E414.3226
G1 X-8.87 Y-12.10 E414.3261
G1 X-6.04 Y-14.93 E414.4712
G1 X-6.01 Y-14.85 E414.4743
G1 X-4.51 Y-14.57 E414.5296
G1 X-25.88 Y6.80 E415.6253
G1 X-23.99 Y6.80 E415.6938
G1 X-2.91 Y-14.28 E416.7746
G1 X-1.32 Y-13.99 E416.8332
G1 X-22.11 Y6.80 E417.8991
G1 X-20.22 Y6.80 E417.9676
G1 X23.80 Y-37.22 E420.2245
G1 X23.80 Y-35.34 E420.2927
G1 X-18.34 Y6.80 E422.4532
G1 X-16.45 Y6.80 E422.5218
G1 X23.80 Y-33.45 E424.5854
G1 X23.80 Y-31.57 E424.6536
G1 X-14.57 Y6.80 E426.6208
G1 X-12.68 Y6.80 E426.6893
G1 X23.80 Y-29.68 E428.5597
G1 X23.80 Y-27.80 E428.6278
G1 X-10.80 Y6.80 E430.4018
G1 X-8.91 Y6.80 E430.4703
G1 X23.80 Y-25.91 E432.1474
G1 X23.80 Y-24.03 E432.2155
G1 X-7.03 Y6.80 E433.7962
G1 X-5.14 Y6.80 E433.8647
G1 X23.80 Y-22.14 E435.3485
G1 X23.80 Y-20.26 E435.4166
G1 X-3.26 Y6.80 E436.8040
G1 X-1.37 Y6.80 E436.8725
G1 X23.80 Y-18.37 E438.1630
G1 X23.80 Y-16.49 E438.2312
G1 X.51 Y6.80 E439.4253
G1 X2.40 Y6.80 E439.4938
G1 X23.80 Y-14.60 E440.5910
G1 X23.80 Y-12.72 E440.6591
G1 X4.28 Y6.80 E441.6599
G1 X6.17 Y6.80 E441.7284
G1 X23.80 Y-10.83 E442.6323
G1 X23.80 Y-8.95 E442.7005
G1 X8.05 Y6.80 E443.5080
G1 X9.94 Y6.80 E443.5765
G1 X23.80 Y-7.06 E444.2871
G1 X23.80 Y-5.18 E444.3553
G1 X11.82 Y6.80 E444.9695
G1 X13.71 Y6.80 E445.0380
G1 X23.80 Y-3.29 E445.5553
G1 X23.80 Y-1.41 E445.6235
G1 X15.59 Y6.80 E446.0444
G1 X17.48 Y6.80 E446.1130
G1 X23.80 Y.48 E446.4370
G1 X23.80 Y2.36 E446.5052
G1 X19.36 Y6.80 E446.7328
G1 X21.25 Y6.80 E446.8013
G1 X23.80 Y4.25 E446.9321
G1 X23.80 Y6.13 E447.0002
G1 X23.13 Y6.80 E447.0346
G1 X-27.80 Y-8.25 F7200
G1 X-1.25 Y-34.79 E448.3955 F3600
G1 X-3.14 Y-34.79 E448.4640
G1 X-27.80 Y-10.13 E449.7284
G1 X-27.80 Y-12.02 E449.7969
G1 X-4.54 Y-35.28 E450.9894
G1 X-4.54 Y-37.16 E451.0576
G1 X-27.80 Y-13.90 E452.2501
G1 X-27.80 Y-15.79 E452.3187
G1 X-4.54 Y-39.05 E453.5112
G1 X-4.54 Y-40.93 E453.5793
G1 X-27.80 Y-17.67 E454.7719
G1 X-27.80 Y-19.56 E454.8404
G1 X-4.54 Y-42.82 E456.0329
G1 X-4.54 Y-44.70 E456.1011
G1 X-27.80 Y-21.44 E457.2936
G1 X-27.80 Y-23.33 E457.3621
G1 X-5.33 Y-45.80 E458.5142
G1 X-7.21 Y-45.80 E458.5823
G1 X-27.80 Y-25.21 E459.6380
G1 X-27.80 Y-27.10 E459.7065
G1 X-9.10 Y-45.80 E460.6653
G1 X-10.98 Y-45.80 E460.7334
G1 X-27.80 Y-28.98 E461.5958
G1 X-27.80 Y-30.87 E461.6643
G1 X-12.87 Y-45.80 E462.4298
G1 X-14.75 Y-45.80 E462.4979
G1 X-27.80 Y-32.75 E463.1670
G1 X-27.80 Y-34.64 E463.2356
G1 X-16.64 Y-45.80 E463.8077
G1 X-18.52 Y-45.80 E463.8759
G1 X-27.80 Y-36.52 E464.3517
G1 X-27.80 Y-38.41 E464.4202
G1 X-20.41 Y-45.80 E464.7991
G1 X-22.29 Y-45.80 E464.8672
G1 X-27.80 Y-40.29 E465.1497
G1 X-27.80 Y-42.18 E465.2183
G1 X-24.18 Y-45.80 E465.4039
G1 X-26.06 Y-45.80 E465.4720
G1 X-27.80 Y-44.06 E465.5612
;percent
;support-end
;layer:0.20
G1 Z.80 F400
;support-start
;raft
G1 X-4.34 Y-35.00 F7200
G1 X.12 Y-35.00 E465.7229 F4800
G1 X.12 Y-46.00 E466.1217
G1 X24.00 Y-46.00 E466.9875
G1 X24.00 Y7.00 E468.9089
G1 X-28.00 Y7.00 E470.7941
G1 X-28.00 Y-46.00 E472.7155
G1 X-4.34 Y-46.00 E473.5733
G1 X-4.34 Y-35.00 E473.9721
G1 X-11.63 Y-10.32 F7200
G1 X-10.56 Y-9.25 E474.0269 F4800
G1 X-8.97 Y-11.92 E474.1396
G1 X-11.63 Y-10.32 E474.2521
G1 X-6.02 Y-21.77 F7200
G1 X-6.77 Y-18.03 E474.3904 F4800
G1 X-5.86 Y-15.03 E474.5040
G1 X-.91 Y-14.12 E474.6865
G1 X2.72 Y-17.09 E474.8565
G1 X2.25 Y-21.78 E475.0274
G1 X-1.90 Y-23.98 E475.1977
G1 X-6.02 Y-21.77 E475.3672
G1 X-4.54 Y-45.57 F7200
G1 X-4.76 Y-45.80 E475.3787 F4800
G1 X-5.36 Y-45.80 E475.4005
G1 X-4.54 Y-44.98 E475.4425
G1 X-4.54 Y-44.38 E475.4643
G1 X-5.95 Y-45.80 E475.5368
G1 X-6.55 Y-45.80 E475.5586
G1 X-4.54 Y-43.79 E475.6616
G1 X-4.54 Y-43.19 E475.6834
G1 X-7.14 Y-45.80 E475.8169
G1 X-7.74 Y-45.80 E475.8387
G1 X-4.54 Y-42.60 E476.0027
G1 X-4.54 Y-42.00 E476.0245
G1 X-8.34 Y-45.80 E476.2193
G1 X-8.93 Y-45.80 E476.2407
G1 X-4.54 Y-41.41 E476.4658
G1 X-4.54 Y-40.81 E476.4875
G1 X-9.53 Y-45.80 E476.7433
G1 X-10.12 Y-45.80 E476.7647
G1 X-4.54 Y-40.22 E477.0508
G1 X-4.54 Y-39.62 E477.0726
G1 X-10.72 Y-45.80 E477.3894
G1 X-11.31 Y-45.80 E477.4108
G1 X-4.54 Y-39.03 E477.7579
G1 X-4.54 Y-38.43 E477.7796
G1 X-11.91 Y-45.80 E478.1575
G1 X-12.50 Y-45.80 E478.1789
G1 X-4.54 Y-37.83 E478.5872
G1 X-4.54 Y-37.24 E478.6086
G1 X-13.10 Y-45.80 E479.0475
G1 X-13.69 Y-45.80 E479.0689
G1 X-4.54 Y-36.64 E479.5382
G1 X-4.54 Y-36.05 E479.5596
G1 X-14.29 Y-45.80 E480.0595
G1 X-14.88 Y-45.80 E480.0809
G1 X-4.54 Y-35.45 E480.6113
G1 X-4.54 Y-34.86 E480.6327
G1 X-15.48 Y-45.80 E481.1936
G1 X-22.03 Y-45.80 F7200
G1 X1.22 Y-22.55 E482.3856 F4800
G1 X-.04 Y-23.22 E482.4373
G1 X-22.62 Y-45.80 E483.5950
G1 X-23.22 Y-45.80 E483.6168
G1 X-1.31 Y-23.89 E484.7401
G1 X-1.90 Y-24.20 E484.7643
G1 X-2.11 Y-24.09 E484.7729
G1 X-23.82 Y-45.80 E485.8859
G1 X-24.41 Y-45.80 E485.9073
G1 X-2.49 Y-23.88 E487.0312
G1 X-2.88 Y-23.68 E487.0470
G1 X-25.01 Y-45.80 E488.1814
G1 X-25.60 Y-45.80 E488.2028
G1 X-3.27 Y-23.47 E489.3476
G1 X-3.66 Y-23.26 E489.3637
G1 X-26.20 Y-45.80 E490.5193
G1 X-26.79 Y-45.80 E490.5407
G1 X-4.05 Y-23.05 E491.7068
G1 X-4.43 Y-22.85 E491.7224
G1 X-27.39 Y-45.80 E492.8993
G1 X-27.80 Y-45.80 E492.9142
G1 X-27.80 Y-45.61 E492.9210
G1 X-4.82 Y-22.64 E494.0990
G1 X-5.21 Y-22.43 E494.1150
G1 X-27.80 Y-45.02 E495.2732
G1 X-27.80 Y-44.42 E495.2950
G1 X-5.60 Y-22.22 E496.4332
G1 X-5.98 Y-22.01 E496.4489
G1 X-27.80 Y-43.83 E497.5677
G1 X-27.80 Y-43.23 E497.5894
G1 X-6.24 Y-21.67 E498.6948
G1 X-6.34 Y-21.18 E498.7129
G1 X-27.80 Y-42.64 E499.8131
G1 X-27.80 Y-42.04 E499.8349
G1 X-6.44 Y-20.68 E500.9300
G1 X-6.54 Y-20.19 E500.9481
G1 X-27.80 Y-41.45 E502.0381
G1 X-27.80 Y-40.85 E502.0599
G1 X-6.64 Y-19.69 E503.1448
G1 X-6.74 Y-19.19 E503.1633
G1 X-27.80 Y-40.26 E504.2433
G1 X-27.80 Y-39.66 E504.2650
G1 X-6.84 Y-18.70 E505.3397
G1 X-6.93 Y-18.20 E505.3581
G1 X-27.80 Y-39.06 E506.4278
G1 X-27.80 Y-38.47 E506.4492
G1 X-6.81 Y-17.48 E507.5253
G1 X-6.55 Y-16.63 E507.5576
G1 X-27.80 Y-37.87 E508.6468
G1 X-27.80 Y-37.28 E508.6682
G1 X-6.29 Y-15.77 E509.7710
G1 X-6.03 Y-14.92 E509.8032
G1 X-27.80 Y-36.68 E510.9191
G1 X-8.83 Y-11.76 F7200
G1 X9.73 Y6.80 E511.8707 F4800
G1 X9.14 Y6.80 E511.8921
G1 X-9.05 Y-11.39 E512.8247
G1 X-9.27 Y-11.01 E512.8405
G1 X8.54 Y6.80 E513.7537
G1 X7.95 Y6.80 E513.7750
G1 X-9.50 Y-10.64 E514.6695
G1 X-9.72 Y-10.27 E514.6851
G1 X7.35 Y6.80 E515.5603
G1 X6.76 Y6.80 E515.5816
G1 X-9.94 Y-9.90 E516.4378
G1 X-10.16 Y-9.52 E516.4538
G1 X6.16 Y6.80 E517.2905
G1 X5.56 Y6.80 E517.3122
G1 X-10.39 Y-9.15 E518.1300
G1 X-27.80 Y6.78 F7200
G1 X-27.78 Y6.80 E518.1310 F4800
G1 X-27.18 Y6.80 E518.1527
G1 X-27.80 Y6.18 E518.1845
G1 X-27.80 Y5.59 E518.2059
G1 X-26.59 Y6.80 E518.2679
G1 X-25.99 Y6.80 E518.2897
G1 X-27.80 Y4.99 E518.3825
G1 X-27.80 Y4.40 E518.4039
G1 X-25.40 Y6.80 E518.5269
G1 X-24.80 Y6.80 E518.5487
G1 X-27.80 Y3.80 E518.7025
G1 X-27.80 Y3.21 E518.7238
G1 X-24.20 Y6.80 E518.9082
G1 X-23.61 Y6.80 E518.9295
G1 X-27.80 Y2.61 E519.1444
G1 X-27.80 Y2.02 E519.1657
G1 X-23.01 Y6.80 E519.4111
G1 X-22.42 Y6.80 E519.4325
G1 X-27.80 Y1.42 E519.7083
G1 X-27.80 Y.83 E519.7297
G1 X-21.82 Y6.80 E520.0360
G1 X-21.23 Y6.80 E520.0574
G1 X-27.80 Y.23 E520.3943
G1 X-27.80 Y-.36 E520.4156
G1 X-20.63 Y6.80 E520.7830
G1 X-20.04 Y6.80 E520.8043
G1 X-27.80 Y-.96 E521.2022
G1 X-27.80 Y-1.56 E521.2239
G1 X-19.44 Y6.80 E521.6526
G1 X-18.84 Y6.80 E521.6743
G1 X-27.80 Y-2.15 E522.1334
G1 X-27.80 Y-2.75 E522.1552
G1 X-18.25 Y6.80 E522.6448
G1 X-17.66 Y6.80 E522.6662
G1 X-27.80 Y-3.34 E523.1861
G1 X-27.80 Y-3.94 E523.2078
G1 X-17.06 Y6.80 E523.7584
G1 X-16.46 Y6.80 E523.7802
G1 X-27.80 Y-4.53 E524.3614
G1 X-27.80 Y-5.13 E524.3831
G1 X-15.87 Y6.80 E524.9947
G1 X-15.27 Y6.80 E525.0164
G1 X-27.80 Y-5.72 E525.6587
G1 X-27.80 Y-6.32 E525.6804
G1 X-14.68 Y6.80 E526.3531
G1 X-14.08 Y6.80 E526.3748
G1 X-27.80 Y-6.91 E527.0780
G1 X-27.80 Y-7.51 E527.0998
G1 X-13.49 Y6.80 E527.8335
G1 X-12.89 Y6.80 E527.8552
G1 X-27.80 Y-8.10 E528.6194
G1 X-27.80 Y-8.70 E528.6411
G1 X-12.30 Y6.80 E529.4358
G1 X-11.70 Y6.80 E529.4576
G1 X-27.80 Y-9.30 E530.2830
G1 X-27.80 Y-9.89 E530.3044
G1 X-11.11 Y6.80 E531.1601
G1 X-10.51 Y6.80 E531.1818
G1 X-27.80 Y-10.49 E532.0683
G1 X-27.80 Y-11.08 E532.0896
G1 X-9.92 Y6.80 E533.0063
G1 X-9.32 Y6.80 E533.0281
G1 X-27.80 Y-11.68 E533.9756
G1 X-27.80 Y-12.27 E533.9970
G1 X-8.72 Y6.80 E534.9749
G1 X-8.13 Y6.80 E534.9964
G1 X-27.80 Y-12.87 E536.0048
G1 X-27.80 Y-13.46 E536.0262
G1 X-7.53 Y6.80 E537.0652
G1 X-6.94 Y6.80 E537.0866
G1 X-27.80 Y-14.06 E538.1561
G1 X-27.80 Y-14.65 E538.1775
G1 X-6.34 Y6.80 E539.2775
G1 X-5.75 Y6.80 E539.2989
G1 X-27.80 Y-15.25 E540.4293
G1 X-27.80 Y-15.84 E540.4507
G1 X-5.15 Y6.80 E541.6117
G1 X-4.56 Y6.80 E541.6331
G1 X-27.80 Y-16.44 E542.8246
G1 X-27.80 Y-17.04 E542.8463
G1 X-3.96 Y6.80 E544.0686
G1 X-3.37 Y6.80 E544.0901
G1 X-27.80 Y-17.63 E545.3426
G1 X-27.80 Y-18.23 E545.3643
G1 X-2.77 Y6.80 E546.6477
G1 X-2.18 Y6.80 E546.6690
G1 X-27.80 Y-18.82 E547.9826
G1 X-27.80 Y-19.42 E548.0044
G1 X-1.58 Y6.80 E549.3487
G1 X-.98 Y6.80 E549.3704
G1 X-27.80 Y-20.01 E550.7452
G1 X-27.80 Y-20.61 E550.7670
G1 X-.39 Y6.80 E552.1723
G1 X.21 Y6.80 E552.1940
G1 X-27.80 Y-21.20 E553.6298
G1 X-27.80 Y-21.80 E553.6516
G1 X.80 Y6.80 E555.1179
G1 X1.40 Y6.80 E555.1397
G1 X-27.80 Y-22.39 E556.6364
G1 X-27.80 Y-22.99 E556.6582
G1 X1.99 Y6.80 E558.1855
G1 X2.59 Y6.80 E558.2073
G1 X-27.80 Y-23.59 E559.7654
G1 X-27.80 Y-24.18 E559.7868
G1 X3.18 Y6.80 E561.3751
G1 X3.78 Y6.80 E561.3969
G1 X-27.80 Y-24.78 E563.0160
G1 X-27.80 Y-25.37 E563.0374
G1 X4.37 Y6.80 E564.6868
G1 X4.97 Y6.80 E564.7085
G1 X-27.80 Y-25.97 E566.3886
G1 X-27.80 Y-26.56 E566.4100
G1 X-11.73 Y-10.49 E567.2340
G1 X-11.36 Y-10.72 E567.2498
G1 X-27.80 Y-27.16 E568.0927
G1 X-27.80 Y-27.75 E568.1140
G1 X-10.98 Y-10.94 E568.9762
G1 X-10.61 Y-11.16 E568.9918
G1 X-27.80 Y-28.35 E569.8731
G1 X-27.80 Y-28.94 E569.8944
G1 X-10.24 Y-11.39 E570.7945
G1 X-9.87 Y-11.61 E570.8101
G1 X-27.80 Y-29.54 E571.7294
G1 X-27.80 Y-30.13 E571.7508
G1 X-9.50 Y-11.83 E572.6891
G1 X-9.12 Y-12.05 E572.7050
G1 X-27.80 Y-30.73 E573.6627
G1 X-27.80 Y-31.33 E573.6845
G1 X10.33 Y6.80 E575.6394
G1 X10.92 Y6.80 E575.6608
G1 X-27.80 Y-31.92 E577.6460
G1 X-27.80 Y-32.52 E577.6677
G1 X11.52 Y6.80 E579.6837
G1 X12.11 Y6.80 E579.7050
G1 X-27.80 Y-33.11 E581.7512
G1 X-27.80 Y-33.71 E581.7730
G1 X12.71 Y6.80 E583.8499
G1 X13.30 Y6.80 E583.8713
G1 X-27.80 Y-34.30 E585.9785
G1 X-27.80 Y-34.90 E586.0002
G1 X13.90 Y6.80 E588.1382
G1 X14.50 Y6.80 E588.1599
G1 X-27.80 Y-35.49 E590.3285
G1 X-27.80 Y-36.09 E590.3502
G1 X15.09 Y6.80 E592.5492
G1 X15.69 Y6.80 E592.5709
G1 X-5.95 Y-14.84 E593.6804
G1 X-5.22 Y-14.70 E593.7074
G1 X16.28 Y6.80 E594.8097
G1 X16.88 Y6.80 E594.8314
G1 X-4.49 Y-14.57 E595.9271
G1 X-3.76 Y-14.44 E595.9539
G1 X17.47 Y6.80 E597.0427
G1 X18.07 Y6.80 E597.0645
G1 X-3.03 Y-14.30 E598.1463
G1 X-2.31 Y-14.17 E598.1728
G1 X18.66 Y6.80 E599.2479
G1 X19.26 Y6.80 E599.2697
G1 X-1.58 Y-14.03 E600.3379
G1 X-.86 Y-13.90 E600.3643
G1 X-.85 Y-13.91 E600.3648
G1 X19.85 Y6.80 E601.4264
G1 X20.45 Y6.80 E601.4481
G1 X-.52 Y-14.17 E602.5233
G1 X-.20 Y-14.44 E602.5385
G1 X21.04 Y6.80 E603.6275
G1 X21.64 Y6.80 E603.6492
G1 X.13 Y-14.71 E604.7520
G1 X.46 Y-14.98 E604.7675
G1 X22.24 Y6.80 E605.8842
G1 X22.83 Y6.80 E605.9055
G1 X.78 Y-15.25 E607.0360
G1 X1.11 Y-15.51 E607.0513
G1 X23.43 Y6.80 E608.1954
G1 X23.80 Y6.80 E608.2088
G1 X23.80 Y6.58 E608.2168
G1 X1.44 Y-15.78 E609.3632
G1 X1.77 Y-16.05 E609.3786
G1 X23.80 Y5.98 E610.5081
G1 X23.80 Y5.39 E610.5295
G1 X2.09 Y-16.32 E611.6426
G1 X2.42 Y-16.59 E611.6580
G1 X23.80 Y4.79 E612.7542
