;generated by ffslicer 1.3.0 10/11/16 18:35:50
;start gcode
M118 X29.23 Y30.30 Z15.78 T0
M140 S0
M104 S225 T0
M104 S0 T1
M107
G90
G28
M132 X Y Z A B
G1 Z50.00 F600
G161 X Y F3300
M6 T0
M907 X100 Y100 Z40 A80 B20
;preExtrude: 0.20
G1 Z.20 F400
M108 T0
;preExtruder0
G1 X-10.08 Y30.30 F7200
G1 X-29.23 Y30.30 E2.7770 F1200
G1 X-29.23 Y-28.30 E11.2749
G1 X-10.07 Y-28.30 E14.0533
G1 X-10.08 Y-5.20 E17.4032
;raft
;layer:0.40
G1 Z.40 F400
;support-start
;raft
G1 X-11.88 Y28.50 F4200
G1 X-27.43 Y28.50 E23.0406 F600
G1 X-27.43 Y-26.50 E42.9800
G1 X-11.87 Y-26.50 E48.6211
G1 X-11.88 Y28.50 E68.5605
G1 X-26.43 Y26.08 F4200
G1 X-25.01 Y27.50 E69.2886 F600
G1 X-19.35 Y27.50 E71.3405
G1 X-26.43 Y20.42 E74.9705
G1 X-26.43 Y14.77 E77.0188
G1 X-13.69 Y27.50 E83.5481
G1 X-12.88 Y27.50 E83.8417
G1 X-12.88 Y22.65 E85.6000
G1 X-26.43 Y9.11 E92.5446
G1 X-26.43 Y3.45 E94.5965
G1 X-12.88 Y17.00 E101.5436
G1 X-12.88 Y11.34 E103.5956
G1 X-26.43 Y-2.21 E110.5427
G1 X-26.43 Y-7.86 E112.5910
G1 X-12.88 Y5.69 E119.5382
G1 X-12.88 Y.03 E121.5901
G1 X-26.43 Y-13.52 E128.5372
G1 X-26.43 Y-19.18 E130.5892
G1 X-12.88 Y-5.63 E137.5363
G1 X-12.88 Y-11.28 E139.5846
G1 X-26.43 Y-24.83 E146.5318
G1 X-26.43 Y-25.50 E146.7747
G1 X-21.44 Y-25.50 E148.5837
G1 X-12.88 Y-16.94 E152.9724
G1 X-12.87 Y-22.59 E155.0208
G1 X-15.78 Y-25.50 E156.5127
;percent
;support-end
;layer:0.20
G1 Z.60 F400
;support-start
;raft
M104 S220 T0
G1 X-11.88 Y28.50 F7200
G1 X-27.43 Y28.50 E157.0765 F3600
G1 X-27.43 Y-26.50 E159.0704
G1 X-11.87 Y-26.50 E159.6345
G1 X-11.88 Y28.50 E161.6285
G1 X-12.75 Y28.30 F7200
G1 X-12.08 Y27.63 E161.6628 F3600
G1 X-12.08 Y25.75 E161.7310
G1 X-14.63 Y28.30 E161.8617
G1 X-16.52 Y28.30 E161.9302
G1 X-12.08 Y23.86 E162.1579
G1 X-12.08 Y21.98 E162.2260
G1 X-18.41 Y28.30 E162.5503
G1 X-20.29 Y28.30 E162.6185
G1 X-12.08 Y20.09 E163.0394
G1 X-12.08 Y18.21 E163.1075
G1 X-22.18 Y28.30 E163.6251
G1 X-24.06 Y28.30 E163.6933
G1 X-12.08 Y16.32 E164.3075
G1 X-12.08 Y14.43 E164.3760
G1 X-25.95 Y28.30 E165.0871
G1 X-27.23 Y28.30 E165.1335
G1 X-27.23 Y27.70 E165.1553
G1 X-12.08 Y12.55 E165.9320
G1 X-12.08 Y10.66 E166.0006
G1 X-27.23 Y25.81 E166.7773
G1 X-27.23 Y23.92 E166.8458
G1 X-12.08 Y8.78 E167.6223
G1 X-12.08 Y6.89 E167.6908
G1 X-27.23 Y22.04 E168.4676
G1 X-27.23 Y20.15 E168.5361
G1 X-12.08 Y5.01 E169.3126
G1 X-12.08 Y3.12 E169.3811
G1 X-27.23 Y18.27 E170.1578
G1 X-27.23 Y16.38 E170.2264
G1 X-12.08 Y1.24 E171.0028
G1 X-12.08 Y-.65 E171.0714
G1 X-27.23 Y14.50 E171.8481
G1 X-27.23 Y12.61 E171.9166
G1 X-12.08 Y-2.53 E172.6931
G1 X-12.08 Y-4.42 E172.7616
G1 X-27.23 Y10.73 E173.5384
G1 X-27.23 Y8.84 E173.6069
G1 X-12.08 Y-6.31 E174.3836
G1 X-12.08 Y-8.19 E174.4518
G1 X-27.23 Y6.96 E175.2285
G1 X-27.23 Y5.07 E175.2970
G1 X-12.08 Y-10.08 E176.0738
G1 X-12.08 Y-11.96 E176.1420
G1 X-27.23 Y3.19 E176.9187
G1 X-27.23 Y1.30 E176.9872
G1 X-12.08 Y-13.85 E177.7640
G1 X-12.08 Y-15.73 E177.8321
G1 X-27.23 Y-.58 E178.6089
G1 X-27.23 Y-2.47 E178.6774
G1 X-12.08 Y-17.62 E179.4542
G1 X-12.08 Y-19.50 E179.5223
G1 X-27.23 Y-4.35 E180.2990
G1 X-27.23 Y-6.24 E180.3676
G1 X-12.08 Y-21.39 E181.1443
G1 X-12.07 Y-23.28 E181.2128
G1 X-27.23 Y-8.12 E181.9901
G1 X-27.23 Y-10.01 E182.0586
G1 X-12.07 Y-25.16 E182.8356
G1 X-12.07 Y-26.30 E182.8769
G1 X-12.82 Y-26.30 E182.9041
G1 X-27.23 Y-11.89 E183.6429
G1 X-27.23 Y-13.78 E183.7114
G1 X-14.71 Y-26.30 E184.3533
G1 X-16.59 Y-26.30 E184.4215
G1 X-27.23 Y-15.66 E184.9670
G1 X-27.23 Y-17.55 E185.0355
G1 X-18.48 Y-26.30 E185.4841
G1 X-20.36 Y-26.30 E185.5523
G1 X-27.23 Y-19.43 E185.9045
G1 X-27.23 Y-21.32 E185.9730
G1 X-22.25 Y-26.30 E186.2284
G1 X-24.13 Y-26.30 E186.2965
G1 X-27.23 Y-23.20 E186.4555
G1 X-27.23 Y-25.09 E186.5240
G1 X-26.02 Y-26.30 E186.5860
;percent
;support-end
;layer:0.20
G1 Z.80 F400
;support-start
;raft
G1 X-11.88 Y28.50 F7200
G1 X-27.43 Y28.50 E187.1498 F4800
G1 X-27.43 Y-26.50 E189.1437
G1 X-11.87 Y-26.50 E189.7078
G1 X-11.88 Y28.50 E191.7017
G1 X-27.23 Y28.28 F7200
G1 X-27.21 Y28.30 E191.7028 F4800
G1 X-26.61 Y28.30 E191.7245
G1 X-27.23 Y27.68 E191.7563
G1 X-27.23 Y27.09 E191.7777
G1 X-26.02 Y28.30 E191.8397
G1 X-25.42 Y28.30 E191.8615
G1 X-27.23 Y26.49 E191.9543
G1 X-27.23 Y25.90 E191.9757
G1 X-24.83 Y28.30 E192.0987
G1 X-24.23 Y28.30 E192.1205
G1 X-27.23 Y25.30 E192.2743
G1 X-27.23 Y24.71 E192.2957
G1 X-23.64 Y28.30 E192.4797
G1 X-23.04 Y28.30 E192.5015
G1 X-27.23 Y24.11 E192.7163
G1 X-27.23 Y23.52 E192.7377
G1 X-22.44 Y28.30 E192.9830
G1 X-21.85 Y28.30 E193.0044
G1 X-27.23 Y22.92 E193.2802
G1 X-27.23 Y22.33 E193.3016
G1 X-21.25 Y28.30 E193.6080
G1 X-20.66 Y28.30 E193.6294
G1 X-27.23 Y21.73 E193.9662
G1 X-27.23 Y21.13 E193.9880
G1 X-20.06 Y28.30 E194.3556
G1 X-19.47 Y28.30 E194.3770
G1 X-27.23 Y20.54 E194.7748
G1 X-27.23 Y19.94 E194.7966
G1 X-18.87 Y28.30 E195.2252
G1 X-18.28 Y28.30 E195.2466
G1 X-27.23 Y19.35 E195.7055
G1 X-27.23 Y18.75 E195.7272
G1 X-17.68 Y28.30 E196.2168
G1 X-17.08 Y28.30 E196.2386
G1 X-27.23 Y18.16 E196.7587
G1 X-27.23 Y17.56 E196.7805
G1 X-16.49 Y28.30 E197.3311
G1 X-15.90 Y28.30 E197.3525
G1 X-27.23 Y16.97 E197.9334
G1 X-27.23 Y16.37 E197.9551
G1 X-15.30 Y28.30 E198.5668
G1 X-14.70 Y28.30 E198.5886
G1 X-27.23 Y15.78 E199.2307
G1 X-27.23 Y15.18 E199.2525
G1 X-14.11 Y28.30 E199.9251
G1 X-13.51 Y28.30 E199.9469
G1 X-27.23 Y14.59 E200.6500
G1 X-27.23 Y13.99 E200.6718
G1 X-12.92 Y28.30 E201.4055
G1 X-12.32 Y28.30 E201.4272
G1 X-27.23 Y13.39 E202.1917
G1 X-27.23 Y12.80 E202.2130
G1 X-12.08 Y27.94 E202.9895
G1 X-12.08 Y27.35 E203.0109
G1 X-27.23 Y12.20 E203.7877
G1 X-27.23 Y11.61 E203.8091
G1 X-12.08 Y26.75 E204.5855
G1 X-12.08 Y26.16 E204.6069
G1 X-27.23 Y11.01 E205.3837
G1 X-27.23 Y10.42 E205.4051
G1 X-12.08 Y25.56 E206.1816
G1 X-12.08 Y24.97 E206.2030
G1 X-27.23 Y9.82 E206.9797
G1 X-27.23 Y9.23 E207.0011
G1 X-12.08 Y24.37 E207.7776
G1 X-12.08 Y23.78 E207.7990
G1 X-27.23 Y8.63 E208.5757
G1 X-27.23 Y8.04 E208.5971
G1 X-12.08 Y23.18 E209.3736
G1 X-12.08 Y22.58 E209.3953
G1 X-27.23 Y7.44 E210.1718
G1 X-27.23 Y6.85 E210.1932
G1 X-12.08 Y21.99 E210.9697
G1 X-12.08 Y21.39 E210.9915
G1 X-27.23 Y6.25 E211.7680
G1 X-27.23 Y5.65 E211.7897
G1 X-12.08 Y20.80 E212.5664
G1 X-12.08 Y20.20 E212.5882
G1 X-27.23 Y5.06 E213.3647
G1 X-27.23 Y4.46 E213.3864
G1 X-12.08 Y19.61 E214.1632
G1 X-12.08 Y19.01 E214.1849
G1 X-27.23 Y3.87 E214.9614
G1 X-27.23 Y3.27 E214.9832
G1 X-12.08 Y18.42 E215.7599
G1 X-12.08 Y17.82 E215.7817
G1 X-27.23 Y2.68 E216.5581
G1 X-27.23 Y2.08 E216.5799
G1 X-12.08 Y17.23 E217.3567
G1 X-12.08 Y16.63 E217.3784
G1 X-27.23 Y1.49 E218.1549
G1 X-27.23 Y.89 E218.1766
G1 X-12.08 Y16.04 E218.9534
G1 X-12.08 Y15.44 E218.9751
G1 X-27.23 Y.30 E219.7516
G1 X-27.23 Y-.30 E219.7734
G1 X-12.08 Y14.85 E220.5501
G1 X-12.08 Y14.25 E220.5719
G1 X-27.23 Y-.89 E221.3484
G1 X-27.23 Y-1.49 E221.3701
G1 X-12.08 Y13.66 E222.1469
G1 X-12.08 Y13.06 E222.1686
G1 X-27.23 Y-2.09 E222.9454
G1 X-27.23 Y-2.68 E222.9667
G1 X-12.08 Y12.47 E223.7435
G1 X-12.08 Y11.87 E223.7652
G1 X-27.23 Y-3.28 E224.5420
G1 X-27.23 Y-3.87 E224.5634
G1 X-12.08 Y11.28 E225.3401
G1 X-12.08 Y10.68 E225.3619
G1 X-27.23 Y-4.47 E226.1386
G1 X-27.23 Y-5.06 E226.1600
G1 X-12.08 Y10.08 E226.9365
G1 X-12.08 Y9.49 E226.9579
G1 X-27.23 Y-5.66 E227.7346
G1 X-27.23 Y-6.25 E227.7560
G1 X-12.08 Y8.89 E228.5325
G1 X-12.08 Y8.30 E228.5539
G1 X-27.23 Y-6.85 E229.3307
G1 X-27.23 Y-7.44 E229.3521
G1 X-12.08 Y7.70 E230.1285
G1 X-12.08 Y7.11 E230.1499
G1 X-27.23 Y-8.04 E230.9267
G1 X-27.23 Y-8.63 E230.9481
G1 X-12.08 Y6.51 E231.7246
G1 X-12.08 Y5.92 E231.7460
G1 X-27.23 Y-9.23 E232.5227
G1 X-27.23 Y-9.83 E232.5444
G1 X-12.08 Y5.32 E233.3212
G1 X-12.08 Y4.73 E233.3426
G1 X-27.23 Y-10.42 E234.1193
G1 X-27.23 Y-11.02 E234.1411
G1 X-12.08 Y4.13 E234.9178
G1 X-12.08 Y3.54 E234.9392
G1 X-27.23 Y-11.61 E235.7160
G1 X-27.23 Y-12.21 E235.7377
G1 X-12.08 Y2.94 E236.5145
G1 X-12.08 Y2.35 E236.5359
G1 X-27.23 Y-12.80 E237.3126
G1 X-27.23 Y-13.40 E237.3344
G1 X-12.08 Y1.75 E238.1111
G1 X-12.08 Y1.16 E238.1325
G1 X-27.23 Y-13.99 E238.9093
G1 X-27.23 Y-14.59 E238.9310
G1 X-12.08 Y.56 E239.7078
G1 X-12.08 Y-.03 E239.7292
G1 X-27.23 Y-15.18 E240.5059
G1 X-27.23 Y-15.78 E240.5276
G1 X-12.08 Y-.63 E241.3044
G1 X-12.08 Y-1.23 E241.3262
G1 X-27.23 Y-16.37 E242.1026
G1 X-27.23 Y-16.97 E242.1244
G1 X-12.08 Y-1.82 E242.9011
G1 X-12.08 Y-2.42 E242.9229
G1 X-27.23 Y-17.57 E243.6996
G1 X-27.23 Y-18.16 E243.7210
G1 X-12.08 Y-3.01 E244.4978
G1 X-12.08 Y-3.61 E244.5195
G1 X-27.23 Y-18.76 E245.2963
G1 X-27.23 Y-19.35 E245.3177
G1 X-12.08 Y-4.20 E246.0944
G1 X-12.08 Y-4.80 E246.1162
G1 X-27.23 Y-19.95 E246.8929
G1 X-27.23 Y-20.54 E246.9143
G1 X-12.08 Y-5.39 E247.6911
G1 X-12.08 Y-5.99 E247.7128
G1 X-27.23 Y-21.14 E248.4896
G1 X-27.23 Y-21.73 E248.5110
G1 X-12.08 Y-6.58 E249.2877
G1 X-12.08 Y-7.18 E249.3094
G1 X-27.23 Y-22.33 E250.0862
G1 X-27.23 Y-22.92 E250.1076
G1 X-12.08 Y-7.77 E250.8843
G1 X-12.08 Y-8.37 E250.9061
G1 X-27.23 Y-23.52 E251.6828
G1 X-27.23 Y-24.11 E251.7042
G1 X-12.08 Y-8.96 E252.4810
G1 X-12.08 Y-9.56 E252.5027
G1 X-27.23 Y-24.71 E253.2795
G1 X-27.23 Y-25.31 E253.3012
G1 X-12.08 Y-10.15 E254.0782
G1 X-12.08 Y-10.75 E254.1000
G1 X-27.23 Y-25.90 E254.8767
G1 X-27.23 Y-26.30 E254.8912
G1 X-27.03 Y-26.30 E254.8985
G1 X-12.08 Y-11.34 E255.6652
G1 X-12.08 Y-11.94 E255.6870
G1 X-26.43 Y-26.30 E256.4230
G1 X-25.84 Y-26.30 E256.4443
G1 X-12.08 Y-12.54 E257.1499
G1 X-12.08 Y-13.13 E257.1712
G1 X-25.24 Y-26.30 E257.8462
G1 X-24.65 Y-26.30 E257.8676
G1 X-12.08 Y-13.73 E258.5121
G1 X-12.08 Y-14.32 E258.5335
G1 X-24.05 Y-26.30 E259.1474
G1 X-23.46 Y-26.30 E259.1688
G1 X-12.08 Y-14.92 E259.7523
G1 X-12.08 Y-15.51 E259.7737
G1 X-22.86 Y-26.30 E260.3266
G1 X-22.27 Y-26.30 E260.3480
G1 X-12.08 Y-16.11 E260.8704
G1 X-12.08 Y-16.70 E260.8918
G1 X-21.67 Y-26.30 E261.3838
G1 X-21.08 Y-26.30 E261.4052
G1 X-12.08 Y-17.30 E261.8666
G1 X-12.08 Y-17.89 E261.8880
G1 X-20.48 Y-26.30 E262.3189
G1 X-19.89 Y-26.30 E262.3403
G1 X-12.08 Y-18.49 E262.7407
G1 X-12.07 Y-19.08 E262.7621
G1 X-19.29 Y-26.30 E263.1323
G1 X-18.69 Y-26.30 E263.1540
G1 X-12.07 Y-19.68 E263.4934
G1 X-12.07 Y-20.27 E263.5148
G1 X-18.10 Y-26.30 E263.8240
G1 X-17.50 Y-26.30 E263.8457
G1 X-12.07 Y-20.87 E264.1241
G1 X-12.07 Y-21.46 E264.1455
G1 X-16.91 Y-26.30 E264.3936
G1 X-16.31 Y-26.30 E264.4154
G1 X-12.07 Y-22.06 E264.6328
G1 X-12.07 Y-22.65 E264.6541
G1 X-15.72 Y-26.30 E264.8413
G1 X-15.12 Y-26.30 E264.8630
G1 X-12.07 Y-23.25 E265.0194
G1 X-12.07 Y-23.85 E265.0412
G1 X-14.53 Y-26.30 E265.1670
G1 X-13.93 Y-26.30 E265.1888
G1 X-12.07 Y-24.44 E265.2841
G1 X-12.07 Y-25.04 E265.3059
G1 X-13.34 Y-26.30 E265.3707
G1 X-12.74 Y-26.30 E265.3925
G1 X-12.07 Y-25.63 E265.4268
G1 X-12.07 Y-26.23 E265.4486
G1 X-12.14 Y-26.30 E265.4522
;percent
;support-end
;layer:0.20
G1 Z1.00 F400
;support-start
;raft
G1 X-11.88 Y28.50 F7200
G1 X-27.43 Y28.50 E266.0159 F4800
G1 X-27.43 Y-26.50 E268.0099
G1 X-11.87 Y-26.50 E268.5740
G1 X-11.88 Y28.50 E270.5679
G1 X-27.23 Y28.28 F7200
G1 X-27.21 Y28.30 E270.5689 F4800
G1 X-26.61 Y28.30 E270.5907
G1 X-27.23 Y27.68 E270.6224
G1 X-27.23 Y27.09 E270.6438
G1 X-26.02 Y28.30 E270.7059
G1 X-25.42 Y28.30 E270.7276
G1 X-27.23 Y26.49 E270.8204
G1 X-27.23 Y25.90 E270.8418
G1 X-24.83 Y28.30 E270.9649
G1 X-24.23 Y28.30 E270.9866
G1 X-27.23 Y25.30 E271.1404
G1 X-27.23 Y24.71 E271.1618
G1 X-23.64 Y28.30 E271.3459
G1 X-23.04 Y28.30 E271.3676
G1 X-27.23 Y24.11 E271.5824
G1 X-27.23 Y23.52 E271.6038
G1 X-22.44 Y28.30 E271.8491
G1 X-21.85 Y28.30 E271.8705
G1 X-27.23 Y22.92 E272.1463
G1 X-27.23 Y22.33 E272.1677
G1 X-21.25 Y28.30 E272.4741
G1 X-20.66 Y28.30 E272.4954
G1 X-27.23 Y21.73 E272.8323
G1 X-27.23 Y21.13 E272.8540
G1 X-20.06 Y28.30 E273.2216
G1 X-19.47 Y28.30 E273.2430
G1 X-27.23 Y20.54 E273.6409
G1 X-27.23 Y19.94 E273.6626
G1 X-18.87 Y28.30 E274.0912
G1 X-18.28 Y28.30 E274.1126
G1 X-27.23 Y19.35 E274.5715
G1 X-27.23 Y18.75 E274.5932
G1 X-17.68 Y28.30 E275.0829
G1 X-17.08 Y28.30 E275.1046
G1 X-27.23 Y18.16 E275.6247
G1 X-27.23 Y17.56 E275.6465
G1 X-16.49 Y28.30 E276.1971
G1 X-15.90 Y28.30 E276.2185
G1 X-27.23 Y16.97 E276.7994
G1 X-27.23 Y16.37 E276.8212
G1 X-15.30 Y28.30 E277.4328
G1 X-14.70 Y28.30 E277.4546
G1 X-27.23 Y15.78 E278.0967
G1 X-27.23 Y15.18 E278.1185
G1 X-14.11 Y28.30 E278.7912
G1 X-13.51 Y28.30 E278.8129
G1 X-27.23 Y14.59 E279.5160
G1 X-27.23 Y13.99 E279.5378
G1 X-12.92 Y28.30 E280.2715
G1 X-12.32 Y28.30 E280.2932
G1 X-27.23 Y13.39 E281.0577
G1 X-27.23 Y12.80 E281.0791
G1 X-12.08 Y27.94 E281.8555
G1 X-12.08 Y27.35 E281.8769
G1 X-27.23 Y12.20 E282.6537
G1 X-27.23 Y11.61 E282.6750
G1 X-12.08 Y26.75 E283.4516
G1 X-12.08 Y26.16 E283.4729
G1 X-27.23 Y11.01 E284.2497
G1 X-27.23 Y10.42 E284.2710
G1 X-12.08 Y25.56 E285.0476
G1 X-12.08 Y24.97 E285.0689
G1 X-27.23 Y9.82 E285.8457
G1 X-27.23 Y9.23 E285.8670
G1 X-12.08 Y24.37 E286.6435
G1 X-12.08 Y23.78 E286.6649
G1 X-27.23 Y8.63 E287.4417
G1 X-27.23 Y8.04 E287.4631
G1 X-12.08 Y23.18 E288.2395
G1 X-12.08 Y22.58 E288.2613
G1 X-27.23 Y7.44 E289.0378
G1 X-27.23 Y6.85 E289.0592
G1 X-12.08 Y21.99 E289.8357
G1 X-12.08 Y21.39 E289.8574
G1 X-27.23 Y6.25 E290.6339
G1 X-27.23 Y5.65 E290.6557
G1 X-12.08 Y20.80 E291.4324
G1 X-12.08 Y20.20 E291.4542
G1 X-27.23 Y5.06 E292.2307
G1 X-27.23 Y4.46 E292.2524
G1 X-12.08 Y19.61 E293.0292
G1 X-12.08 Y19.01 E293.0509
G1 X-27.23 Y3.87 E293.8274
G1 X-27.23 Y3.27 E293.8492
G1 X-12.08 Y18.42 E294.6259
G1 X-12.08 Y17.82 E294.6477
G1 X-27.23 Y2.68 E295.4242
G1 X-27.23 Y2.08 E295.4459
G1 X-12.08 Y17.23 E296.2227
G1 X-12.08 Y16.63 E296.2444
G1 X-27.23 Y1.49 E297.0209
G1 X-27.23 Y.89 E297.0427
G1 X-12.08 Y16.04 E297.8194
G1 X-12.08 Y15.44 E297.8412
G1 X-27.23 Y.30 E298.6177
G1 X-27.23 Y-.30 E298.6394
G1 X-12.08 Y14.85 E299.4162
G1 X-12.08 Y14.25 E299.4379
G1 X-27.23 Y-.89 E300.2144
G1 X-27.23 Y-1.49 E300.2362
G1 X-12.08 Y13.66 E301.0129
G1 X-12.08 Y13.06 E301.0347
G1 X-27.23 Y-2.09 E301.8114
G1 X-27.23 Y-2.68 E301.8328
G1 X-12.08 Y12.47 E302.6095
G1 X-12.08 Y11.87 E302.6313
G1 X-27.23 Y-3.28 E303.4080
G1 X-27.23 Y-3.87 E303.4294
G1 X-12.08 Y11.28 E304.2062
G1 X-12.08 Y10.68 E304.2279
G1 X-27.23 Y-4.47 E305.0047
G1 X-27.23 Y-5.06 E305.0260
G1 X-12.08 Y10.08 E305.8025
G1 X-12.08 Y9.49 E305.8239
G1 X-27.23 Y-5.66 E306.6007
G1 X-27.23 Y-6.25 E306.6221
G1 X-12.08 Y8.89 E307.3985
G1 X-12.08 Y8.30 E307.4199
G1 X-27.23 Y-6.85 E308.1967
G1 X-27.23 Y-7.44 E308.2180
G1 X-12.08 Y7.70 E308.9945
G1 X-12.08 Y7.11 E309.0159
G1 X-27.23 Y-8.04 E309.7927
G1 X-27.23 Y-8.63 E309.8140
G1 X-12.08 Y6.51 E310.5906
G1 X-12.08 Y5.92 E310.6119
G1 X-27.23 Y-9.23 E311.3887
G1 X-27.23 Y-9.83 E311.4104
G1 X-12.08 Y5.32 E312.1872
G1 X-12.08 Y4.73 E312.2085
G1 X-27.23 Y-10.42 E312.9853
G1 X-27.23 Y-11.02 E313.0070
G1 X-12.08 Y4.13 E313.7838
G1 X-12.08 Y3.54 E313.8052
G1 X-27.23 Y-11.61 E314.5819
G1 X-27.23 Y-12.21 E314.6037
G1 X-12.08 Y2.94 E315.3804
G1 X-12.08 Y2.35 E315.4018
G1 X-27.23 Y-12.80 E316.1785
G1 X-27.23 Y-13.40 E316.2003
G1 X-12.08 Y1.75 E316.9770
G1 X-12.08 Y1.16 E316.9984
G1 X-27.23 Y-13.99 E317.7752
G1 X-27.23 Y-14.59 E317.7969
G1 X-12.08 Y.56 E318.5737
G1 X-12.08 Y-.03 E318.5950
G1 X-27.23 Y-15.18 E319.3718
G1 X-27.23 Y-15.78 E319.3935
G1 X-12.08 Y-.63 E320.1703
G1 X-12.08 Y-1.23 E320.1920
G1 X-27.23 Y-16.37 E320.9685
G1 X-27.23 Y-16.97 E320.9903
G1 X-12.08 Y-1.82 E321.7670
G1 X-12.08 Y-2.42 E321.7888
G1 X-27.23 Y-17.57 E322.5655
G1 X-27.23 Y-18.16 E322.5869
G1 X-12.08 Y-3.01 E323.3637
G1 X-12.08 Y-3.61 E323.3854
G1 X-27.23 Y-18.76 E324.1622
G1 X-27.23 Y-19.35 E324.1835
G1 X-12.08 Y-4.20 E324.9603
G1 X-12.08 Y-4.80 E324.9820
G1 X-27.23 Y-19.95 E325.7588
G1 X-27.23 Y-20.54 E325.7802
G1 X-12.08 Y-5.39 E326.5569
G1 X-12.08 Y-5.99 E326.5787
G1 X-27.23 Y-21.14 E327.3554
G1 X-27.23 Y-21.73 E327.3768
G1 X-12.08 Y-6.58 E328.1535
G1 X-12.08 Y-7.18 E328.1753
G1 X-27.23 Y-22.33 E328.9520
G1 X-27.23 Y-22.92 E328.9734
G1 X-12.08 Y-7.77 E329.7502
G1 X-12.08 Y-8.37 E329.7719
G1 X-27.23 Y-23.52 E330.5487
G1 X-27.23 Y-24.11 E330.5701
G1 X-12.08 Y-8.96 E331.3468
G1 X-12.08 Y-9.56 E331.3685
G1 X-27.23 Y-24.71 E332.1453
G1 X-27.23 Y-25.31 E332.1670
G1 X-12.08 Y-10.15 E332.9440
G1 X-12.08 Y-10.75 E332.9658
G1 X-27.23 Y-25.90 E333.7425
G1 X-27.23 Y-26.30 E333.7570
G1 X-27.03 Y-26.30 E333.7643
