;generated by ffslicer 1.3.0 09/23/16 11:34:42
;start gcode
M118 X36.80 Y44.80 Z14.00 T0
M140 S0
M104 S225 T0
M104 S0 T1
M107
G90
G28
M132 X Y Z A B
G1 Z50.00 F600
G161 X Y F3300
M6 T0
M907 X100 Y100 Z40 A80 B20
;preExtrude: 0.20
G1 Z.20 F400
M108 T0
;preExtruder0
G1 X36.80 Y6.80 F7200
G1 X-14.80 Y6.80 E7.4827 F1200
G1 X-14.80 Y-44.80 E14.9655
G1 X2.00 Y-44.80 E17.4017
;raft
;layer:0.40
G1 Z.40 F400
;support-start
;raft
G1 X35.00 Y5.00 F4200
G1 X-13.00 Y5.00 E34.8034 F600
G1 X-13.00 Y-43.00 E52.2051
G1 X35.00 Y-43.00 E69.6068
G1 X35.00 Y5.00 E87.0085
G1 X34.00 Y-41.93 F4200
G1 X33.93 Y-42.00 E87.0444 F600
G1 X28.28 Y-42.00 E89.0927
G1 X34.00 Y-36.28 E92.0254
G1 X34.00 Y-30.62 E94.0773
G1 X22.62 Y-42.00 E99.9119
G1 X16.96 Y-42.00 E101.9639
G1 X34.00 Y-24.96 E110.7003
G1 X34.00 Y-19.30 E112.7523
G1 X11.31 Y-42.00 E124.3881
G1 X5.65 Y-42.00 E126.4400
G1 X34.00 Y-13.65 E140.9751
G1 X34.00 Y-7.99 E143.0271
G1 X-.01 Y-42.00 E160.4641
G1 X-5.66 Y-42.00 E162.5124
G1 X34.00 Y-2.33 E182.8488
G1 X34.00 Y3.32 E184.8971
G1 X-11.32 Y-42.00 E208.1328
G1 X-12.00 Y-42.00 E208.3793
G1 X-12.00 Y-37.02 E210.1848
G1 X29.02 Y4.00 E231.2158
G1 X23.36 Y4.00 E233.2678
G1 X-12.00 Y-31.36 E251.3969
G1 X-12.00 Y-25.71 E253.4452
G1 X17.71 Y4.00 E268.6776
G1 X12.05 Y4.00 E270.7296
G1 X-12.00 Y-20.05 E283.0601
G1 X-12.00 Y-14.39 E285.1120
G1 X6.39 Y4.00 E294.5406
G1 X.74 Y4.00 E296.5889
G1 X-12.00 Y-8.73 E303.1182
G1 X-12.00 Y-3.08 E305.1665
G1 X-4.92 Y4.00 E308.7965
G1 X-10.58 Y4.00 E310.8484
G1 X-12.00 Y2.58 E311.5764
;percent
;support-end
;layer:0.20
G1 Z.60 F400
;support-start
;raft
M104 S220 T0
G1 X35.00 Y5.00 F7200
G1 X-13.00 Y5.00 E313.3166 F3600
G1 X-13.00 Y-43.00 E315.0567
G1 X35.00 Y-43.00 E316.7969
G1 X35.00 Y5.00 E318.5370
G1 X34.13 Y4.80 F7200
G1 X34.80 Y4.13 E318.5714 F3600
G1 X34.80 Y2.25 E318.6395
G1 X32.25 Y4.80 E318.7703
G1 X30.36 Y4.80 E318.8388
G1 X34.80 Y.36 E319.0664
G1 X34.80 Y-1.52 E319.1346
G1 X28.48 Y4.80 E319.4586
G1 X26.59 Y4.80 E319.5272
G1 X34.80 Y-3.41 E319.9481
G1 X34.80 Y-5.29 E320.0162
G1 X24.71 Y4.80 E320.5336
G1 X22.82 Y4.80 E320.6021
G1 X34.80 Y-7.18 E321.2163
G1 X34.80 Y-9.06 E321.2845
G1 X20.94 Y4.80 E321.9951
G1 X19.05 Y4.80 E322.0636
G1 X34.80 Y-10.95 E322.8711
G1 X34.80 Y-12.83 E322.9393
G1 X17.17 Y4.80 E323.8432
G1 X15.28 Y4.80 E323.9117
G1 X34.80 Y-14.72 E324.9125
G1 X34.80 Y-16.60 E324.9806
G1 X13.40 Y4.80 E326.0778
G1 X11.51 Y4.80 E326.1463
G1 X34.80 Y-18.49 E327.3404
G1 X34.80 Y-20.37 E327.4086
G1 X9.63 Y4.80 E328.6991
G1 X7.74 Y4.80 E328.7676
G1 X34.80 Y-22.26 E330.1550
G1 X34.80 Y-24.14 E330.2231
G1 X5.86 Y4.80 E331.7069
G1 X3.97 Y4.80 E331.7754
G1 X34.80 Y-26.03 E333.3561
G1 X34.80 Y-27.91 E333.4242
G1 X2.09 Y4.80 E335.1013
G1 X.20 Y4.80 E335.1698
G1 X34.80 Y-29.80 E336.9438
G1 X34.80 Y-31.68 E337.0119
G1 X-1.68 Y4.80 E338.8823
G1 X-3.57 Y4.80 E338.9508
G1 X34.80 Y-33.57 E340.9180
G1 X34.80 Y-35.45 E340.9862
G1 X-5.45 Y4.80 E343.0498
G1 X-7.34 Y4.80 E343.1184
G1 X34.80 Y-37.34 E345.2789
G1 X34.80 Y-39.22 E345.3471
G1 X-9.22 Y4.80 E347.6040
G1 X-11.11 Y4.80 E347.6725
G1 X34.80 Y-41.11 E350.0263
G1 X34.80 Y-42.80 E350.0876
G1 X34.60 Y-42.80 E350.0948
G1 X-12.80 Y4.60 E352.5250
G1 X-12.80 Y2.72 E352.5932
G1 X32.72 Y-42.80 E354.9270
G1 X30.83 Y-42.80 E354.9956
G1 X-12.80 Y.83 E357.2325
G1 X-12.80 Y-1.05 E357.3006
G1 X28.95 Y-42.80 E359.4411
G1 X27.06 Y-42.80 E359.5097
G1 X-12.80 Y-2.94 E361.5533
G1 X-12.80 Y-4.82 E361.6214
G1 X25.18 Y-42.80 E363.5687
G1 X23.29 Y-42.80 E363.6372
G1 X-12.80 Y-6.71 E365.4876
G1 X-12.80 Y-8.59 E365.5557
G1 X21.41 Y-42.80 E367.3097
G1 X19.52 Y-42.80 E367.3782
G1 X-12.80 Y-10.48 E369.0353
G1 X-12.80 Y-12.36 E369.1034
G1 X17.64 Y-42.80 E370.6641
G1 X15.75 Y-42.80 E370.7326
G1 X-12.80 Y-14.25 E372.1964
G1 X-12.80 Y-16.13 E372.2646
G1 X13.87 Y-42.80 E373.6319
G1 X11.98 Y-42.80 E373.7005
G1 X-12.80 Y-18.02 E374.9710
G1 X-12.80 Y-19.90 E375.0391
G1 X10.10 Y-42.80 E376.2132
G1 X8.21 Y-42.80 E376.2817
G1 X-12.80 Y-21.79 E377.3589
G1 X-12.80 Y-23.67 E377.4271
G1 X6.33 Y-42.80 E378.4079
G1 X4.44 Y-42.80 E378.4764
G1 X-12.80 Y-25.56 E379.3603
G1 X-12.80 Y-27.44 E379.4285
G1 X2.56 Y-42.80 E380.2160
G1 X.67 Y-42.80 E380.2845
G1 X-12.80 Y-29.33 E380.9751
G1 X-12.80 Y-31.21 E381.0433
G1 X-1.21 Y-42.80 E381.6375
G1 X-3.10 Y-42.80 E381.7060
G1 X-12.80 Y-33.10 E382.2034
G1 X-12.80 Y-34.98 E382.2715
G1 X-4.99 Y-42.80 E382.6722
G1 X-6.87 Y-42.80 E382.7404
G1 X-12.80 Y-36.87 E383.0444
G1 X-12.80 Y-38.75 E383.1125
G1 X-8.76 Y-42.80 E383.3199
G1 X-10.64 Y-42.80 E383.3881
G1 X-12.80 Y-40.64 E383.4988
G1 X-12.80 Y-42.52 E383.5670
G1 X-12.53 Y-42.80 E383.5811
;percent
;support-end
;layer:0.20
G1 Z.80 F400
;support-start
;raft
G1 X35.00 Y5.00 F7200
G1 X-13.00 Y5.00 E385.3212 F4800
G1 X-13.00 Y-43.00 E387.0614
G1 X35.00 Y-43.00 E388.8016
G1 X35.00 Y5.00 E390.5417
G1 X-12.80 Y4.78 F7200
G1 X-12.78 Y4.80 E390.5427 F4800
G1 X-12.18 Y4.80 E390.5645
G1 X-12.80 Y4.18 E390.5963
G1 X-12.80 Y3.59 E390.6176
G1 X-11.59 Y4.80 E390.6797
G1 X-10.99 Y4.80 E390.7014
G1 X-12.80 Y2.99 E390.7942
G1 X-12.80 Y2.40 E390.8156
G1 X-10.40 Y4.80 E390.9387
G1 X-9.80 Y4.80 E390.9604
G1 X-12.80 Y1.80 E391.1142
G1 X-12.80 Y1.21 E391.1356
G1 X-9.21 Y4.80 E391.3197
G1 X-8.61 Y4.80 E391.3414
G1 X-12.80 Y.61 E391.5562
G1 X-12.80 Y.02 E391.5776
G1 X-8.02 Y4.80 E391.8227
G1 X-7.42 Y4.80 E391.8444
G1 X-12.80 Y-.58 E392.1203
G1 X-12.80 Y-1.17 E392.1416
G1 X-6.82 Y4.80 E392.4480
G1 X-6.23 Y4.80 E392.4693
G1 X-12.80 Y-1.77 E392.8062
G1 X-12.80 Y-2.37 E392.8280
G1 X-5.63 Y4.80 E393.1955
G1 X-5.04 Y4.80 E393.2169
G1 X-12.80 Y-2.96 E393.6148
G1 X-12.80 Y-3.56 E393.6365
G1 X-4.44 Y4.80 E394.0651
G1 X-3.85 Y4.80 E394.0865
G1 X-12.80 Y-4.15 E394.5454
G1 X-12.80 Y-4.75 E394.5672
G1 X-3.25 Y4.80 E395.0568
G1 X-2.66 Y4.80 E395.0781
G1 X-12.80 Y-5.34 E395.5980
G1 X-12.80 Y-5.94 E395.6198
G1 X-2.06 Y4.80 E396.1704
G1 X-1.47 Y4.80 E396.1918
G1 X-12.80 Y-6.53 E396.7727
G1 X-12.80 Y-7.13 E396.7944
G1 X-.87 Y4.80 E397.4061
G1 X-.28 Y4.80 E397.4275
G1 X-12.80 Y-7.72 E398.0694
G1 X-12.80 Y-8.32 E398.0911
G1 X.32 Y4.80 E398.7638
G1 X.91 Y4.80 E398.7852
G1 X-12.80 Y-8.91 E399.4881
G1 X-12.80 Y-9.51 E399.5098
G1 X1.51 Y4.80 E400.2435
G1 X2.11 Y4.80 E400.2653
G1 X-12.80 Y-10.10 E401.0295
G1 X-12.80 Y-10.70 E401.0512
G1 X2.70 Y4.80 E401.8459
G1 X3.30 Y4.80 E401.8676
G1 X-12.80 Y-11.30 E402.6931
G1 X-12.80 Y-11.89 E402.7145
G1 X3.89 Y4.80 E403.5701
G1 X4.49 Y4.80 E403.5919
G1 X-12.80 Y-12.49 E404.4783
G1 X-12.80 Y-13.08 E404.4997
G1 X5.08 Y4.80 E405.4165
G1 X5.68 Y4.80 E405.4382
G1 X-12.80 Y-13.68 E406.3857
G1 X-12.80 Y-14.27 E406.4071
G1 X6.27 Y4.80 E407.3847
G1 X6.87 Y4.80 E407.4065
G1 X-12.80 Y-14.87 E408.4150
G1 X-12.80 Y-15.46 E408.4364
G1 X7.46 Y4.80 E409.4751
G1 X8.06 Y4.80 E409.4969
G1 X-12.80 Y-16.06 E410.5664
G1 X-12.80 Y-16.65 E410.5878
G1 X8.65 Y4.80 E411.6875
G1 X9.25 Y4.80 E411.7093
G1 X-12.80 Y-17.25 E412.8398
G1 X-12.80 Y-17.84 E412.8611
G1 X9.85 Y4.80 E414.0221
G1 X10.44 Y4.80 E414.0435
G1 X-12.80 Y-18.44 E415.2351
G1 X-12.80 Y-19.04 E415.2568
G1 X11.04 Y4.80 E416.4791
G1 X11.63 Y4.80 E416.5004
G1 X-12.80 Y-19.63 E417.7530
G1 X-12.80 Y-20.23 E417.7747
G1 X12.23 Y4.80 E419.0580
G1 X12.82 Y4.80 E419.0794
G1 X-12.80 Y-20.82 E420.3929
G1 X-12.80 Y-21.42 E420.4147
G1 X13.42 Y4.80 E421.7590
G1 X14.01 Y4.80 E421.7804
G1 X-12.80 Y-22.01 E423.1549
G1 X-12.80 Y-22.61 E423.1767
G1 X14.61 Y4.80 E424.5820
G1 X15.20 Y4.80 E424.6034
G1 X-12.80 Y-23.20 E426.0389
G1 X-12.80 Y-23.80 E426.0607
G1 X15.80 Y4.80 E427.5270
G1 X16.39 Y4.80 E427.5484
G1 X-12.80 Y-24.39 E429.0450
G1 X-12.80 Y-24.99 E429.0667
G1 X16.99 Y4.80 E430.5941
G1 X17.58 Y4.80 E430.6155
G1 X-12.80 Y-25.59 E432.1733
G1 X-12.80 Y-26.18 E432.1947
G1 X18.18 Y4.80 E433.7830
G1 X18.78 Y4.80 E433.8048
G1 X-12.80 Y-26.78 E435.4239
G1 X-12.80 Y-27.37 E435.4453
G1 X19.37 Y4.80 E437.0947
G1 X19.97 Y4.80 E437.1164
G1 X-12.80 Y-27.97 E438.7965
G1 X-12.80 Y-28.56 E438.8179
G1 X20.56 Y4.80 E440.5283
G1 X21.16 Y4.80 E440.5500
G1 X-12.80 Y-29.16 E442.2912
G1 X-12.80 Y-29.75 E442.3125
G1 X21.75 Y4.80 E444.0839
G1 X22.35 Y4.80 E444.1056
G1 X-12.80 Y-30.35 E445.9078
G1 X-12.80 Y-30.94 E445.9292
G1 X22.94 Y4.80 E447.7616
G1 X23.54 Y4.80 E447.7834
G1 X-12.80 Y-31.54 E449.6465
G1 X-12.80 Y-32.13 E449.6679
G1 X24.13 Y4.80 E451.5613
G1 X24.73 Y4.80 E451.5830
G1 X-12.80 Y-32.73 E453.5072
G1 X-12.80 Y-33.33 E453.5290
G1 X25.33 Y4.80 E455.4839
G1 X25.92 Y4.80 E455.5053
G1 X-12.80 Y-33.92 E457.4905
G1 X-12.80 Y-34.52 E457.5122
G1 X26.52 Y4.80 E459.5282
G1 X27.11 Y4.80 E459.5495
G1 X-12.80 Y-35.11 E461.5957
G1 X-12.80 Y-35.71 E461.6175
G1 X27.71 Y4.80 E463.6944
G1 X28.30 Y4.80 E463.7158
G1 X-12.80 Y-36.30 E465.8230
G1 X-12.80 Y-36.90 E465.8448
G1 X28.90 Y4.80 E467.9828
G1 X29.49 Y4.80 E468.0041
G1 X-12.80 Y-37.49 E470.1723
G1 X-12.80 Y-38.09 E470.1941
G1 X30.09 Y4.80 E472.3931
G1 X30.68 Y4.80 E472.4144
G1 X-12.80 Y-38.68 E474.6436
G1 X-12.80 Y-39.28 E474.6654
G1 X31.28 Y4.80 E476.9254
G1 X31.87 Y4.80 E476.9468
G1 X-12.80 Y-39.87 E479.2370
G1 X-12.80 Y-40.47 E479.2588
G1 X32.47 Y4.80 E481.5798
G1 X33.06 Y4.80 E481.6012
G1 X-12.80 Y-41.07 E483.9527
G1 X-12.80 Y-41.66 E483.9740
G1 X33.66 Y4.80 E486.3560
G1 X34.26 Y4.80 E486.3778
G1 X-12.80 Y-42.26 E488.7906
G1 X-12.80 Y-42.80 E488.8101
G1 X-12.75 Y-42.80 E488.8120
G1 X34.80 Y4.75 E491.2499
G1 X34.80 Y4.15 E491.2716
G1 X-12.15 Y-42.80 E493.6787
G1 X-11.56 Y-42.80 E493.7001
G1 X34.80 Y3.56 E496.0770
G1 X34.80 Y2.96 E496.0987
G1 X-10.96 Y-42.80 E498.4449
G1 X-10.36 Y-42.80 E498.4666
G1 X34.80 Y2.37 E500.7823
G1 X34.80 Y1.77 E500.8040
G1 X-9.77 Y-42.80 E503.0891
G1 X-9.17 Y-42.80 E503.1109
G1 X34.80 Y1.17 E505.3652
G1 X34.80 Y.58 E505.3866
G1 X-8.58 Y-42.80 E507.6107
G1 X-7.98 Y-42.80 E507.6324
G1 X34.80 Y-.02 E509.8258
G1 X34.80 Y-.61 E509.8472
G1 X-7.39 Y-42.80 E512.0102
G1 X-6.79 Y-42.80 E512.0320
G1 X34.80 Y-1.21 E514.1643
G1 X34.80 Y-1.80 E514.1857
G1 X-6.20 Y-42.80 E516.2878
G1 X-5.60 Y-42.80 E516.3095
G1 X34.80 Y-2.40 E518.3809
G1 X34.80 Y-2.99 E518.4022
G1 X-5.01 Y-42.80 E520.4433
G1 X-4.41 Y-42.80 E520.4651
G1 X34.80 Y-3.59 E522.4754
G1 X34.80 Y-4.18 E522.4967
G1 X-3.82 Y-42.80 E524.4768
G1 X-3.22 Y-42.80 E524.4985
G1 X34.80 Y-4.78 E526.4478
G1 X34.80 Y-5.37 E526.4692
G1 X-2.62 Y-42.80 E528.3880
G1 X-2.03 Y-42.80 E528.4094
G1 X34.80 Y-5.97 E530.2977
G1 X34.80 Y-6.56 E530.3191
G1 X-1.43 Y-42.80 E532.1768
G1 X-.84 Y-42.80 E532.1982
G1 X34.80 Y-7.16 E534.0255
G1 X34.80 Y-7.76 E534.0472
G1 X-.24 Y-42.80 E535.8437
G1 X.35 Y-42.80 E535.8651
G1 X34.80 Y-8.35 E537.6313
G1 X34.80 Y-8.95 E537.6531
G1 X.95 Y-42.80 E539.3886
G1 X1.54 Y-42.80 E539.4099
G1 X34.80 Y-9.54 E541.1152
G1 X34.80 Y-10.14 E541.1370
G1 X2.14 Y-42.80 E542.8115
G1 X2.73 Y-42.80 E542.8328
G1 X34.80 Y-10.73 E544.4771
G1 X34.80 Y-11.33 E544.4989
G1 X3.33 Y-42.80 E546.1123
G1 X3.92 Y-42.80 E546.1337
G1 X34.80 Y-11.92 E547.7169
G1 X34.80 Y-12.52 E547.7387
G1 X4.52 Y-42.80 E549.2912
G1 X5.11 Y-42.80 E549.3125
G1 X34.80 Y-13.11 E550.8347
G1 X34.80 Y-13.71 E550.8565
G1 X5.71 Y-42.80 E552.3479
G1 X6.31 Y-42.80 E552.3697
G1 X34.80 Y-14.30 E553.8306
G1 X34.80 Y-14.90 E553.8523
G1 X6.90 Y-42.80 E555.2828
G1 X7.50 Y-42.80 E555.3045
G1 X34.80 Y-15.50 E556.7042
G1 X34.80 Y-16.09 E556.7256
G1 X8.09 Y-42.80 E558.0950
G1 X8.69 Y-42.80 E558.1168
G1 X34.80 Y-16.69 E559.4555
G1 X34.80 Y-17.28 E559.4768
G1 X9.28 Y-42.80 E560.7853
G1 X9.88 Y-42.80 E560.8070
G1 X34.80 Y-17.88 E562.0846
G1 X34.80 Y-18.47 E562.1060
G1 X10.47 Y-42.80 E563.3534
G1 X11.07 Y-42.80 E563.3751
G1 X34.80 Y-19.07 E564.5918
G1 X34.80 Y-19.66 E564.6131
G1 X11.66 Y-42.80 E565.7995
G1 X12.26 Y-42.80 E565.8213
G1 X34.80 Y-20.26 E566.9769
G1 X34.80 Y-20.85 E566.9983
G1 X12.86 Y-42.80 E568.1234
G1 X13.45 Y-42.80 E568.1448
G1 X34.80 Y-21.45 E569.2394
G1 X34.80 Y-22.04 E569.2608
G1 X14.05 Y-42.80 E570.3249
G1 X14.64 Y-42.80 E570.3463
G1 X34.80 Y-22.64 E571.3799
G1 X34.80 Y-23.24 E571.4016
G1 X15.24 Y-42.80 E572.4045
G1 X15.83 Y-42.80 E572.4259
G1 X34.80 Y-23.83 E573.3985
G1 X34.80 Y-24.43 E573.4203
G1 X16.43 Y-42.80 E574.3621
G1 X17.02 Y-42.80 E574.3834
G1 X34.80 Y-25.02 E575.2950
G1 X34.80 Y-25.62 E575.3168
G1 X17.62 Y-42.80 E576.1976
G1 X18.21 Y-42.80 E576.2190
G1 X34.80 Y-26.21 E577.0695
G1 X34.80 Y-26.81 E577.0913
G1 X18.81 Y-42.80 E577.9111
G1 X19.40 Y-42.80 E577.9325
G1 X34.80 Y-27.40 E578.7220
G1 X34.80 Y-28.00 E578.7438
G1 X20.00 Y-42.80 E579.5026
G1 X20.60 Y-42.80 E579.5243
G1 X34.80 Y-28.59 E580.2526
G1 X34.80 Y-29.19 E580.2744
G1 X21.19 Y-42.80 E580.9722
G1 X21.79 Y-42.80 E580.9940
G1 X34.80 Y-29.78 E581.6613
G1 X34.80 Y-30.38 E581.6830
G1 X22.38 Y-42.80 E582.3198
G1 X22.98 Y-42.80 E582.3415
G1 X34.80 Y-30.98 E582.9475
G1 X34.80 Y-31.57 E582.9689
G1 X23.57 Y-42.80 E583.5446
G1 X24.17 Y-42.80 E583.5664
G1 X34.80 Y-32.17 E584.1114
G1 X34.80 Y-32.76 E584.1328
G1 X24.76 Y-42.80 E584.6475
G1 X25.36 Y-42.80 E584.6693
G1 X34.80 Y-33.36 E585.1533
G1 X34.80 Y-33.95 E585.1746
G1 X25.95 Y-42.80 E585.6284
G1 X26.55 Y-42.80 E585.6502
G1 X34.80 Y-34.55 E586.0731
G1 X34.80 Y-35.14 E586.0945
G1 X27.14 Y-42.80 E586.4873
G1 X27.74 Y-42.80 E586.5090
G1 X34.80 Y-35.74 E586.8709
G1 X34.80 Y-36.33 E586.8924
G1 X28.34 Y-42.80 E587.2238
G1 X28.93 Y-42.80 E587.2451
G1 X34.80 Y-36.93 E587.5461
G1 X34.80 Y-37.52 E587.5675
G1 X29.53 Y-42.80 E587.8379
G1 X30.12 Y-42.80 E587.8593
G1 X34.80 Y-38.12 E588.0992
G1 X34.80 Y-38.72 E588.1209
G1 X30.72 Y-42.80 E588.3302
G1 X31.31 Y-42.80 E588.3515
G1 X34.80 Y-39.31 E588.5305
G1 X34.80 Y-39.91 E588.5522
G1 X31.91 Y-42.80 E588.7004
G1 X32.50 Y-42.80 E588.7218
G1 X34.80 Y-40.50 E588.8397
G1 X34.80 Y-41.10 E588.8615
G1 X33.10 Y-42.80 E588.9486
G1 X33.69 Y-42.80 E588.9700
G1 X34.80 Y-41.69 E589.0269
G1 X34.80 Y-42.29 E589.0487
G1 X34.29 Y-42.80 E589.0749
;percent
;support-end
;layer:0.20
G1 Z1.00 F400
;support-start
;raft
G1 X35.00 Y5.00 F7200
G1 X-13.00 Y5.00 E590.8150 F4800
G1 X-13.00 Y-43.00 E592.5552
G1 X35.00 Y-43.00 E594.2954
G1 X35.00 Y5.00 E596.0356
G1 X-12.80 Y4.78 F7200
G1 X-12.78 Y4.80 E596.0366 F4800
G1 X-12.18 Y4.80 E596.0583
G1 X-12.80 Y4.18 E596.0902
G1 X-12.80 Y3.59 E596.1115
G1 X-11.59 Y4.80 E596.1736
G1 X-10.99 Y4.80 E596.1953
G1 X-12.80 Y2.99 E596.2882
G1 X-12.80 Y2.40 E596.3095
G1 X-10.40 Y4.80 E596.4326
G1 X-9.80 Y4.80 E596.4543
G1 X-12.80 Y1.80 E596.6082
G1 X-12.80 Y1.21 E596.6295
G1 X-9.21 Y4.80 E596.8136
G1 X-8.61 Y4.80 E596.8354
G1 X-12.80 Y.61 E597.0501
G1 X-12.80 Y.02 E597.0715
G1 X-8.02 Y4.80 E597.3166
G1 X-7.42 Y4.80 E597.3383
G1 X-12.80 Y-.58 E597.6142
G1 X-12.80 Y-1.17 E597.6355
G1 X-6.82 Y4.80 E597.9419
G1 X-6.23 Y4.80 E597.9632
G1 X-12.80 Y-1.77 E598.3001
G1 X-12.80 Y-2.37 E598.3219
G1 X-5.63 Y4.80 E598.6895
G1 X-5.04 Y4.80 E598.7108
G1 X-12.80 Y-2.96 E599.1087
G1 X-12.80 Y-3.56 E599.1305
G1 X-4.44 Y4.80 E599.5591
G1 X-3.85 Y4.80 E599.5805
G1 X-12.80 Y-4.15 E600.0393
G1 X-12.80 Y-4.75 E600.0611
G1 X-3.25 Y4.80 E600.5507
G1 X-2.66 Y4.80 E600.5721
G1 X-12.80 Y-5.34 E601.0919
G1 X-12.80 Y-5.94 E601.1137
G1 X-2.06 Y4.80 E601.6643
G1 X-1.47 Y4.80 E601.6857
G1 X-12.80 Y-6.53 E602.2666
G1 X-12.80 Y-7.13 E602.2884
G1 X-.87 Y4.80 E602.9000
G1 X-.28 Y4.80 E602.9214
G1 X-12.80 Y-7.72 E603.5632
G1 X-12.80 Y-8.32 E603.5850
G1 X.32 Y4.80 E604.2577
G1 X.91 Y4.80 E604.2790
G1 X-12.80 Y-8.91 E604.9820
G1 X-12.80 Y-9.51 E605.0037
G1 X1.51 Y4.80 E605.7374
G1 X2.11 Y4.80 E605.7592
G1 X-12.80 Y-10.10 E606.5233
G1 X-12.80 Y-10.70 E606.5451
G1 X2.70 Y4.80 E607.3397
G1 X3.30 Y4.80 E607.3615
G1 X-12.80 Y-11.30 E608.1870
G1 X-12.80 Y-11.89 E608.2083
G1 X3.89 Y4.80 E609.0641
G1 X4.49 Y4.80 E609.0858
G1 X-12.80 Y-12.49 E609.9722
G1 X-12.80 Y-13.08 E609.9936
G1 X5.08 Y4.80 E610.9103
G1 X5.68 Y4.80 E610.9320
G1 X-12.80 Y-13.68 E611.8795
G1 X-12.80 Y-14.27 E611.9009
G1 X6.27 Y4.80 E612.8786
G1 X6.87 Y4.80 E612.9004
G1 X-12.80 Y-14.87 E613.9089
G1 X-12.80 Y-15.46 E613.9303
G1 X7.46 Y4.80 E614.9690
G1 X8.06 Y4.80 E614.9907
G1 X-12.80 Y-16.06 E616.0603
G1 X-12.80 Y-16.65 E616.0816
G1 X8.65 Y4.80 E617.1814
G1 X9.25 Y4.80 E617.2031
G1 X-12.80 Y-17.25 E618.3336
G1 X-12.80 Y-17.84 E618.3550
G1 X9.85 Y4.80 E619.5160
G1 X10.44 Y4.80 E619.5374
G1 X-12.80 Y-18.44 E620.7289
G1 X-12.80 Y-19.04 E620.7506
G1 X11.04 Y4.80 E621.9730
