;generated by ffslicer 1.3.0 10/11/16 20:23:06
;start gcode
M118 X39.68 Y27.00 Z2.01 T0
M140 S0
M104 S220 T0
M104 S0 T1
M107
G90
G28
M132 X Y Z A B
G1 Z50.00 F600
G161 X Y F3300
M6 T0
M907 X100 Y100 Z40 A80 B20
;preExtrude: 0.20
G1 Z.20 F400
M108 T0
;preExtruder0
G1 X26.41 Y-26.73 F7200
G1 X29.22 Y-25.88 E.4257 F1200
G1 X31.82 Y-24.49 E.8533
G1 X34.10 Y-22.62 E1.2809
G1 X35.97 Y-20.35 E1.7074
G1 X37.36 Y-17.75 E2.1349
G1 X38.21 Y-14.93 E2.5620
G1 X38.46 Y-12.38 E2.9336
G1 X39.68 Y10.11 E6.1997
G1 X39.40 Y12.93 E6.6107
G1 X38.55 Y15.75 E7.0378
G1 X37.16 Y18.35 E7.4653
G1 X35.29 Y20.62 E7.8918
G1 X33.01 Y22.49 E8.3195
G1 X30.42 Y23.88 E8.7457
G1 X27.60 Y24.74 E9.1732
G1 X25.11 Y24.98 E9.5360
G1 X-.42 Y27.00 E13.2498
G1 X-24.86 Y27.00 E16.7939
G1 X-27.55 Y26.74 E17.1858
G1 X-28.96 Y26.31 E17.3996
;raft
;layer:0.29
G1 Z.29 F400
;shell
M106
G1 E16.0996 F1800
G1 X-29.88 Y12.00 F4200
G1 E17.3996 F1800
G1 X-29.88 Y12.00 F4200
G1 X-29.68 Y12.98 E17.4522 F1200
G1 X-29.49 Y13.96 E17.5047
G1 X-29.45 Y14.15 E17.5149
G1 X-29.00 Y14.82 E17.5573
G1 X-28.44 Y15.65 E17.6099
G1 X-28.23 Y15.97 E17.6300
G1 X-27.72 Y16.31 E17.6623
G1 X-26.41 Y17.19 E17.7452
G1 X-24.26 Y17.62 E17.8605
G1 X-22.11 Y17.19 E17.9757
G1 X-20.29 Y15.97 E18.0909
G1 X-19.07 Y14.15 E18.2061
G1 X-18.65 Y12.00 E18.3213
G1 X-19.07 Y9.85 E18.4364
G1 X-20.29 Y8.03 E18.5516
G1 X-22.11 Y6.81 E18.6668
G1 X-22.95 Y6.64 E18.7118
G1 X-24.26 Y6.38 E18.7820
G1 X-24.91 Y6.51 E18.8169
G1 X-26.41 Y6.81 E18.8973
G1 X-26.80 Y7.07 E18.9219
G1 X-28.23 Y8.03 E19.0125
G1 X-28.39 Y8.26 E19.0272
G1 X-29.45 Y9.85 E19.1277
G1 X-29.47 Y9.94 E19.1325
G1 X-29.86 Y11.90 E19.2376 F900
G1 X-29.47 Y12.00 E19.2376 F300
G1 X-29.07 Y13.99 E19.3443 F1200
G1 X-27.94 Y15.68 E19.4511
G1 X-26.25 Y16.81 E19.5580
G1 X-24.26 Y17.21 E19.6647
G1 X-22.27 Y16.81 E19.7714
G1 X-20.58 Y15.68 E19.8783
G1 X-19.45 Y13.99 E19.9851
G1 X-19.05 Y12.00 E20.0918
G1 X-19.45 Y10.01 E20.1985
G1 X-20.58 Y8.32 E20.3054
G1 X-22.27 Y7.19 E20.4123
G1 X-24.26 Y6.79 E20.5190
G1 X-26.25 Y7.19 E20.6257
G1 X-27.94 Y8.32 E20.7325
G1 X-29.07 Y10.01 E20.8394
G1 X-29.45 Y11.90 E20.9408
G1 X-29.86 Y11.90 E20.9479 F300
G1 E19.6479 F1800
G1 X-34.02 Y12.00 F4200
G1 E20.9479 F1800
G1 X-34.02 Y12.00 F4200
G1 X-33.92 Y11.00 E21.0008 F1200
G1 X-33.84 Y10.17 E21.0446
G1 X-33.79 Y10.02 E21.0529
G1 X-33.50 Y9.06 E21.1056
G1 X-33.30 Y8.40 E21.1419
G1 X-33.15 Y8.13 E21.1581
G1 X-32.68 Y7.24 E21.2110
G1 X-32.44 Y6.78 E21.2383
G1 X-31.26 Y5.36 E21.3353
G1 X-29.84 Y4.19 E21.4321
G1 X-28.22 Y3.32 E21.5287
G1 X-26.45 Y2.78 E21.6260
G1 X-24.62 Y2.60 E21.7227
G1 X-22.79 Y2.78 E21.8193
G1 X-21.02 Y3.32 E21.9166
G1 X-19.40 Y4.19 E22.0133
G1 X-17.97 Y5.36 E22.1104
G1 X-16.80 Y6.78 E22.2071
G1 X-15.94 Y8.40 E22.3035
G1 X-15.40 Y10.17 E22.4008
G1 X-15.22 Y12.00 E22.4975
G1 X-15.40 Y13.83 E22.5941
G1 X-15.94 Y15.60 E22.6914
G1 X-16.80 Y17.22 E22.7878
G1 X-17.97 Y18.64 E22.8846
G1 X-19.40 Y19.82 E22.9820
G1 X-21.02 Y20.68 E23.0784
G1 X-22.79 Y21.22 E23.1757
G1 X-24.62 Y21.40 E23.2724
G1 X-26.45 Y21.22 E23.3690
G1 X-28.22 Y20.68 E23.4663
G1 X-29.06 Y20.23 E23.5164
G1 X-29.84 Y19.82 E23.5627
G1 X-30.70 Y19.11 E23.6214
G1 X-31.26 Y18.64 E23.6598
G1 X-32.07 Y17.66 E23.7266
G1 X-32.44 Y17.22 E23.7568
G1 X-33.11 Y15.96 E23.8319
G1 X-33.30 Y15.60 E23.8533
G1 X-33.76 Y14.08 E23.9367
G1 X-33.84 Y13.83 E23.9505 F900
G1 X-34.01 Y12.10 E24.0419
G1 X-34.42 Y12.00 E24.0419 F300
G1 X-34.23 Y10.09 E24.1428 F1200
G1 X-33.67 Y8.25 E24.2439
G1 X-32.77 Y6.56 E24.3446
G1 X-31.55 Y5.07 E24.4458
G1 X-30.07 Y3.85 E24.5466
G1 X-28.37 Y2.95 E24.6478
G1 X-26.53 Y2.39 E24.7489
G1 X-24.62 Y2.20 E24.8498
G1 X-22.71 Y2.39 E24.9507
G1 X-20.87 Y2.95 E25.0518
G1 X-19.17 Y3.85 E25.1529
G1 X-17.69 Y5.07 E25.2537
G1 X-16.47 Y6.56 E25.3549
G1 X-15.57 Y8.25 E25.4556
G1 X-15.01 Y10.09 E25.5567
G1 X-14.82 Y12.00 E25.6576
G1 X-15.01 Y13.91 E25.7585
G1 X-15.57 Y15.75 E25.8596
G1 X-16.47 Y17.45 E25.9607
G1 X-17.69 Y18.93 E26.0615
G1 X-19.17 Y20.15 E26.1624
G1 X-20.87 Y21.05 E26.2635
G1 X-22.71 Y21.61 E26.3646
G1 X-24.62 Y21.80 E26.4655
G1 X-26.53 Y21.61 E26.5664
G1 X-28.37 Y21.05 E26.6675
G1 X-30.07 Y20.15 E26.7686
G1 X-31.55 Y18.93 E26.8694
G1 X-32.77 Y17.45 E26.9703
G1 X-33.67 Y15.75 E27.0714
G1 X-34.23 Y13.91 E27.1725
G1 X-34.41 Y12.10 E27.2681
G1 X-34.01 Y12.10 E27.2751 F300
;infill
G1 E25.9751 F1800
G1 X-33.56 Y10.77 F4200
G1 E27.2751 F1800
G1 X-33.56 Y10.77 F4200
G1 X-29.21 Y15.12 E27.5985 F1200
G1 X-29.77 Y14.28 E27.6516
G1 X-29.84 Y13.92 E27.6708
G1 X-33.50 Y10.26 E27.9429
G1 X-33.50 Y10.24 E27.9440
G1 X-33.38 Y9.82 E27.9669
G1 X-29.98 Y13.21 E28.2193
G1 X-30.12 Y12.51 E28.2569
G1 X-33.24 Y9.39 E28.4888
G1 X-33.11 Y8.95 E28.5129
G1 X-30.20 Y11.87 E28.7296
G1 X-30.10 Y11.40 E28.7549
G1 X-32.98 Y8.52 E28.9690
G1 X-32.78 Y8.15 E28.9911
G1 X-30.01 Y10.92 E29.1970
G1 X-29.91 Y10.45 E29.2223
G1 X-32.58 Y7.78 E29.4208
G1 X-32.39 Y7.41 E29.4426
G1 X-29.82 Y9.98 E29.6337
G1 X-29.77 Y9.72 E29.6476
G1 X-29.67 Y9.57 E29.6571
G1 X-32.19 Y7.05 E29.8444
G1 X-32.15 Y6.98 E29.8487
G1 X-31.95 Y6.72 E29.8659
G1 X-29.44 Y9.23 E30.0525
G1 X-29.21 Y8.89 E30.0741
G1 X-31.69 Y6.41 E30.2585
G1 X-31.44 Y6.10 E30.2794
G1 X-28.99 Y8.55 E30.4615
G1 X-28.76 Y8.21 E30.4831
G1 X-31.18 Y5.79 E30.6630
G1 X-31.02 Y5.60 E30.6761
G1 X-30.91 Y5.50 E30.6839
G1 X-28.53 Y7.87 E30.8605
G1 X-28.48 Y7.79 E30.8654
G1 X-28.22 Y7.62 E30.8817
G1 X-30.59 Y5.25 E31.0579
G1 X-30.28 Y4.99 E31.0792
G1 X-27.88 Y7.39 E31.2576
G1 X-27.55 Y7.16 E31.2788
G1 X-29.97 Y4.74 E31.4587
G1 X-29.66 Y4.48 E31.4799
G1 X-27.21 Y6.94 E31.6625
G1 X-26.87 Y6.71 E31.6840
G1 X-29.30 Y4.28 E31.8647
G1 X-28.93 Y4.08 E31.8868
G1 X-26.53 Y6.49 E32.0656
G1 X-26.05 Y6.39 E32.0914
G1 X-28.56 Y3.89 E32.2776
G1 X-28.19 Y3.69 E32.2997
G1 X-25.58 Y6.30 E32.4937
G1 X-25.11 Y6.21 E32.5189
G1 X-27.78 Y3.54 E32.7174
G1 X-27.34 Y3.41 E32.7415
G1 X-24.64 Y6.11 E32.9422
G1 X-24.26 Y6.04 E32.9625
G1 X-24.12 Y6.06 E32.9700
G1 X-26.91 Y3.28 E33.1770
G1 X-26.47 Y3.15 E33.2011
G1 X-23.41 Y6.21 E33.4286
G1 X-22.71 Y6.35 E33.4661
G1 X-25.97 Y3.08 E33.7089
G1 X-25.46 Y3.03 E33.7358
G1 X-22.00 Y6.49 E33.9930
G1 X-21.98 Y6.49 E33.9941
G1 X-20.32 Y7.60 E34.0991
G1 X-24.95 Y2.98 E34.4429
G1 E33.1429 F1800
G1 X-19.06 Y4.90 F4200
G1 E34.4429 F1800
G1 X-19.06 Y4.90 F4200
G1 X-17.52 Y6.44 E34.5574 F1200
G1 X-17.08 Y6.98 E34.5940
G1 X-16.54 Y7.98 E34.6537
G1 X-20.60 Y3.93 E34.9552
G1 X-21.14 Y3.64 E34.9874
G1 X-21.59 Y3.50 E35.0122
G1 X-16.12 Y8.98 E35.4192
G1 X-15.87 Y9.79 E35.4638
G1 X-22.41 Y3.25 E35.9500
G1 X-22.85 Y3.12 E35.9741
G1 X-23.14 Y3.09 E35.9894
G1 X-15.70 Y10.52 E36.5421
G1 X-15.64 Y11.15 E36.5754
G1 X-23.76 Y3.03 E37.1791
G1 X-24.39 Y2.97 E37.2123
G1 X-15.58 Y11.77 E37.8669
G1 X-15.56 Y12.00 E37.8790
G1 X-15.59 Y12.33 E37.8965
G1 X-19.86 Y8.06 E38.2139
G1 X-18.75 Y9.72 E38.3189
G1 X-18.75 Y9.74 E38.3199
G1 X-15.64 Y12.85 E38.5511
G1 X-15.69 Y13.36 E38.5781
G1 X-18.61 Y10.45 E38.7948
G1 X-18.47 Y11.15 E38.8323
G1 X-15.76 Y13.86 E39.0338
G1 X-15.89 Y14.29 E39.0574
G1 X-18.32 Y11.86 E39.2380
G1 X-18.30 Y12.00 E39.2455
G1 X-18.37 Y12.38 E39.2658
G1 X-16.03 Y14.73 E39.4401
G1 X-16.16 Y15.16 E39.4637
G1 X-18.47 Y12.85 E39.6355
G1 X-18.56 Y13.32 E39.6606
G1 X-16.31 Y15.57 E39.8279
G1 X-16.50 Y15.94 E39.8497
G1 X-18.65 Y13.79 E40.0096
G1 X-18.75 Y14.27 E40.0353
G1 X-16.70 Y16.31 E40.1874
G1 X-16.90 Y16.68 E40.2095
G1 X-18.97 Y14.61 E40.3634
G1 X-19.20 Y14.95 E40.3850
G1 X-17.10 Y17.04 E40.5407
G1 X-17.36 Y17.36 E40.5624
G1 X-19.42 Y15.29 E40.7159
G1 X-19.65 Y15.62 E40.7370
G1 X-17.61 Y17.67 E40.8891
G1 X-17.87 Y17.98 E40.9103
G1 X-19.88 Y15.96 E41.0601
G1 X-20.05 Y16.21 E41.0760
G1 X-20.13 Y16.27 E41.0813
G1 X-18.12 Y18.29 E41.2311
G1 X-18.21 Y18.40 E41.2386
G1 X-18.41 Y18.56 E41.2520
G1 X-20.47 Y16.50 E41.4052
G1 X-20.81 Y16.73 E41.4267
G1 X-18.72 Y18.82 E41.5821
G1 X-19.03 Y19.07 E41.6031
G1 X-21.15 Y16.95 E41.7607
G1 X-21.49 Y17.18 E41.7822
G1 X-19.34 Y19.33 E41.9421
G1 X-19.59 Y19.53 E41.9589
G1 X-19.66 Y19.57 E41.9631
G1 X-21.83 Y17.41 E42.1241
G1 X-21.98 Y17.51 E42.1336
G1 X-22.24 Y17.56 E42.1475
G1 X-20.03 Y19.77 E42.3118
G1 X-20.40 Y19.97 E42.3339
G1 X-22.71 Y17.66 E42.5056
G1 X-23.18 Y17.75 E42.5308
G1 X-20.77 Y20.16 E42.7099
G1 X-21.14 Y20.36 E42.7321
G1 X-23.65 Y17.84 E42.9190
G1 X-24.13 Y17.94 E42.9448
G1 X-21.57 Y20.49 E43.1347
G1 X-22.00 Y20.63 E43.1585
G1 X-24.77 Y17.86 E43.3644
G1 X-25.47 Y17.72 E43.4020
G1 X-22.44 Y20.76 E43.6276
G1 X-22.85 Y20.88 E43.6501
G1 X-22.88 Y20.89 E43.6517
G1 X-26.18 Y17.58 E43.8974
G1 X-26.54 Y17.51 E43.9167
G1 X-27.38 Y16.95 E43.9698
G1 X-23.39 Y20.94 E44.2664
G1 X-23.91 Y20.99 E44.2938
G1 X-33.61 Y11.29 E45.0150
G1 X-33.66 Y11.80 E45.0419
G1 X-24.42 Y21.04 E45.7288
G1 X-24.62 Y21.06 E45.7394
G1 X-25.01 Y21.02 E45.7600
G1 X-33.64 Y12.39 E46.4016
G1 X-33.58 Y13.01 E46.4343
G1 X-25.63 Y20.96 E47.0253
G1 X-26.26 Y20.90 E47.0586
G1 X-33.51 Y13.64 E47.5980
G1 X-33.50 Y13.76 E47.6043
G1 X-33.30 Y14.42 E47.6405
G1 X-27.04 Y20.68 E48.1059
G1 X-27.85 Y20.44 E48.1503
G1 X-33.06 Y15.23 E48.5376
G1 X-32.98 Y15.48 E48.5514
G1 X-32.53 Y16.33 E48.6020
G1 X-28.94 Y19.91 E48.8685
G1 X-29.64 Y19.53 E48.9104
G1 X-30.98 Y18.44 E49.0012
G1 X-31.05 Y18.36 E49.0068
;shell
G1 E47.7068 F1800
G1 X-3.88 Y12.00 F4200
G1 E49.0068 F1800
G1 X-3.88 Y12.00 F4200
G1 X-3.68 Y12.98 E49.0594 F1200
G1 X-3.60 Y13.38 E49.0808
G1 X-3.27 Y13.87 E49.1119
G1 X-2.82 Y14.56 E49.1552
G1 X-2.67 Y14.65 E49.1644
G1 X-1.84 Y15.21 E49.2170
G1 X-1.64 Y15.34 E49.2295
G1 X-.89 Y15.49 E49.2697
G1 X-.26 Y15.62 E49.3035
G1 X1.12 Y15.34 E49.3776
G1 X2.29 Y14.56 E49.4515
G1 X3.08 Y13.38 E49.5261
G1 X3.35 Y12.00 E49.6001
G1 X3.12 Y10.84 E49.6622
G1 X3.07 Y10.61 E49.6746
G1 X2.29 Y9.45 E49.7481
G1 X1.99 Y9.24 E49.7673
G1 X1.12 Y8.66 E49.8223
G1 X.19 Y8.47 E49.8722
G1 X-.26 Y8.38 E49.8963
G1 X-1.64 Y8.66 E49.9703
G1 X-1.75 Y8.73 E49.9772
G1 X-2.82 Y9.45 E50.0450
G1 X-3.22 Y10.04 E50.0825
G1 X-3.60 Y10.62 E50.1189 F900
G1 X-3.86 Y11.90 E50.1876
G1 X-3.47 Y12.00 E50.1876 F300
G1 X-3.22 Y13.23 E50.2535 F1200
G1 X-2.53 Y14.27 E50.3192
G1 X-1.49 Y14.96 E50.3848
G1 X-.26 Y15.21 E50.4507
G1 X.96 Y14.96 E50.5162
G1 X2.01 Y14.27 E50.5823
G1 X2.70 Y13.23 E50.6479
G1 X2.95 Y12.00 E50.7138
G1 X2.69 Y10.76 E50.7805
G1 X2.01 Y9.73 E50.8453
G1 X.96 Y9.04 E50.9114
G1 X-.26 Y8.79 E50.9768
G1 X-1.49 Y9.04 E51.0428
G1 X-2.53 Y9.73 E51.1084
G1 X-3.22 Y10.77 E51.1740
G1 X-3.45 Y11.90 E51.2347
G1 X-3.86 Y11.90 E51.2418 F300
G1 E49.9418 F1800
G1 X-10.02 Y12.00 F4200
G1 E51.2418 F1800
G1 X-10.02 Y12.00 F4200
G1 X-9.92 Y11.00 E51.2947 F1200
G1 X-9.84 Y10.17 E51.3385
G1 X-9.79 Y10.01 E51.3473
G1 X-9.50 Y9.06 E51.3995
G1 X-9.30 Y8.40 E51.4358
G1 X-9.15 Y8.12 E51.4525
G1 X-8.68 Y7.24 E51.5049
G1 X-8.44 Y6.78 E51.5322
G1 X-7.26 Y5.36 E51.6292
G1 X-5.84 Y4.19 E51.7260
G1 X-4.22 Y3.32 E51.8226
G1 X-2.45 Y2.78 E51.9199
G1 X-.62 Y2.60 E52.0166
G1 X1.21 Y2.78 E52.1132
G1 X2.98 Y3.32 E52.2105
G1 X4.60 Y4.19 E52.3072
G1 X6.03 Y5.36 E52.4043
G1 X7.20 Y6.78 E52.5010
G1 X8.06 Y8.40 E52.5974
G1 X8.60 Y10.17 E52.6947
G1 X8.78 Y12.00 E52.7914
G1 X8.60 Y13.83 E52.8880
G1 X8.06 Y15.60 E52.9853
G1 X7.20 Y17.22 E53.0817
G1 X6.03 Y18.64 E53.1784
G1 X4.60 Y19.82 E53.2759
G1 X2.98 Y20.68 E53.3723
G1 X1.21 Y21.22 E53.4696
G1 X-.62 Y21.40 E53.5663
G1 X-2.45 Y21.22 E53.6629
G1 X-4.22 Y20.68 E53.7602
G1 X-5.06 Y20.23 E53.8103
G1 X-5.84 Y19.82 E53.8566
G1 X-6.70 Y19.11 E53.9152
G1 X-7.26 Y18.64 E53.9537
G1 X-8.07 Y17.66 E54.0205
G1 X-8.44 Y17.22 E54.0507
G1 X-9.11 Y15.96 E54.1258
G1 X-9.30 Y15.60 E54.1471
G1 X-9.76 Y14.08 E54.2306
G1 X-9.84 Y13.83 E54.2444 F900
G1 X-10.01 Y12.10 E54.3358
G1 X-10.42 Y12.00 E54.3358 F300
G1 X-10.23 Y10.09 E54.4367 F1200
G1 X-9.67 Y8.25 E54.5378
G1 X-8.77 Y6.56 E54.6385
G1 X-7.55 Y5.07 E54.7397
G1 X-6.07 Y3.85 E54.8405
G1 X-4.37 Y2.95 E54.9416
G1 X-2.53 Y2.39 E55.0427
G1 X-.62 Y2.20 E55.1436
G1 X1.29 Y2.39 E55.2445
G1 X3.13 Y2.95 E55.3456
G1 X4.83 Y3.85 E55.4468
G1 X6.31 Y5.07 E55.5476
G1 X7.53 Y6.56 E55.6488
G1 X8.43 Y8.25 E55.7495
G1 X8.99 Y10.09 E55.8506
G1 X9.18 Y12.00 E55.9515
G1 X8.99 Y13.91 E56.0524
G1 X8.43 Y15.75 E56.1535
G1 X7.53 Y17.45 E56.2546
G1 X6.31 Y18.93 E56.3554
G1 X4.83 Y20.15 E56.4562
G1 X3.13 Y21.05 E56.5574
G1 X1.29 Y21.61 E56.6585
G1 X-.62 Y21.80 E56.7594
G1 X-2.53 Y21.61 E56.8603
G1 X-4.37 Y21.05 E56.9614
G1 X-6.07 Y20.15 E57.0625
G1 X-7.55 Y18.93 E57.1633
G1 X-8.77 Y17.45 E57.2641
G1 X-9.67 Y15.75 E57.3652
G1 X-10.23 Y13.91 E57.4663
G1 X-10.41 Y12.10 E57.5620
G1 X-10.01 Y12.10 E57.5690 F300
;infill
G1 E56.2690 F1800
G1 X-7.06 Y18.36 F4200
G1 E57.5690 F1800
G1 X-7.06 Y18.36 F4200
G1 X-6.98 Y18.43 E57.5745 F1200
G1 X-5.64 Y19.53 E57.6657
G1 X-4.94 Y19.91 E57.7076
G1 X-8.53 Y16.32 E57.9744
G1 X-8.98 Y15.48 E58.0245
G1 X-9.06 Y15.23 E58.0383
G1 X-3.85 Y20.44 E58.4257
G1 X-3.04 Y20.68 E58.4701
G1 X-9.31 Y14.42 E58.9358
G1 X-9.50 Y13.76 E58.9719
G1 X-9.52 Y13.64 E58.9783
G1 X-2.26 Y20.89 E59.5177
G1 X-1.63 Y20.96 E59.5510
G1 X-9.58 Y13.01 E60.1420
G1 X-9.64 Y12.38 E60.1753
G1 X-1.01 Y21.02 E60.8172
G1 X-.62 Y21.06 E60.8378
G1 X-.42 Y21.04 E60.8484
G1 X-9.66 Y11.80 E61.5353
G1 X-9.61 Y11.29 E61.5622
G1 X.09 Y20.98 E62.2830
G1 X.61 Y20.93 E62.3105
G1 X-9.56 Y10.77 E63.0661
G1 X-9.51 Y10.26 E63.0931
G1 X1.12 Y20.88 E63.8830
G1 X1.15 Y20.88 E63.8845
G1 X1.56 Y20.76 E63.9070
G1 X-9.38 Y9.82 E64.7203
G1 X-9.24 Y9.38 E64.7446
G1 X1.99 Y20.62 E65.5798
G1 X2.43 Y20.49 E65.6039
G1 X-9.11 Y8.95 E66.4618
G1 X-8.98 Y8.52 E66.4854
G1 X-8.98 Y8.52 E66.4854
G1 X-3.80 Y13.70 E66.8705
G1 X-3.92 Y13.52 E66.8819
G1 X-4.05 Y12.88 E66.9162
G1 X-8.78 Y8.15 E67.2679
G1 X-8.58 Y7.78 E67.2900
G1 X-4.19 Y12.18 E67.6167
G1 X-4.22 Y12.00 E67.6263
G1 X-4.15 Y11.65 E67.6451
G1 X-8.39 Y7.41 E67.9603
G1 X-8.19 Y7.05 E67.9819
G1 X-4.06 Y11.18 E68.2890
G1 X-3.96 Y10.71 E68.3142
G1 X-7.95 Y6.72 E68.6109
G1 X-7.69 Y6.41 E68.6321
G1 X-3.80 Y10.30 E68.9213
G1 X-3.57 Y9.97 E68.9425
G1 X-7.44 Y6.10 E69.2302
G1 X-7.18 Y5.79 E69.2514
G1 X-3.35 Y9.63 E69.5365
G1 X-3.12 Y9.29 E69.5581
G1 X-6.91 Y5.50 E69.8399
G1 X-6.59 Y5.25 E69.8612
G1 X-2.81 Y9.03 E70.1422
G1 X-2.47 Y8.80 E70.1638
G1 X-6.28 Y4.99 E70.4470
G1 X-5.97 Y4.74 E70.4680
G1 X-2.13 Y8.58 E70.7535
G1 X-1.79 Y8.35 E70.7750
G1 X-5.66 Y4.48 E71.0627
G1 X-5.64 Y4.47 E71.0639
G1 X-5.30 Y4.28 E71.0844
G1 X-1.33 Y8.25 E71.3795
G1 X-.86 Y8.15 E71.4048
G1 X-4.93 Y4.08 E71.7074
G1 X-4.56 Y3.89 E71.7292
G1 X-.39 Y8.06 E72.0392
G1 X-.26 Y8.04 E72.0461
G1 X.26 Y8.14 E72.0740
G1 X-4.19 Y3.69 E72.4048
G1 X-4.09 Y3.64 E72.4107
G1 X-3.78 Y3.54 E72.4278
G1 X.97 Y8.28 E72.7806
G1 X1.25 Y8.34 E72.7956
G1 X2.27 Y9.02 E72.8600
G1 X-3.34 Y3.41 E73.2771
G1 X-2.91 Y3.28 E73.3007
G1 X8.10 Y14.29 E74.1192
G1 X8.24 Y13.86 E74.1430
G1 X-2.47 Y3.14 E74.9396
G1 X-2.38 Y3.12 E74.9444
G1 X-1.98 Y3.08 E74.9655
G1 X8.30 Y13.36 E75.7298
G1 X8.35 Y12.84 E75.7572
G1 X-1.46 Y3.03 E76.4865
G1 X-.95 Y2.97 E76.5135
G1 X8.41 Y12.33 E77.2094
G1 X8.44 Y12.00 E77.2268
G1 X8.42 Y11.77 E77.2389
G1 X-.39 Y2.96 E77.8939
G1 X.24 Y3.03 E77.9272
G1 X8.35 Y11.14 E78.5301
G1 X8.29 Y10.52 E78.5629
G1 X.86 Y3.09 E79.1152
G1 X1.15 Y3.12 E79.1305
G1 X1.59 Y3.25 E79.1547
G1 X8.13 Y9.79 E79.6409
G1 X7.88 Y8.97 E79.6859
G1 X2.41 Y3.50 E80.0926
G1 X2.86 Y3.64 E80.1173
G1 X3.40 Y3.93 E80.1496
G1 X7.45 Y7.98 E80.4506
G1 X6.92 Y6.98 E80.5101
G1 X6.46 Y6.42 E80.5482
G1 X4.96 Y4.92 E80.6598
G1 E79.3598 F1800
G1 X2.71 Y9.46 F4200
G1 E80.6598 F1800
G1 X2.71 Y9.46 F4200
G1 X7.97 Y14.72 E81.0508 F1200
G1 X7.84 Y15.16 E81.0749
G1 X3.45 Y10.76 E81.4016
G1 X3.59 Y11.48 E81.4402
G1 X7.69 Y15.57 E81.7446
G1 X7.49 Y15.94 E81.7667
G1 X3.68 Y12.12 E82.0504
G1 X3.58 Y12.59 E82.0756
G1 X7.30 Y16.31 E82.3522
G1 X7.10 Y16.68 E82.3743
G1 X3.49 Y13.07 E82.6426
G1 X3.40 Y13.52 E82.6668
G1 X3.39 Y13.53 E82.6675
G1 X6.90 Y17.04 E82.9285
G1 X6.64 Y17.35 E82.9497
G1 X3.16 Y13.87 E83.2084
G1 X2.93 Y14.21 E83.2300
G1 X6.39 Y17.66 E83.4869
G1 X6.13 Y17.98 E83.5085
G1 X2.71 Y14.55 E83.7632
G1 X2.54 Y14.80 E83.7790
G1 X2.45 Y14.86 E83.7847
G1 X5.88 Y18.29 E84.0397
G1 X5.79 Y18.40 E84.0472
G1 X5.59 Y18.56 E84.0607
G1 X2.11 Y15.08 E84.3194
G1 X1.77 Y15.31 E84.3409
G1 X5.28 Y18.82 E84.6019
G1 X4.97 Y19.07 E84.6228
G1 X1.43 Y15.54 E84.8856
G1 X1.25 Y15.66 E84.8970
